( Generated by Carbide Copper )
( Material Size )
( X= 152.400, Y= 101.600, Z= 1.580 )
()
G17
G21
G54
G90
M05
(  )
T501 M06
( Contour )
M03 S10000
G0  X27.142 Y38.728
G0  Z3.000
G01 F400 Z0
G01 F400 Z-0.100
G01F400X26.960 Y38.689
X26.791 Y38.614
X26.641 Y38.505
X26.517 Y38.367
X26.424 Y38.207
X26.367 Y38.030
X26.348 Y37.846
X26.367 Y37.662
X26.424 Y37.485
X26.517 Y37.325
X26.641 Y37.187
X26.791 Y37.078
X26.960 Y37.003
X27.142 Y36.964
X27.327 Y36.964
X27.508 Y37.003
X27.678 Y37.078
X27.828 Y37.187
X27.952 Y37.325
X28.044 Y37.485
X28.102 Y37.662
X28.121 Y37.846
X28.102 Y38.030
X28.044 Y38.207
X27.952 Y38.367
X27.828 Y38.505
X27.678 Y38.614
X27.508 Y38.689
X27.327 Y38.728
X27.142 Y38.728
G0 Z3.000
G0  X52.228 Y38.728
G0  Z3.000
G01 F400 Z0
G01 F400 Z-0.100
G01F400X52.046 Y38.689
X51.877 Y38.614
X51.727 Y38.505
X51.603 Y38.367
X51.510 Y38.207
X51.453 Y38.030
X51.434 Y37.846
X51.453 Y37.662
X51.510 Y37.485
X51.603 Y37.325
X51.727 Y37.187
X51.877 Y37.078
X52.046 Y37.003
X52.228 Y36.964
X52.413 Y36.964
X52.594 Y37.003
X52.764 Y37.078
X52.914 Y37.187
X53.038 Y37.325
X53.130 Y37.485
X53.188 Y37.662
X53.207 Y37.846
X53.188 Y38.030
X53.130 Y38.207
X53.038 Y38.367
X52.914 Y38.505
X52.764 Y38.614
X52.594 Y38.689
X52.413 Y38.728
X52.228 Y38.728
G0 Z3.000
G0  X18.166 Y38.205
G0  Z3.000
G01 F400 Z0
G01 F400 Z-0.100
G01F400X17.948 Y38.158
X17.745 Y38.068
X17.565 Y37.937
X17.416 Y37.772
X17.305 Y37.579
X17.236 Y37.367
X17.213 Y37.146
X17.236 Y36.925
X17.264 Y36.838
X11.239 Y30.813
X11.135 Y30.835
X10.921 Y30.835
X10.712 Y30.790
X10.516 Y30.703
X10.343 Y30.577
X10.199 Y30.418
X10.138 Y30.313
X5.416 Y30.313
X5.355 Y30.418
X5.212 Y30.577
X5.038 Y30.703
X4.843 Y30.790
X4.633 Y30.835
X4.419 Y30.835
X4.209 Y30.790
X4.014 Y30.703
X3.840 Y30.577
X3.697 Y30.418
X3.590 Y30.232
X3.524 Y30.029
X3.501 Y29.816
X3.524 Y29.603
X3.590 Y29.399
X3.697 Y29.213
X3.840 Y29.054
X4.014 Y28.928
X4.209 Y28.841
X4.419 Y28.796
X4.633 Y28.796
X4.843 Y28.841
X5.038 Y28.928
X5.212 Y29.054
X5.355 Y29.213
X5.416 Y29.319
X10.138 Y29.319
X10.199 Y29.213
X10.343 Y29.054
X10.516 Y28.928
X10.712 Y28.841
X10.921 Y28.796
X11.135 Y28.796
X11.345 Y28.841
X11.541 Y28.928
X11.714 Y29.054
X11.857 Y29.213
X11.965 Y29.399
X12.031 Y29.603
X12.053 Y29.816
X12.031 Y30.029
X11.989 Y30.153
X17.966 Y36.130
X18.166 Y36.087
X18.389 Y36.087
X18.606 Y36.134
X18.809 Y36.224
X18.990 Y36.355
X19.139 Y36.520
X19.250 Y36.713
X19.319 Y36.925
X19.342 Y37.146
X19.319 Y37.367
X19.250 Y37.579
X19.139 Y37.772
X18.990 Y37.937
X18.809 Y38.068
X18.606 Y38.158
X18.389 Y38.205
X18.166 Y38.205
G0 Z3.000
G0  X60.166 Y38.205
G0  Z3.000
G01 F400 Z0
G01 F400 Z-0.100
G01F400X59.948 Y38.158
X59.745 Y38.068
X59.565 Y37.937
X59.416 Y37.772
X59.305 Y37.579
X59.236 Y37.367
X59.213 Y37.146
X59.236 Y36.925
X59.305 Y36.713
X59.416 Y36.520
X59.565 Y36.355
X59.745 Y36.224
X59.948 Y36.134
X60.166 Y36.087
X60.388 Y36.087
X60.606 Y36.134
X60.809 Y36.224
X60.989 Y36.355
X61.139 Y36.521
X61.211 Y36.649
X65.488 Y36.649
X67.544 Y34.593
X67.523 Y34.529
X67.501 Y34.316
X67.523 Y34.103
X67.590 Y33.900
X67.697 Y33.714
X67.840 Y33.555
X68.013 Y33.429
X68.209 Y33.342
X68.419 Y33.297
X68.633 Y33.297
X68.842 Y33.342
X69.038 Y33.429
X69.212 Y33.555
X69.355 Y33.714
X69.416 Y33.819
X74.138 Y33.819
X74.199 Y33.714
X74.343 Y33.555
X74.516 Y33.429
X74.712 Y33.342
X74.921 Y33.297
X75.135 Y33.297
X75.345 Y33.342
X75.541 Y33.429
X75.714 Y33.555
X75.857 Y33.714
X75.964 Y33.900
X76.031 Y34.103
X76.053 Y34.316
X76.031 Y34.529
X75.964 Y34.733
X75.857 Y34.919
X75.714 Y35.078
X75.541 Y35.204
X75.345 Y35.291
X75.135 Y35.336
X74.921 Y35.336
X74.712 Y35.291
X74.516 Y35.204
X74.343 Y35.078
X74.199 Y34.919
X74.138 Y34.814
X69.416 Y34.814
X69.355 Y34.919
X69.212 Y35.078
X69.038 Y35.204
X68.842 Y35.291
X68.633 Y35.336
X68.419 Y35.336
X68.248 Y35.299
X66.028 Y37.519
X65.946 Y37.579
X65.851 Y37.621
X65.749 Y37.643
X61.207 Y37.652
X61.138 Y37.772
X60.989 Y37.937
X60.809 Y38.068
X60.606 Y38.158
X60.388 Y38.205
X60.166 Y38.205
G0 Z3.000
G0  X27.142 Y36.188
G0  Z3.000
G01 F400 Z0
G01 F400 Z-0.100
G01F400X26.960 Y36.149
X26.791 Y36.074
X26.641 Y35.965
X26.517 Y35.827
X26.424 Y35.667
X26.367 Y35.490
X26.348 Y35.306
X26.367 Y35.122
X26.424 Y34.945
X26.517 Y34.785
X26.641 Y34.647
X26.791 Y34.538
X26.960 Y34.463
X27.142 Y34.424
X27.327 Y34.424
X27.508 Y34.463
X27.678 Y34.538
X27.828 Y34.647
X27.952 Y34.785
X28.044 Y34.945
X28.102 Y35.122
X28.121 Y35.306
X28.102 Y35.490
X28.044 Y35.667
X27.952 Y35.827
X27.828 Y35.965
X27.678 Y36.074
X27.508 Y36.149
X27.327 Y36.188
X27.142 Y36.188
G0 Z3.000
G0  X52.228 Y36.188
G0  Z3.000
G01 F400 Z0
G01 F400 Z-0.100
G01F400X52.046 Y36.149
X51.877 Y36.074
X51.727 Y35.965
X51.603 Y35.827
X51.510 Y35.667
X51.453 Y35.490
X51.434 Y35.306
X51.453 Y35.122
X51.510 Y34.945
X51.603 Y34.785
X51.727 Y34.647
X51.877 Y34.538
X52.046 Y34.463
X52.228 Y34.424
X52.413 Y34.424
X52.594 Y34.463
X52.764 Y34.538
X52.914 Y34.647
X53.038 Y34.785
X53.130 Y34.945
X53.188 Y35.122
X53.207 Y35.306
X53.188 Y35.490
X53.130 Y35.667
X53.038 Y35.827
X52.914 Y35.965
X52.764 Y36.074
X52.594 Y36.149
X52.413 Y36.188
X52.228 Y36.188
G0 Z3.000
G0  X4.419 Y35.336
G0  Z3.000
G01 F400 Z0
G01 F400 Z-0.100
G01F400X4.209 Y35.291
X4.014 Y35.204
X3.840 Y35.078
X3.697 Y34.919
X3.590 Y34.733
X3.524 Y34.529
X3.501 Y34.316
X3.524 Y34.103
X3.544 Y34.039
X2.212 Y32.707
X2.149 Y32.637
X2.097 Y32.546
X2.064 Y32.447
X2.054 Y32.349
X2.054 Y12.976
X2.064 Y12.879
X2.097 Y12.780
X2.149 Y12.689
X2.212 Y12.619
X2.889 Y11.942
X2.971 Y11.882
X3.067 Y11.840
X3.169 Y11.818
X3.636 Y11.818
X3.697 Y11.713
X3.840 Y11.554
X4.014 Y11.428
X4.209 Y11.341
X4.419 Y11.296
X4.633 Y11.296
X4.804 Y11.333
X8.508 Y7.628
X8.508 Y6.978
X8.033 Y6.978
X8.033 Y5.155
X9.981 Y5.155
X9.981 Y6.978
X9.506 Y6.978
X9.506 Y7.841
X9.496 Y7.938
X9.464 Y8.038
X9.412 Y8.128
X9.348 Y8.199
X5.728 Y11.819
X10.138 Y11.819
X10.199 Y11.713
X10.343 Y11.554
X10.516 Y11.428
X10.712 Y11.341
X10.921 Y11.296
X11.135 Y11.296
X11.306 Y11.333
X18.186 Y4.453
X18.268 Y4.393
X18.364 Y4.351
X18.466 Y4.329
X26.503 Y4.329
X26.517 Y4.305
X26.641 Y4.167
X26.791 Y4.058
X26.960 Y3.983
X27.142 Y3.944
X27.327 Y3.944
X27.508 Y3.983
X27.678 Y4.058
X27.828 Y4.167
X27.952 Y4.305
X27.966 Y4.329
X51.589 Y4.329
X51.603 Y4.305
X51.727 Y4.167
X51.877 Y4.058
X52.046 Y3.983
X52.228 Y3.944
X52.413 Y3.944
X52.594 Y3.983
X52.764 Y4.058
X52.914 Y4.167
X53.038 Y4.305
X53.068 Y4.358
X60.771 Y4.358
X60.873 Y4.380
X60.969 Y4.422
X61.051 Y4.482
X68.004 Y11.435
X68.013 Y11.428
X68.209 Y11.341
X68.419 Y11.296
X68.633 Y11.296
X68.842 Y11.341
X69.038 Y11.428
X69.212 Y11.554
X69.355 Y11.713
X69.416 Y11.819
X74.138 Y11.819
X74.199 Y11.713
X74.343 Y11.554
X74.516 Y11.428
X74.712 Y11.341
X74.921 Y11.296
X75.135 Y11.296
X75.345 Y11.341
X75.541 Y11.428
X75.714 Y11.554
X75.857 Y11.713
X75.964 Y11.899
X76.031 Y12.102
X76.053 Y12.315
X76.031 Y12.529
X76.010 Y12.592
X78.205 Y14.787
X78.268 Y14.858
X78.321 Y14.948
X78.353 Y15.048
X78.363 Y15.145
X78.363 Y28.357
X78.353 Y28.454
X78.321 Y28.553
X78.268 Y28.644
X78.205 Y28.714
X76.730 Y30.189
X76.648 Y30.248
X76.553 Y30.291
X76.451 Y30.313
X75.918 Y30.313
X75.857 Y30.418
X75.714 Y30.577
X75.541 Y30.703
X75.345 Y30.790
X75.135 Y30.835
X74.921 Y30.835
X74.712 Y30.790
X74.516 Y30.703
X74.343 Y30.577
X74.199 Y30.418
X74.138 Y30.313
X69.416 Y30.313
X69.355 Y30.418
X69.212 Y30.577
X69.038 Y30.703
X68.842 Y30.790
X68.633 Y30.835
X68.419 Y30.835
X68.209 Y30.790
X68.013 Y30.703
X67.840 Y30.577
X67.697 Y30.418
X67.590 Y30.232
X67.523 Y30.029
X67.501 Y29.816
X67.523 Y29.603
X67.590 Y29.399
X67.697 Y29.213
X67.840 Y29.054
X68.013 Y28.928
X68.209 Y28.841
X68.419 Y28.796
X68.633 Y28.796
X68.842 Y28.841
X69.038 Y28.928
X69.212 Y29.054
X69.355 Y29.213
X69.416 Y29.319
X74.138 Y29.319
X74.199 Y29.213
X74.343 Y29.054
X74.516 Y28.928
X74.712 Y28.841
X74.921 Y28.796
X75.135 Y28.796
X75.345 Y28.841
X75.541 Y28.928
X75.714 Y29.054
X75.857 Y29.213
X75.918 Y29.319
X76.190 Y29.319
X77.365 Y28.144
X77.365 Y15.357
X75.306 Y13.298
X75.135 Y13.335
X74.921 Y13.335
X74.712 Y13.290
X74.516 Y13.203
X74.343 Y13.077
X74.199 Y12.918
X74.138 Y12.813
X69.416 Y12.813
X69.355 Y12.918
X69.212 Y13.077
X69.038 Y13.203
X68.842 Y13.290
X68.633 Y13.335
X68.419 Y13.335
X68.209 Y13.290
X68.013 Y13.203
X67.840 Y13.077
X67.697 Y12.918
X67.590 Y12.732
X67.523 Y12.527
X67.508 Y12.349
X60.511 Y5.352
X53.034 Y5.352
X52.914 Y5.485
X52.764 Y5.594
X52.594 Y5.669
X52.413 Y5.708
X52.228 Y5.708
X52.046 Y5.669
X51.877 Y5.594
X51.727 Y5.485
X51.603 Y5.347
X51.589 Y5.323
X27.966 Y5.323
X27.952 Y5.347
X27.828 Y5.485
X27.678 Y5.594
X27.508 Y5.669
X27.327 Y5.708
X27.142 Y5.708
X26.960 Y5.669
X26.791 Y5.594
X26.641 Y5.485
X26.517 Y5.347
X26.503 Y5.323
X18.726 Y5.323
X12.010 Y12.039
X12.031 Y12.102
X12.053 Y12.315
X12.031 Y12.529
X11.965 Y12.732
X11.857 Y12.918
X11.714 Y13.077
X11.541 Y13.203
X11.345 Y13.290
X11.135 Y13.335
X10.921 Y13.335
X10.712 Y13.290
X10.516 Y13.203
X10.343 Y13.077
X10.199 Y12.918
X10.139 Y12.813
X5.416 Y12.812
X5.355 Y12.918
X5.212 Y13.077
X5.038 Y13.203
X4.843 Y13.290
X4.633 Y13.335
X4.419 Y13.335
X4.209 Y13.290
X4.014 Y13.203
X3.840 Y13.077
X3.697 Y12.918
X3.636 Y12.812
X3.429 Y12.812
X3.052 Y13.189
X3.052 Y32.137
X4.249 Y33.333
X4.419 Y33.297
X4.633 Y33.297
X4.843 Y33.342
X5.038 Y33.429
X5.212 Y33.555
X5.355 Y33.714
X5.416 Y33.819
X10.138 Y33.819
X10.199 Y33.714
X10.343 Y33.555
X10.516 Y33.429
X10.712 Y33.342
X10.921 Y33.297
X11.135 Y33.297
X11.345 Y33.342
X11.541 Y33.429
X11.714 Y33.555
X11.857 Y33.714
X11.965 Y33.900
X12.031 Y34.103
X12.053 Y34.316
X12.031 Y34.529
X11.965 Y34.733
X11.857 Y34.919
X11.714 Y35.078
X11.541 Y35.204
X11.345 Y35.291
X11.135 Y35.336
X10.921 Y35.336
X10.712 Y35.291
X10.516 Y35.204
X10.343 Y35.078
X10.199 Y34.919
X10.138 Y34.814
X5.416 Y34.814
X5.355 Y34.919
X5.212 Y35.078
X5.038 Y35.204
X4.843 Y35.291
X4.633 Y35.336
X4.419 Y35.336
G0 Z3.000
G0  X27.142 Y33.648
G0  Z3.000
G01 F400 Z0
G01 F400 Z-0.100
G01F400X26.960 Y33.609
X26.791 Y33.534
X26.641 Y33.425
X26.517 Y33.287
X26.424 Y33.127
X26.367 Y32.950
X26.348 Y32.766
X26.367 Y32.582
X26.424 Y32.405
X26.517 Y32.245
X26.641 Y32.107
X26.791 Y31.998
X26.960 Y31.923
X27.142 Y31.884
X27.327 Y31.884
X27.508 Y31.923
X27.678 Y31.998
X27.828 Y32.107
X27.952 Y32.245
X28.044 Y32.405
X28.102 Y32.582
X28.121 Y32.766
X28.102 Y32.950
X28.044 Y33.127
X27.952 Y33.287
X27.828 Y33.425
X27.678 Y33.534
X27.508 Y33.609
X27.327 Y33.648
X27.142 Y33.648
G0 Z3.000
G0  X52.228 Y33.648
G0  Z3.000
G01 F400 Z0
G01 F400 Z-0.100
G01F400X52.046 Y33.609
X51.877 Y33.534
X51.727 Y33.425
X51.603 Y33.287
X51.510 Y33.127
X51.453 Y32.950
X51.434 Y32.766
X51.453 Y32.582
X51.510 Y32.405
X51.603 Y32.245
X51.727 Y32.107
X51.877 Y31.998
X52.046 Y31.923
X52.228 Y31.884
X52.413 Y31.884
X52.594 Y31.923
X52.764 Y31.998
X52.914 Y32.107
X53.038 Y32.245
X53.130 Y32.405
X53.188 Y32.582
X53.207 Y32.766
X53.188 Y32.950
X53.130 Y33.127
X53.038 Y33.287
X52.914 Y33.425
X52.764 Y33.534
X52.594 Y33.609
X52.413 Y33.648
X52.228 Y33.648
G0 Z3.000
G0  X27.142 Y31.108
G0  Z3.000
G01 F400 Z0
G01 F400 Z-0.100
G01F400X26.960 Y31.069
X26.791 Y30.994
X26.641 Y30.885
X26.517 Y30.747
X26.424 Y30.587
X26.367 Y30.410
X26.348 Y30.226
X26.367 Y30.042
X26.424 Y29.865
X26.517 Y29.705
X26.641 Y29.567
X26.791 Y29.458
X26.960 Y29.383
X27.142 Y29.344
X27.327 Y29.344
X27.508 Y29.383
X27.678 Y29.458
X27.828 Y29.567
X27.952 Y29.705
X28.044 Y29.865
X28.102 Y30.042
X28.121 Y30.226
X28.102 Y30.410
X28.044 Y30.587
X27.952 Y30.747
X27.828 Y30.885
X27.678 Y30.994
X27.508 Y31.069
X27.327 Y31.108
X27.142 Y31.108
G0 Z3.000
G0  X52.228 Y31.108
G0  Z3.000
G01 F400 Z0
G01 F400 Z-0.100
G01F400X52.046 Y31.069
X51.877 Y30.994
X51.727 Y30.885
X51.603 Y30.747
X51.510 Y30.587
X51.453 Y30.410
X51.434 Y30.226
X51.453 Y30.042
X51.510 Y29.865
X51.603 Y29.705
X51.727 Y29.567
X51.877 Y29.458
X52.046 Y29.383
X52.228 Y29.344
X52.413 Y29.344
X52.594 Y29.383
X52.764 Y29.458
X52.914 Y29.567
X53.038 Y29.705
X53.130 Y29.865
X53.188 Y30.042
X53.207 Y30.226
X53.188 Y30.410
X53.130 Y30.587
X53.038 Y30.747
X52.914 Y30.885
X52.764 Y30.994
X52.594 Y31.069
X52.413 Y31.108
X52.228 Y31.108
G0 Z3.000
G0  X27.142 Y28.568
G0  Z3.000
G01 F400 Z0
G01 F400 Z-0.100
G01F400X26.960 Y28.529
X26.791 Y28.454
X26.641 Y28.345
X26.517 Y28.207
X26.503 Y28.183
X18.925 Y28.183
X18.823 Y28.161
X18.727 Y28.119
X18.646 Y28.059
X18.588 Y28.002
X18.389 Y28.045
X18.166 Y28.045
X17.948 Y27.998
X17.745 Y27.908
X17.565 Y27.777
X17.416 Y27.612
X17.305 Y27.419
X17.236 Y27.207
X17.213 Y26.986
X17.236 Y26.765
X17.305 Y26.553
X17.416 Y26.360
X17.565 Y26.195
X17.745 Y26.064
X17.948 Y25.974
X18.166 Y25.927
X18.389 Y25.927
X18.606 Y25.974
X18.809 Y26.064
X18.990 Y26.195
X19.139 Y26.360
X19.250 Y26.553
X19.319 Y26.765
X19.342 Y26.986
X19.320 Y27.189
X26.503 Y27.189
X26.517 Y27.165
X26.641 Y27.027
X26.791 Y26.918
X26.960 Y26.843
X27.142 Y26.804
X27.327 Y26.804
X27.508 Y26.843
X27.678 Y26.918
X27.828 Y27.027
X27.952 Y27.165
X28.044 Y27.325
X28.102 Y27.502
X28.121 Y27.686
X28.102 Y27.870
X28.044 Y28.047
X27.952 Y28.207
X27.828 Y28.345
X27.678 Y28.454
X27.508 Y28.529
X27.327 Y28.568
X27.142 Y28.568
G0 Z3.000
G0  X52.228 Y28.568
G0  Z3.000
G01 F400 Z0
G01 F400 Z-0.100
G01F400X52.046 Y28.529
X51.877 Y28.454
X51.727 Y28.345
X51.603 Y28.207
X51.510 Y28.047
X51.453 Y27.870
X51.434 Y27.686
X51.453 Y27.502
X51.510 Y27.325
X51.603 Y27.165
X51.727 Y27.027
X51.877 Y26.918
X52.046 Y26.843
X52.228 Y26.804
X52.413 Y26.804
X52.594 Y26.843
X52.764 Y26.918
X52.914 Y27.027
X53.038 Y27.165
X53.052 Y27.189
X59.234 Y27.189
X59.213 Y26.986
X59.236 Y26.765
X59.305 Y26.553
X59.416 Y26.360
X59.565 Y26.195
X59.745 Y26.064
X59.948 Y25.974
X60.166 Y25.927
X60.388 Y25.927
X60.606 Y25.974
X60.809 Y26.064
X60.989 Y26.195
X61.138 Y26.360
X61.250 Y26.553
X61.318 Y26.765
X61.342 Y26.986
X61.318 Y27.207
X61.250 Y27.419
X61.138 Y27.612
X60.989 Y27.777
X60.809 Y27.908
X60.606 Y27.998
X60.388 Y28.045
X60.166 Y28.045
X59.966 Y28.002
X59.909 Y28.059
X59.827 Y28.119
X59.732 Y28.161
X59.629 Y28.183
X53.052 Y28.183
X53.038 Y28.207
X52.914 Y28.345
X52.764 Y28.454
X52.594 Y28.529
X52.413 Y28.568
X52.228 Y28.568
G0 Z3.000
G0  X52.228 Y26.028
G0  Z3.000
G01 F400 Z0
G01 F400 Z-0.100
G01F400X52.046 Y25.989
X51.877 Y25.914
X51.727 Y25.805
X51.603 Y25.667
X51.510 Y25.507
X51.453 Y25.330
X51.434 Y25.146
X51.453 Y24.962
X51.510 Y24.785
X51.603 Y24.625
X51.727 Y24.487
X51.877 Y24.378
X52.046 Y24.303
X52.228 Y24.264
X52.413 Y24.264
X52.594 Y24.303
X52.764 Y24.378
X52.914 Y24.487
X53.038 Y24.625
X53.068 Y24.678
X54.669 Y24.678
X57.574 Y21.773
X57.656 Y21.713
X57.752 Y21.671
X57.853 Y21.649
X59.347 Y21.640
X59.416 Y21.520
X59.565 Y21.355
X59.745 Y21.224
X59.948 Y21.134
X60.166 Y21.087
X60.388 Y21.087
X60.606 Y21.134
X60.809 Y21.224
X60.989 Y21.355
X61.138 Y21.520
X61.250 Y21.713
X61.318 Y21.925
X61.342 Y22.146
X61.318 Y22.367
X61.250 Y22.579
X61.138 Y22.772
X60.989 Y22.937
X60.809 Y23.068
X60.606 Y23.159
X60.388 Y23.205
X60.166 Y23.205
X59.948 Y23.159
X59.745 Y23.068
X59.565 Y22.937
X59.415 Y22.771
X59.343 Y22.643
X58.114 Y22.643
X55.209 Y25.548
X55.127 Y25.608
X55.032 Y25.650
X54.929 Y25.672
X53.034 Y25.672
X52.914 Y25.805
X52.764 Y25.914
X52.594 Y25.989
X52.413 Y26.028
X52.228 Y26.028
G0 Z3.000
G0  X27.142 Y26.028
G0  Z3.000
G01 F400 Z0
G01 F400 Z-0.100
G01F400X26.960 Y25.989
X26.791 Y25.914
X26.641 Y25.805
X26.517 Y25.667
X26.503 Y25.643
X24.062 Y25.643
X23.960 Y25.621
X23.864 Y25.579
X23.782 Y25.519
X21.014 Y22.751
X19.151 Y22.751
X19.139 Y22.772
X18.990 Y22.937
X18.809 Y23.068
X18.606 Y23.159
X18.389 Y23.205
X18.166 Y23.205
X17.948 Y23.159
X17.745 Y23.068
X17.565 Y22.937
X17.416 Y22.772
X17.305 Y22.579
X17.236 Y22.367
X17.213 Y22.146
X17.236 Y21.925
X17.305 Y21.713
X17.416 Y21.520
X17.565 Y21.355
X17.745 Y21.224
X17.948 Y21.134
X18.166 Y21.087
X18.389 Y21.087
X18.606 Y21.134
X18.809 Y21.224
X18.990 Y21.355
X19.139 Y21.520
X19.250 Y21.713
X19.264 Y21.757
X21.274 Y21.757
X21.377 Y21.779
X21.472 Y21.821
X21.554 Y21.881
X24.322 Y24.649
X26.503 Y24.649
X26.517 Y24.625
X26.641 Y24.487
X26.791 Y24.378
X26.960 Y24.303
X27.142 Y24.264
X27.327 Y24.264
X27.508 Y24.303
X27.678 Y24.378
X27.828 Y24.487
X27.952 Y24.625
X28.044 Y24.785
X28.102 Y24.962
X28.121 Y25.146
X28.102 Y25.330
X28.044 Y25.507
X27.952 Y25.667
X27.828 Y25.805
X27.678 Y25.914
X27.508 Y25.989
X27.327 Y26.028
X27.142 Y26.028
G0 Z3.000
G0  X52.228 Y23.488
G0  Z3.000
G01 F400 Z0
G01 F400 Z-0.100
G01F400X52.046 Y23.449
X51.877 Y23.374
X51.727 Y23.265
X51.603 Y23.127
X51.510 Y22.967
X51.453 Y22.790
X51.434 Y22.606
X51.453 Y22.422
X51.510 Y22.245
X51.603 Y22.085
X51.727 Y21.947
X51.877 Y21.838
X52.046 Y21.763
X52.228 Y21.724
X52.413 Y21.724
X52.594 Y21.763
X52.764 Y21.838
X52.914 Y21.947
X53.038 Y22.085
X53.130 Y22.245
X53.188 Y22.422
X53.207 Y22.606
X53.188 Y22.790
X53.130 Y22.967
X53.038 Y23.127
X52.914 Y23.265
X52.764 Y23.374
X52.594 Y23.449
X52.413 Y23.488
X52.228 Y23.488
G0 Z3.000
G0  X27.142 Y23.488
G0  Z3.000
G01 F400 Z0
G01 F400 Z-0.100
G01F400X26.960 Y23.449
X26.791 Y23.374
X26.641 Y23.265
X26.517 Y23.127
X26.424 Y22.967
X26.367 Y22.790
X26.348 Y22.606
X26.367 Y22.422
X26.424 Y22.245
X26.517 Y22.085
X26.641 Y21.947
X26.791 Y21.838
X26.960 Y21.763
X27.142 Y21.724
X27.327 Y21.724
X27.508 Y21.763
X27.678 Y21.838
X27.828 Y21.947
X27.952 Y22.085
X28.044 Y22.245
X28.102 Y22.422
X28.121 Y22.606
X28.102 Y22.790
X28.044 Y22.967
X27.952 Y23.127
X27.828 Y23.265
X27.678 Y23.374
X27.508 Y23.449
X27.327 Y23.488
X27.142 Y23.488
G0 Z3.000
G0  X27.142 Y20.948
G0  Z3.000
G01 F400 Z0
G01 F400 Z-0.100
G01F400X26.960 Y20.909
X26.791 Y20.834
X26.641 Y20.725
X26.517 Y20.587
X26.424 Y20.427
X26.367 Y20.250
X26.348 Y20.066
X26.367 Y19.882
X26.424 Y19.705
X26.517 Y19.545
X26.641 Y19.407
X26.791 Y19.298
X26.960 Y19.223
X27.142 Y19.184
X27.327 Y19.184
X27.508 Y19.223
X27.678 Y19.298
X27.828 Y19.407
X27.952 Y19.545
X28.044 Y19.705
X28.102 Y19.882
X28.121 Y20.066
X28.102 Y20.250
X28.044 Y20.427
X27.952 Y20.587
X27.828 Y20.725
X27.678 Y20.834
X27.508 Y20.909
X27.327 Y20.948
X27.142 Y20.948
G0 Z3.000
G0  X52.228 Y20.948
G0  Z3.000
G01 F400 Z0
G01 F400 Z-0.100
G01F400X52.046 Y20.909
X51.877 Y20.834
X51.727 Y20.725
X51.603 Y20.587
X51.510 Y20.427
X51.453 Y20.250
X51.434 Y20.066
X51.453 Y19.882
X51.510 Y19.705
X51.603 Y19.545
X51.727 Y19.407
X51.877 Y19.298
X52.046 Y19.223
X52.228 Y19.184
X52.413 Y19.184
X52.594 Y19.223
X52.764 Y19.298
X52.914 Y19.407
X53.038 Y19.545
X53.130 Y19.705
X53.188 Y19.882
X53.207 Y20.066
X53.188 Y20.250
X53.130 Y20.427
X53.038 Y20.587
X52.914 Y20.725
X52.764 Y20.834
X52.594 Y20.909
X52.413 Y20.948
X52.228 Y20.948
G0 Z3.000
G0  X27.142 Y18.408
G0  Z3.000
G01 F400 Z0
G01 F400 Z-0.100
G01F400X26.960 Y18.369
X26.791 Y18.294
X26.641 Y18.185
X26.517 Y18.047
X26.424 Y17.887
X26.367 Y17.710
X26.348 Y17.526
X26.367 Y17.342
X26.424 Y17.165
X26.517 Y17.005
X26.641 Y16.867
X26.791 Y16.758
X26.960 Y16.683
X27.142 Y16.644
X27.327 Y16.644
X27.508 Y16.683
X27.678 Y16.758
X27.828 Y16.867
X27.952 Y17.005
X28.044 Y17.165
X28.102 Y17.342
X28.121 Y17.526
X28.102 Y17.710
X28.044 Y17.887
X27.952 Y18.047
X27.828 Y18.185
X27.678 Y18.294
X27.508 Y18.369
X27.327 Y18.408
X27.142 Y18.408
G0 Z3.000
G0  X52.228 Y18.408
G0  Z3.000
G01 F400 Z0
G01 F400 Z-0.100
G01F400X52.046 Y18.369
X51.877 Y18.294
X51.727 Y18.185
X51.603 Y18.047
X51.510 Y17.887
X51.453 Y17.710
X51.434 Y17.526
X51.453 Y17.342
X51.510 Y17.165
X51.603 Y17.005
X51.727 Y16.867
X51.877 Y16.758
X52.046 Y16.683
X52.228 Y16.644
X52.413 Y16.644
X52.594 Y16.683
X52.764 Y16.758
X52.914 Y16.867
X53.038 Y17.005
X53.130 Y17.165
X53.188 Y17.342
X53.207 Y17.526
X53.188 Y17.710
X53.130 Y17.887
X53.038 Y18.047
X52.914 Y18.185
X52.764 Y18.294
X52.594 Y18.369
X52.413 Y18.408
X52.228 Y18.408
G0 Z3.000
G0  X68.419 Y17.835
G0  Z3.000
G01 F400 Z0
G01 F400 Z-0.100
G01F400X68.209 Y17.791
X68.013 Y17.704
X67.840 Y17.578
X67.697 Y17.419
X67.590 Y17.233
X67.523 Y17.029
X67.501 Y16.816
X67.523 Y16.603
X67.544 Y16.540
X63.488 Y12.483
X61.208 Y12.492
X61.138 Y12.612
X60.989 Y12.777
X60.809 Y12.908
X60.606 Y12.998
X60.388 Y13.045
X60.166 Y13.045
X59.948 Y12.998
X59.745 Y12.908
X59.565 Y12.777
X59.416 Y12.612
X59.305 Y12.419
X59.236 Y12.207
X59.213 Y11.986
X59.236 Y11.765
X59.305 Y11.553
X59.416 Y11.360
X59.565 Y11.195
X59.745 Y11.064
X59.948 Y10.974
X60.166 Y10.927
X60.388 Y10.927
X60.606 Y10.974
X60.809 Y11.064
X60.989 Y11.195
X61.139 Y11.361
X61.211 Y11.489
X63.748 Y11.489
X63.850 Y11.511
X63.945 Y11.553
X64.027 Y11.613
X68.248 Y15.834
X68.419 Y15.797
X68.633 Y15.797
X68.842 Y15.842
X69.038 Y15.929
X69.212 Y16.055
X69.355 Y16.214
X69.416 Y16.319
X74.138 Y16.319
X74.199 Y16.214
X74.343 Y16.055
X74.516 Y15.929
X74.712 Y15.842
X74.921 Y15.797
X75.135 Y15.797
X75.345 Y15.842
X75.541 Y15.929
X75.714 Y16.055
X75.857 Y16.214
X75.964 Y16.399
X76.031 Y16.603
X76.053 Y16.816
X76.031 Y17.029
X75.964 Y17.233
X75.857 Y17.419
X75.714 Y17.578
X75.541 Y17.704
X75.345 Y17.791
X75.135 Y17.835
X74.921 Y17.835
X74.712 Y17.791
X74.516 Y17.704
X74.343 Y17.578
X74.199 Y17.419
X74.138 Y17.314
X69.416 Y17.314
X69.355 Y17.419
X69.212 Y17.578
X69.038 Y17.704
X68.842 Y17.791
X68.633 Y17.835
X68.419 Y17.835
G0 Z3.000
G0  X4.419 Y17.835
G0  Z3.000
G01 F400 Z0
G01 F400 Z-0.100
G01F400X4.209 Y17.791
X4.014 Y17.704
X3.840 Y17.578
X3.697 Y17.419
X3.590 Y17.233
X3.524 Y17.029
X3.501 Y16.816
X3.524 Y16.603
X3.590 Y16.399
X3.697 Y16.214
X3.840 Y16.055
X4.014 Y15.929
X4.209 Y15.842
X4.419 Y15.797
X4.633 Y15.797
X4.843 Y15.842
X5.038 Y15.929
X5.212 Y16.055
X5.355 Y16.214
X5.416 Y16.319
X10.138 Y16.319
X10.199 Y16.214
X10.343 Y16.055
X10.516 Y15.929
X10.712 Y15.842
X10.921 Y15.797
X11.135 Y15.797
X11.306 Y15.834
X15.527 Y11.613
X15.609 Y11.553
X15.704 Y11.511
X15.806 Y11.489
X17.347 Y11.480
X17.416 Y11.360
X17.565 Y11.195
X17.745 Y11.064
X17.948 Y10.974
X18.166 Y10.927
X18.389 Y10.927
X18.606 Y10.974
X18.809 Y11.064
X18.990 Y11.195
X19.139 Y11.360
X19.250 Y11.553
X19.319 Y11.765
X19.342 Y11.986
X19.319 Y12.207
X19.250 Y12.419
X19.139 Y12.612
X18.990 Y12.777
X18.809 Y12.908
X18.606 Y12.998
X18.389 Y13.045
X18.166 Y13.045
X17.948 Y12.998
X17.745 Y12.908
X17.565 Y12.777
X17.416 Y12.611
X17.343 Y12.483
X16.067 Y12.483
X12.010 Y16.540
X12.031 Y16.603
X12.053 Y16.816
X12.031 Y17.029
X11.965 Y17.233
X11.857 Y17.419
X11.714 Y17.578
X11.541 Y17.704
X11.345 Y17.791
X11.135 Y17.835
X10.921 Y17.835
X10.712 Y17.791
X10.516 Y17.704
X10.343 Y17.578
X10.199 Y17.419
X10.139 Y17.314
X5.416 Y17.314
X5.355 Y17.419
X5.212 Y17.578
X5.038 Y17.704
X4.843 Y17.791
X4.633 Y17.835
X4.419 Y17.835
G0 Z3.000
G0  X27.142 Y15.868
G0  Z3.000
G01 F400 Z0
G01 F400 Z-0.100
G01F400X26.960 Y15.829
X26.791 Y15.754
X26.641 Y15.645
X26.517 Y15.507
X26.424 Y15.347
X26.367 Y15.170
X26.348 Y14.986
X26.367 Y14.802
X26.424 Y14.625
X26.517 Y14.465
X26.641 Y14.327
X26.791 Y14.218
X26.960 Y14.143
X27.142 Y14.104
X27.327 Y14.104
X27.508 Y14.143
X27.678 Y14.218
X27.828 Y14.327
X27.952 Y14.465
X28.044 Y14.625
X28.102 Y14.802
X28.121 Y14.986
X28.102 Y15.170
X28.044 Y15.347
X27.952 Y15.507
X27.828 Y15.645
X27.678 Y15.754
X27.508 Y15.829
X27.327 Y15.868
X27.142 Y15.868
G0 Z3.000
G0  X52.228 Y15.868
G0  Z3.000
G01 F400 Z0
G01 F400 Z-0.100
G01F400X52.046 Y15.829
X51.877 Y15.754
X51.727 Y15.645
X51.603 Y15.507
X51.510 Y15.347
X51.453 Y15.170
X51.434 Y14.986
X51.453 Y14.802
X51.510 Y14.625
X51.603 Y14.465
X51.727 Y14.327
X51.877 Y14.218
X52.046 Y14.143
X52.228 Y14.104
X52.413 Y14.104
X52.594 Y14.143
X52.764 Y14.218
X52.914 Y14.327
X53.038 Y14.465
X53.130 Y14.625
X53.188 Y14.802
X53.207 Y14.986
X53.188 Y15.170
X53.130 Y15.347
X53.038 Y15.507
X52.914 Y15.645
X52.764 Y15.754
X52.594 Y15.829
X52.413 Y15.868
X52.228 Y15.868
G0 Z3.000
G0  X27.142 Y13.328
G0  Z3.000
G01 F400 Z0
G01 F400 Z-0.100
G01F400X26.960 Y13.289
X26.791 Y13.214
X26.641 Y13.105
X26.517 Y12.967
X26.424 Y12.807
X26.367 Y12.630
X26.348 Y12.446
X26.367 Y12.262
X26.424 Y12.085
X26.517 Y11.925
X26.641 Y11.787
X26.791 Y11.678
X26.960 Y11.603
X27.142 Y11.564
X27.327 Y11.564
X27.508 Y11.603
X27.678 Y11.678
X27.828 Y11.787
X27.952 Y11.925
X28.044 Y12.085
X28.102 Y12.262
X28.121 Y12.446
X28.102 Y12.630
X28.044 Y12.807
X27.952 Y12.967
X27.828 Y13.105
X27.678 Y13.214
X27.508 Y13.289
X27.327 Y13.328
X27.142 Y13.328
G0 Z3.000
G0  X52.228 Y13.328
G0  Z3.000
G01 F400 Z0
G01 F400 Z-0.100
G01F400X52.046 Y13.289
X51.877 Y13.214
X51.727 Y13.105
X51.603 Y12.967
X51.510 Y12.807
X51.453 Y12.630
X51.434 Y12.446
X51.453 Y12.262
X51.510 Y12.085
X51.603 Y11.925
X51.727 Y11.787
X51.877 Y11.678
X52.046 Y11.603
X52.228 Y11.564
X52.413 Y11.564
X52.594 Y11.603
X52.764 Y11.678
X52.914 Y11.787
X53.038 Y11.925
X53.130 Y12.085
X53.188 Y12.262
X53.207 Y12.446
X53.188 Y12.630
X53.130 Y12.807
X53.038 Y12.967
X52.914 Y13.105
X52.764 Y13.214
X52.594 Y13.289
X52.413 Y13.328
X52.228 Y13.328
G0 Z3.000
G0  X27.142 Y10.788
G0  Z3.000
G01 F400 Z0
G01 F400 Z-0.100
G01F400X26.960 Y10.749
X26.791 Y10.674
X26.641 Y10.565
X26.517 Y10.427
X26.424 Y10.267
X26.367 Y10.090
X26.348 Y9.906
X26.367 Y9.722
X26.424 Y9.545
X26.517 Y9.385
X26.641 Y9.247
X26.791 Y9.138
X26.960 Y9.063
X27.142 Y9.024
X27.327 Y9.024
X27.508 Y9.063
X27.678 Y9.138
X27.828 Y9.247
X27.952 Y9.385
X28.044 Y9.545
X28.102 Y9.722
X28.121 Y9.906
X28.102 Y10.090
X28.044 Y10.267
X27.952 Y10.427
X27.828 Y10.565
X27.678 Y10.674
X27.508 Y10.749
X27.327 Y10.788
X27.142 Y10.788
G0 Z3.000
G0  X52.228 Y10.788
G0  Z3.000
G01 F400 Z0
G01 F400 Z-0.100
G01F400X52.046 Y10.749
X51.877 Y10.674
X51.727 Y10.565
X51.603 Y10.427
X51.510 Y10.267
X51.453 Y10.090
X51.434 Y9.906
X51.453 Y9.722
X51.510 Y9.545
X51.603 Y9.385
X51.727 Y9.247
X51.877 Y9.138
X52.046 Y9.063
X52.228 Y9.024
X52.413 Y9.024
X52.594 Y9.063
X52.764 Y9.138
X52.914 Y9.247
X53.038 Y9.385
X53.130 Y9.545
X53.188 Y9.722
X53.207 Y9.906
X53.188 Y10.090
X53.130 Y10.267
X53.038 Y10.427
X52.914 Y10.565
X52.764 Y10.674
X52.594 Y10.749
X52.413 Y10.788
X52.228 Y10.788
G0 Z3.000
G0  X27.142 Y8.248
G0  Z3.000
G01 F400 Z0
G01 F400 Z-0.100
G01F400X26.960 Y8.209
X26.791 Y8.134
X26.641 Y8.025
X26.517 Y7.887
X26.424 Y7.727
X26.367 Y7.550
X26.348 Y7.366
X26.367 Y7.182
X26.424 Y7.005
X26.517 Y6.845
X26.641 Y6.707
X26.791 Y6.598
X26.960 Y6.523
X27.142 Y6.484
X27.327 Y6.484
X27.508 Y6.523
X27.678 Y6.598
X27.828 Y6.707
X27.952 Y6.845
X28.044 Y7.005
X28.102 Y7.182
X28.121 Y7.366
X28.102 Y7.550
X28.044 Y7.727
X27.952 Y7.887
X27.828 Y8.025
X27.678 Y8.134
X27.508 Y8.209
X27.327 Y8.248
X27.142 Y8.248
G0 Z3.000
G0  X52.228 Y8.248
G0  Z3.000
G01 F400 Z0
G01 F400 Z-0.100
G01F400X52.046 Y8.209
X51.877 Y8.134
X51.727 Y8.025
X51.603 Y7.887
X51.510 Y7.727
X51.453 Y7.550
X51.434 Y7.366
X51.453 Y7.182
X51.510 Y7.005
X51.603 Y6.845
X51.727 Y6.707
X51.877 Y6.598
X52.046 Y6.523
X52.228 Y6.484
X52.413 Y6.484
X52.594 Y6.523
X52.764 Y6.598
X52.914 Y6.707
X53.038 Y6.845
X53.130 Y7.005
X53.188 Y7.182
X53.207 Y7.366
X53.188 Y7.550
X53.130 Y7.727
X53.038 Y7.887
X52.914 Y8.025
X52.764 Y8.134
X52.594 Y8.209
X52.413 Y8.248
X52.228 Y8.248
G0 Z3.000
G0  X11.445 Y7.036
G0  Z3.000
G01 F400 Z0
G01 F400 Z-0.100
G01F400X11.246 Y6.993
X11.060 Y6.910
X10.895 Y6.790
X10.759 Y6.639
X10.657 Y6.463
X10.594 Y6.269
X10.572 Y6.066
X10.594 Y5.863
X10.657 Y5.670
X10.759 Y5.493
X10.895 Y5.342
X11.060 Y5.222
X11.194 Y5.162
X11.206 Y5.149
X14.413 Y1.942
X14.495 Y1.882
X14.591 Y1.840
X14.693 Y1.818
X26.486 Y1.818
X26.517 Y1.765
X26.641 Y1.627
X26.791 Y1.518
X26.960 Y1.443
X27.142 Y1.404
X27.327 Y1.404
X27.508 Y1.443
X27.678 Y1.518
X27.828 Y1.627
X27.952 Y1.765
X28.044 Y1.925
X28.102 Y2.102
X28.121 Y2.286
X28.102 Y2.470
X28.044 Y2.647
X27.952 Y2.807
X27.828 Y2.945
X27.678 Y3.054
X27.508 Y3.129
X27.327 Y3.168
X27.142 Y3.168
X26.960 Y3.129
X26.791 Y3.054
X26.641 Y2.945
X26.521 Y2.812
X14.953 Y2.812
X12.306 Y5.460
X12.336 Y5.493
X12.438 Y5.670
X12.501 Y5.863
X12.522 Y6.066
X12.501 Y6.269
X12.438 Y6.463
X12.336 Y6.639
X12.200 Y6.790
X12.035 Y6.910
X11.848 Y6.993
X11.649 Y7.036
X11.445 Y7.036
G0 Z3.000
G0  X52.228 Y3.168
G0  Z3.000
G01 F400 Z0
G01 F400 Z-0.100
G01F400X52.046 Y3.129
X51.877 Y3.054
X51.727 Y2.945
X51.603 Y2.807
X51.510 Y2.647
X51.453 Y2.470
X51.434 Y2.286
X51.453 Y2.102
X51.510 Y1.925
X51.603 Y1.765
X51.727 Y1.627
X51.877 Y1.518
X52.046 Y1.443
X52.228 Y1.404
X52.413 Y1.404
X52.594 Y1.443
X52.764 Y1.518
X52.914 Y1.627
X53.038 Y1.765
X53.130 Y1.925
X53.188 Y2.102
X53.207 Y2.286
X53.188 Y2.470
X53.130 Y2.647
X53.038 Y2.807
X52.914 Y2.945
X52.764 Y3.054
X52.594 Y3.129
X52.413 Y3.168
X52.228 Y3.168
G0 Z3.000
G0  X52.204 Y38.951
G0  Z3.000
G01 F400 Z0
G01 F400 Z-0.100
G01F400X51.977 Y38.903
X51.765 Y38.809
X51.577 Y38.672
X51.421 Y38.499
X51.305 Y38.298
X51.233 Y38.077
X51.209 Y37.846
X51.233 Y37.615
X51.305 Y37.394
X51.421 Y37.193
X51.577 Y37.020
X51.765 Y36.884
X51.977 Y36.789
X52.204 Y36.741
X52.436 Y36.741
X52.664 Y36.789
X52.876 Y36.884
X53.064 Y37.020
X53.219 Y37.193
X53.336 Y37.394
X53.407 Y37.615
X53.432 Y37.846
X53.407 Y38.077
X53.336 Y38.298
X53.219 Y38.499
X53.064 Y38.672
X52.876 Y38.809
X52.664 Y38.903
X52.436 Y38.951
X52.204 Y38.951
G0 Z3.000
G0  X27.118 Y38.951
G0  Z3.000
G01 F400 Z0
G01 F400 Z-0.100
G01F400X26.891 Y38.903
X26.679 Y38.809
X26.491 Y38.672
X26.335 Y38.499
X26.219 Y38.298
X26.147 Y38.077
X26.123 Y37.846
X26.147 Y37.615
X26.219 Y37.394
X26.335 Y37.193
X26.491 Y37.020
X26.679 Y36.884
X26.891 Y36.789
X27.118 Y36.741
X27.351 Y36.741
X27.578 Y36.789
X27.790 Y36.884
X27.978 Y37.020
X28.133 Y37.193
X28.250 Y37.394
X28.321 Y37.615
X28.346 Y37.846
X28.321 Y38.077
X28.250 Y38.298
X28.133 Y38.499
X27.978 Y38.672
X27.790 Y38.809
X27.578 Y38.903
X27.351 Y38.951
X27.118 Y38.951
G0 Z3.000
G0  X60.142 Y38.428
G0  Z3.000
G01 F400 Z0
G01 F400 Z-0.100
G01F400X59.879 Y38.372
X59.633 Y38.262
X59.415 Y38.104
X59.234 Y37.904
X59.099 Y37.670
X59.016 Y37.414
X58.988 Y37.146
X59.016 Y36.878
X59.099 Y36.622
X59.234 Y36.388
X59.415 Y36.188
X59.633 Y36.029
X59.879 Y35.920
X60.142 Y35.864
X60.412 Y35.864
X60.675 Y35.920
X60.922 Y36.029
X61.140 Y36.188
X61.321 Y36.390
X61.342 Y36.425
X65.396 Y36.425
X67.298 Y34.523
X67.276 Y34.316
X67.304 Y34.057
X67.384 Y33.808
X67.515 Y33.582
X67.690 Y33.388
X67.901 Y33.234
X68.140 Y33.128
X68.395 Y33.074
X68.656 Y33.074
X68.912 Y33.128
X69.151 Y33.234
X69.362 Y33.388
X69.537 Y33.582
X69.544 Y33.596
X74.009 Y33.596
X74.017 Y33.582
X74.192 Y33.388
X74.404 Y33.234
X74.642 Y33.128
X74.898 Y33.074
X75.159 Y33.074
X75.414 Y33.128
X75.653 Y33.234
X75.864 Y33.388
X76.039 Y33.582
X76.170 Y33.808
X76.250 Y34.057
X76.278 Y34.316
X76.250 Y34.576
X76.170 Y34.825
X76.039 Y35.051
X75.864 Y35.245
X75.653 Y35.398
X75.414 Y35.505
X75.159 Y35.559
X74.898 Y35.559
X74.642 Y35.505
X74.404 Y35.398
X74.192 Y35.245
X74.017 Y35.051
X74.009 Y35.037
X69.544 Y35.037
X69.537 Y35.051
X69.362 Y35.245
X69.151 Y35.398
X68.912 Y35.505
X68.656 Y35.559
X68.395 Y35.559
X68.320 Y35.543
X66.174 Y37.690
X66.059 Y37.773
X65.920 Y37.835
X65.772 Y37.866
X61.337 Y37.875
X61.320 Y37.904
X61.140 Y38.104
X60.922 Y38.262
X60.675 Y38.372
X60.412 Y38.428
X60.142 Y38.428
G0 Z3.000
G0  X18.142 Y38.428
G0  Z3.000
G01 F400 Z0
G01 F400 Z-0.100
G01F400X17.879 Y38.372
X17.633 Y38.262
X17.415 Y38.104
X17.234 Y37.904
X17.100 Y37.670
X17.016 Y37.414
X16.988 Y37.146
X17.014 Y36.903
X11.167 Y31.056
X11.159 Y31.058
X10.898 Y31.058
X10.642 Y31.004
X10.404 Y30.898
X10.192 Y30.744
X10.018 Y30.550
X10.010 Y30.536
X5.545 Y30.536
X5.537 Y30.550
X5.362 Y30.744
X5.151 Y30.898
X4.912 Y31.004
X4.657 Y31.058
X4.395 Y31.058
X4.140 Y31.004
X3.901 Y30.898
X3.690 Y30.744
X3.515 Y30.550
X3.385 Y30.324
X3.304 Y30.075
X3.276 Y29.816
X3.304 Y29.556
X3.385 Y29.307
X3.515 Y29.081
X3.690 Y28.887
X3.901 Y28.734
X4.140 Y28.627
X4.395 Y28.573
X4.657 Y28.573
X4.912 Y28.627
X5.151 Y28.734
X5.362 Y28.887
X5.537 Y29.081
X5.545 Y29.095
X10.010 Y29.095
X10.018 Y29.081
X10.192 Y28.887
X10.404 Y28.734
X10.642 Y28.627
X10.898 Y28.573
X11.159 Y28.573
X11.414 Y28.627
X11.653 Y28.734
X11.864 Y28.887
X12.039 Y29.081
X12.170 Y29.307
X12.250 Y29.556
X12.278 Y29.816
X12.250 Y30.076
X12.245 Y30.093
X18.038 Y35.886
X18.142 Y35.864
X18.412 Y35.864
X18.676 Y35.920
X18.922 Y36.029
X19.140 Y36.188
X19.320 Y36.388
X19.455 Y36.622
X19.538 Y36.878
X19.566 Y37.146
X19.538 Y37.414
X19.455 Y37.670
X19.320 Y37.904
X19.140 Y38.104
X18.922 Y38.262
X18.676 Y38.372
X18.412 Y38.428
X18.142 Y38.428
G0 Z3.000
G0  X52.204 Y36.411
G0  Z3.000
G01 F400 Z0
G01 F400 Z-0.100
G01F400X51.977 Y36.363
X51.765 Y36.269
X51.577 Y36.132
X51.421 Y35.959
X51.305 Y35.758
X51.233 Y35.537
X51.209 Y35.306
X51.233 Y35.075
X51.305 Y34.854
X51.421 Y34.653
X51.577 Y34.480
X51.765 Y34.343
X51.977 Y34.249
X52.204 Y34.201
X52.436 Y34.201
X52.664 Y34.249
X52.876 Y34.343
X53.064 Y34.480
X53.219 Y34.653
X53.336 Y34.854
X53.407 Y35.075
X53.432 Y35.306
X53.407 Y35.537
X53.336 Y35.758
X53.219 Y35.959
X53.064 Y36.132
X52.876 Y36.269
X52.664 Y36.363
X52.436 Y36.411
X52.204 Y36.411
G0 Z3.000
G0  X27.118 Y36.411
G0  Z3.000
G01 F400 Z0
G01 F400 Z-0.100
G01F400X26.891 Y36.363
X26.679 Y36.269
X26.491 Y36.132
X26.335 Y35.959
X26.219 Y35.758
X26.147 Y35.537
X26.123 Y35.306
X26.147 Y35.075
X26.219 Y34.854
X26.335 Y34.653
X26.491 Y34.480
X26.679 Y34.343
X26.891 Y34.249
X27.118 Y34.201
X27.351 Y34.201
X27.578 Y34.249
X27.790 Y34.343
X27.978 Y34.480
X28.133 Y34.653
X28.250 Y34.854
X28.321 Y35.075
X28.346 Y35.306
X28.321 Y35.537
X28.250 Y35.758
X28.133 Y35.959
X27.978 Y36.132
X27.790 Y36.269
X27.578 Y36.363
X27.351 Y36.411
X27.118 Y36.411
G0 Z3.000
G0  X4.395 Y35.559
G0  Z3.000
G01 F400 Z0
G01 F400 Z-0.100
G01F400X4.140 Y35.505
X3.901 Y35.398
X3.690 Y35.245
X3.515 Y35.051
X3.385 Y34.825
X3.304 Y34.576
X3.276 Y34.316
X3.298 Y34.109
X2.050 Y32.861
X1.967 Y32.769
X1.891 Y32.638
X1.845 Y32.493
X1.831 Y32.361
X1.831 Y12.965
X1.845 Y12.832
X1.891 Y12.688
X1.967 Y12.557
X2.050 Y12.465
X2.744 Y11.771
X2.859 Y11.688
X2.997 Y11.626
X3.145 Y11.595
X3.507 Y11.595
X3.515 Y11.581
X3.690 Y11.387
X3.901 Y11.234
X4.140 Y11.127
X4.395 Y11.073
X4.656 Y11.073
X4.732 Y11.089
X8.285 Y7.536
X8.285 Y7.201
X7.810 Y7.201
X7.810 Y4.931
X10.205 Y4.931
X10.205 Y7.201
X9.730 Y7.201
X9.730 Y7.853
X9.716 Y7.985
X9.669 Y8.129
X9.593 Y8.260
X9.510 Y8.352
X6.267 Y11.595
X10.009 Y11.595
X10.018 Y11.581
X10.192 Y11.387
X10.404 Y11.234
X10.642 Y11.127
X10.898 Y11.073
X11.159 Y11.073
X11.234 Y11.089
X18.041 Y4.282
X18.156 Y4.199
X18.294 Y4.137
X18.442 Y4.106
X26.396 Y4.106
X26.491 Y4.000
X26.679 Y3.864
X26.891 Y3.769
X27.118 Y3.721
X27.351 Y3.721
X27.578 Y3.769
X27.790 Y3.864
X27.978 Y4.000
X28.073 Y4.106
X51.482 Y4.106
X51.577 Y4.000
X51.765 Y3.864
X51.977 Y3.769
X52.204 Y3.721
X52.436 Y3.721
X52.664 Y3.769
X52.876 Y3.864
X53.064 Y4.000
X53.185 Y4.135
X60.795 Y4.135
X60.943 Y4.166
X61.081 Y4.228
X61.196 Y4.311
X68.052 Y11.167
X68.140 Y11.127
X68.395 Y11.073
X68.656 Y11.073
X68.912 Y11.127
X69.151 Y11.234
X69.362 Y11.387
X69.537 Y11.581
X69.545 Y11.595
X74.009 Y11.595
X74.017 Y11.581
X74.192 Y11.387
X74.404 Y11.234
X74.642 Y11.127
X74.898 Y11.073
X75.159 Y11.073
X75.414 Y11.127
X75.653 Y11.234
X75.864 Y11.387
X76.039 Y11.581
X76.170 Y11.807
X76.250 Y12.056
X76.278 Y12.315
X76.256 Y12.522
X78.367 Y14.633
X78.450 Y14.726
X78.526 Y14.857
X78.573 Y15.001
X78.587 Y15.133
X78.587 Y28.368
X78.573 Y28.501
X78.526 Y28.645
X78.450 Y28.776
X78.367 Y28.868
X76.876 Y30.359
X76.761 Y30.443
X76.622 Y30.504
X76.474 Y30.536
X76.047 Y30.536
X76.039 Y30.550
X75.864 Y30.744
X75.653 Y30.898
X75.414 Y31.004
X75.159 Y31.058
X74.898 Y31.058
X74.642 Y31.004
X74.404 Y30.898
X74.192 Y30.744
X74.017 Y30.550
X74.009 Y30.536
X69.544 Y30.536
X69.537 Y30.550
X69.362 Y30.744
X69.151 Y30.898
X68.912 Y31.004
X68.656 Y31.058
X68.395 Y31.058
X68.140 Y31.004
X67.901 Y30.898
X67.690 Y30.744
X67.515 Y30.550
X67.384 Y30.324
X67.304 Y30.075
X67.276 Y29.816
X67.304 Y29.556
X67.384 Y29.307
X67.515 Y29.081
X67.690 Y28.887
X67.901 Y28.734
X68.140 Y28.627
X68.395 Y28.573
X68.656 Y28.573
X68.912 Y28.627
X69.151 Y28.734
X69.362 Y28.887
X69.537 Y29.081
X69.544 Y29.095
X74.009 Y29.095
X74.017 Y29.081
X74.192 Y28.887
X74.404 Y28.734
X74.642 Y28.627
X74.898 Y28.573
X75.159 Y28.573
X75.414 Y28.627
X75.653 Y28.734
X75.864 Y28.887
X76.039 Y29.081
X76.047 Y29.095
X76.098 Y29.095
X77.142 Y28.052
X77.142 Y15.450
X75.234 Y13.542
X75.159 Y13.558
X74.898 Y13.558
X74.642 Y13.504
X74.404 Y13.397
X74.192 Y13.244
X74.017 Y13.050
X74.009 Y13.036
X69.544 Y13.036
X69.537 Y13.050
X69.362 Y13.244
X69.151 Y13.397
X68.912 Y13.504
X68.656 Y13.558
X68.395 Y13.558
X68.140 Y13.504
X67.901 Y13.397
X67.690 Y13.244
X67.515 Y13.050
X67.384 Y12.824
X67.303 Y12.572
X67.292 Y12.449
X60.419 Y5.575
X53.133 Y5.575
X53.064 Y5.652
X52.876 Y5.788
X52.664 Y5.883
X52.436 Y5.931
X52.204 Y5.931
X51.977 Y5.883
X51.765 Y5.788
X51.577 Y5.652
X51.482 Y5.546
X28.073 Y5.546
X27.978 Y5.652
X27.790 Y5.788
X27.578 Y5.883
X27.351 Y5.931
X27.118 Y5.931
X26.891 Y5.883
X26.679 Y5.788
X26.491 Y5.652
X26.396 Y5.546
X18.819 Y5.546
X12.256 Y12.109
X12.278 Y12.315
X12.250 Y12.575
X12.170 Y12.824
X12.039 Y13.050
X11.864 Y13.244
X11.653 Y13.397
X11.414 Y13.504
X11.159 Y13.558
X10.898 Y13.558
X10.642 Y13.504
X10.404 Y13.397
X10.192 Y13.244
X10.018 Y13.050
X10.010 Y13.036
X5.545 Y13.036
X5.537 Y13.050
X5.362 Y13.244
X5.151 Y13.397
X4.912 Y13.504
X4.657 Y13.558
X4.395 Y13.558
X4.140 Y13.504
X3.901 Y13.397
X3.690 Y13.244
X3.515 Y13.050
X3.512 Y13.045
X3.276 Y13.281
X3.276 Y32.044
X4.321 Y33.090
X4.395 Y33.074
X4.657 Y33.074
X4.912 Y33.128
X5.151 Y33.234
X5.362 Y33.388
X5.537 Y33.582
X5.545 Y33.596
X10.010 Y33.596
X10.018 Y33.582
X10.192 Y33.388
X10.404 Y33.234
X10.642 Y33.128
X10.898 Y33.074
X11.159 Y33.074
X11.414 Y33.128
X11.653 Y33.234
X11.864 Y33.388
X12.039 Y33.582
X12.170 Y33.808
X12.250 Y34.057
X12.278 Y34.316
X12.250 Y34.576
X12.170 Y34.825
X12.039 Y35.051
X11.864 Y35.245
X11.653 Y35.398
X11.414 Y35.505
X11.159 Y35.559
X10.898 Y35.559
X10.642 Y35.505
X10.404 Y35.398
X10.192 Y35.245
X10.018 Y35.051
X10.010 Y35.037
X5.545 Y35.037
X5.537 Y35.051
X5.362 Y35.245
X5.151 Y35.398
X4.912 Y35.505
X4.657 Y35.559
X4.395 Y35.559
G0 Z3.000
G0  X52.204 Y33.871
G0  Z3.000
G01 F400 Z0
G01 F400 Z-0.100
G01F400X51.977 Y33.823
X51.765 Y33.729
X51.577 Y33.592
X51.421 Y33.419
X51.305 Y33.218
X51.233 Y32.997
X51.209 Y32.766
X51.233 Y32.535
X51.305 Y32.314
X51.421 Y32.113
X51.577 Y31.940
X51.765 Y31.804
X51.977 Y31.709
X52.204 Y31.661
X52.436 Y31.661
X52.664 Y31.709
X52.876 Y31.804
X53.064 Y31.940
X53.219 Y32.113
X53.336 Y32.314
X53.407 Y32.535
X53.432 Y32.766
X53.407 Y32.997
X53.336 Y33.218
X53.219 Y33.419
X53.064 Y33.592
X52.876 Y33.729
X52.664 Y33.823
X52.436 Y33.871
X52.204 Y33.871
G0 Z3.000
G0  X27.118 Y33.871
G0  Z3.000
G01 F400 Z0
G01 F400 Z-0.100
G01F400X26.891 Y33.823
X26.679 Y33.729
X26.491 Y33.592
X26.335 Y33.419
X26.219 Y33.218
X26.147 Y32.997
X26.123 Y32.766
X26.147 Y32.535
X26.219 Y32.314
X26.335 Y32.113
X26.491 Y31.940
X26.679 Y31.804
X26.891 Y31.709
X27.118 Y31.661
X27.351 Y31.661
X27.578 Y31.709
X27.790 Y31.804
X27.978 Y31.940
X28.133 Y32.113
X28.250 Y32.314
X28.321 Y32.535
X28.346 Y32.766
X28.321 Y32.997
X28.250 Y33.218
X28.133 Y33.419
X27.978 Y33.592
X27.790 Y33.729
X27.578 Y33.823
X27.351 Y33.871
X27.118 Y33.871
G0 Z3.000
G0  X52.204 Y31.331
G0  Z3.000
G01 F400 Z0
G01 F400 Z-0.100
G01F400X51.977 Y31.283
X51.765 Y31.189
X51.577 Y31.052
X51.421 Y30.879
X51.305 Y30.678
X51.233 Y30.457
X51.209 Y30.226
X51.233 Y29.995
X51.305 Y29.774
X51.421 Y29.573
X51.577 Y29.400
X51.765 Y29.264
X51.977 Y29.169
X52.204 Y29.121
X52.436 Y29.121
X52.664 Y29.169
X52.876 Y29.264
X53.064 Y29.400
X53.219 Y29.573
X53.336 Y29.774
X53.407 Y29.995
X53.432 Y30.226
X53.407 Y30.457
X53.336 Y30.678
X53.219 Y30.879
X53.064 Y31.052
X52.876 Y31.189
X52.664 Y31.283
X52.436 Y31.331
X52.204 Y31.331
G0 Z3.000
G0  X27.118 Y31.331
G0  Z3.000
G01 F400 Z0
G01 F400 Z-0.100
G01F400X26.891 Y31.283
X26.679 Y31.189
X26.491 Y31.052
X26.335 Y30.879
X26.219 Y30.678
X26.147 Y30.457
X26.123 Y30.226
X26.147 Y29.995
X26.219 Y29.774
X26.335 Y29.573
X26.491 Y29.400
X26.679 Y29.264
X26.891 Y29.169
X27.118 Y29.121
X27.351 Y29.121
X27.578 Y29.169
X27.790 Y29.264
X27.978 Y29.400
X28.133 Y29.573
X28.250 Y29.774
X28.321 Y29.995
X28.346 Y30.226
X28.321 Y30.457
X28.250 Y30.678
X28.133 Y30.879
X27.978 Y31.052
X27.790 Y31.189
X27.578 Y31.283
X27.351 Y31.331
X27.118 Y31.331
G0 Z3.000
G0  X52.204 Y28.791
G0  Z3.000
G01 F400 Z0
G01 F400 Z-0.100
G01F400X51.977 Y28.743
X51.765 Y28.649
X51.577 Y28.512
X51.421 Y28.339
X51.305 Y28.138
X51.233 Y27.917
X51.209 Y27.686
X51.233 Y27.455
X51.305 Y27.234
X51.421 Y27.033
X51.577 Y26.860
X51.765 Y26.724
X51.977 Y26.629
X52.204 Y26.581
X52.436 Y26.581
X52.664 Y26.629
X52.876 Y26.724
X53.064 Y26.860
X53.159 Y26.966
X58.990 Y26.966
X59.016 Y26.718
X59.099 Y26.462
X59.234 Y26.228
X59.415 Y26.028
X59.633 Y25.870
X59.879 Y25.760
X60.142 Y25.704
X60.412 Y25.704
X60.675 Y25.760
X60.922 Y25.870
X61.140 Y26.028
X61.320 Y26.228
X61.455 Y26.462
X61.538 Y26.718
X61.566 Y26.986
X61.538 Y27.254
X61.455 Y27.510
X61.320 Y27.744
X61.140 Y27.944
X60.922 Y28.102
X60.675 Y28.212
X60.412 Y28.268
X60.142 Y28.268
X60.033 Y28.245
X59.939 Y28.313
X59.801 Y28.375
X59.653 Y28.406
X53.159 Y28.406
X53.064 Y28.512
X52.876 Y28.649
X52.664 Y28.743
X52.436 Y28.791
X52.204 Y28.791
G0 Z3.000
G0  X27.118 Y28.791
G0  Z3.000
G01 F400 Z0
G01 F400 Z-0.100
G01F400X26.891 Y28.743
X26.679 Y28.649
X26.491 Y28.512
X26.396 Y28.406
X18.902 Y28.406
X18.753 Y28.375
X18.615 Y28.313
X18.521 Y28.245
X18.412 Y28.268
X18.142 Y28.268
X17.879 Y28.212
X17.633 Y28.102
X17.415 Y27.944
X17.234 Y27.744
X17.100 Y27.510
X17.016 Y27.254
X16.988 Y26.986
X17.016 Y26.718
X17.100 Y26.462
X17.234 Y26.228
X17.415 Y26.028
X17.633 Y25.870
X17.879 Y25.760
X18.142 Y25.704
X18.412 Y25.704
X18.676 Y25.760
X18.922 Y25.870
X19.140 Y26.028
X19.320 Y26.228
X19.455 Y26.462
X19.538 Y26.718
X19.564 Y26.966
X26.396 Y26.966
X26.491 Y26.860
X26.679 Y26.724
X26.891 Y26.629
X27.118 Y26.581
X27.351 Y26.581
X27.578 Y26.629
X27.790 Y26.724
X27.978 Y26.860
X28.133 Y27.033
X28.250 Y27.234
X28.321 Y27.455
X28.346 Y27.686
X28.321 Y27.917
X28.250 Y28.138
X28.133 Y28.339
X27.978 Y28.512
X27.790 Y28.649
X27.578 Y28.743
X27.351 Y28.791
X27.118 Y28.791
G0 Z3.000
G0  X27.118 Y26.251
G0  Z3.000
G01 F400 Z0
G01 F400 Z-0.100
G01F400X26.891 Y26.203
X26.679 Y26.109
X26.491 Y25.972
X26.396 Y25.866
X24.038 Y25.866
X23.890 Y25.835
X23.752 Y25.773
X23.637 Y25.690
X20.922 Y22.974
X19.257 Y22.974
X19.140 Y23.104
X18.922 Y23.263
X18.676 Y23.372
X18.412 Y23.428
X18.143 Y23.428
X17.879 Y23.372
X17.633 Y23.263
X17.415 Y23.104
X17.234 Y22.904
X17.100 Y22.670
X17.016 Y22.414
X16.988 Y22.146
X17.016 Y21.878
X17.100 Y21.622
X17.234 Y21.388
X17.415 Y21.188
X17.633 Y21.030
X17.879 Y20.920
X18.143 Y20.864
X18.412 Y20.864
X18.676 Y20.920
X18.922 Y21.030
X19.140 Y21.188
X19.320 Y21.388
X19.404 Y21.534
X21.298 Y21.534
X21.446 Y21.565
X21.584 Y21.627
X21.699 Y21.710
X24.415 Y24.426
X26.396 Y24.426
X26.491 Y24.320
X26.679 Y24.184
X26.891 Y24.089
X27.118 Y24.041
X27.351 Y24.041
X27.578 Y24.089
X27.790 Y24.184
X27.978 Y24.320
X28.133 Y24.493
X28.250 Y24.694
X28.321 Y24.915
X28.346 Y25.146
X28.321 Y25.377
X28.250 Y25.598
X28.133 Y25.799
X27.978 Y25.972
X27.790 Y26.109
X27.578 Y26.203
X27.351 Y26.251
X27.118 Y26.251
G0 Z3.000
G0  X52.204 Y26.251
G0  Z3.000
G01 F400 Z0
G01 F400 Z-0.100
G01F400X51.977 Y26.203
X51.765 Y26.109
X51.577 Y25.972
X51.421 Y25.799
X51.305 Y25.598
X51.233 Y25.377
X51.209 Y25.146
X51.233 Y24.915
X51.305 Y24.694
X51.421 Y24.493
X51.577 Y24.320
X51.765 Y24.184
X51.977 Y24.089
X52.204 Y24.041
X52.436 Y24.041
X52.664 Y24.089
X52.876 Y24.184
X53.064 Y24.320
X53.185 Y24.454
X54.577 Y24.454
X57.429 Y21.602
X57.544 Y21.519
X57.682 Y21.457
X57.829 Y21.426
X59.217 Y21.418
X59.234 Y21.388
X59.415 Y21.188
X59.633 Y21.030
X59.879 Y20.920
X60.142 Y20.864
X60.412 Y20.864
X60.675 Y20.920
X60.922 Y21.030
X61.140 Y21.188
X61.320 Y21.388
X61.455 Y21.622
X61.538 Y21.878
X61.566 Y22.146
X61.538 Y22.414
X61.455 Y22.670
X61.320 Y22.904
X61.140 Y23.104
X60.922 Y23.263
X60.675 Y23.372
X60.412 Y23.428
X60.142 Y23.428
X59.879 Y23.372
X59.633 Y23.263
X59.415 Y23.104
X59.233 Y22.902
X59.213 Y22.866
X58.207 Y22.866
X55.354 Y25.719
X55.239 Y25.802
X55.101 Y25.864
X54.953 Y25.895
X53.133 Y25.895
X53.064 Y25.972
X52.876 Y26.109
X52.664 Y26.203
X52.436 Y26.251
X52.204 Y26.251
G0 Z3.000
G0  X27.118 Y23.711
G0  Z3.000
G01 F400 Z0
G01 F400 Z-0.100
G01F400X26.891 Y23.663
X26.679 Y23.569
X26.491 Y23.432
X26.335 Y23.259
X26.219 Y23.058
X26.147 Y22.837
X26.123 Y22.606
X26.147 Y22.375
X26.219 Y22.154
X26.335 Y21.953
X26.491 Y21.780
X26.679 Y21.643
X26.891 Y21.549
X27.118 Y21.501
X27.351 Y21.501
X27.578 Y21.549
X27.790 Y21.643
X27.978 Y21.780
X28.133 Y21.953
X28.250 Y22.154
X28.321 Y22.375
X28.346 Y22.606
X28.321 Y22.837
X28.250 Y23.058
X28.133 Y23.259
X27.978 Y23.432
X27.790 Y23.569
X27.578 Y23.663
X27.351 Y23.711
X27.118 Y23.711
G0 Z3.000
G0  X52.204 Y23.711
G0  Z3.000
G01 F400 Z0
G01 F400 Z-0.100
G01F400X51.977 Y23.663
X51.765 Y23.569
X51.577 Y23.432
X51.421 Y23.259
X51.305 Y23.058
X51.233 Y22.837
X51.209 Y22.606
X51.233 Y22.375
X51.305 Y22.154
X51.421 Y21.953
X51.577 Y21.780
X51.765 Y21.643
X51.977 Y21.549
X52.204 Y21.501
X52.436 Y21.501
X52.664 Y21.549
X52.876 Y21.643
X53.064 Y21.780
X53.219 Y21.953
X53.336 Y22.154
X53.407 Y22.375
X53.432 Y22.606
X53.407 Y22.837
X53.336 Y23.058
X53.219 Y23.259
X53.064 Y23.432
X52.876 Y23.569
X52.664 Y23.663
X52.436 Y23.711
X52.204 Y23.711
G0 Z3.000
G0  X52.204 Y21.171
G0  Z3.000
G01 F400 Z0
G01 F400 Z-0.100
G01F400X51.977 Y21.123
X51.765 Y21.029
X51.577 Y20.892
X51.421 Y20.719
X51.305 Y20.518
X51.233 Y20.297
X51.209 Y20.066
X51.233 Y19.835
X51.305 Y19.614
X51.421 Y19.413
X51.577 Y19.240
X51.765 Y19.104
X51.977 Y19.009
X52.204 Y18.961
X52.436 Y18.961
X52.664 Y19.009
X52.876 Y19.104
X53.064 Y19.240
X53.219 Y19.413
X53.336 Y19.614
X53.407 Y19.835
X53.432 Y20.066
X53.407 Y20.297
X53.336 Y20.518
X53.219 Y20.719
X53.064 Y20.892
X52.876 Y21.029
X52.664 Y21.123
X52.436 Y21.171
X52.204 Y21.171
G0 Z3.000
G0  X27.118 Y21.171
G0  Z3.000
G01 F400 Z0
G01 F400 Z-0.100
G01F400X26.891 Y21.123
X26.679 Y21.029
X26.491 Y20.892
X26.335 Y20.719
X26.219 Y20.518
X26.147 Y20.297
X26.123 Y20.066
X26.147 Y19.835
X26.219 Y19.614
X26.335 Y19.413
X26.491 Y19.240
X26.679 Y19.104
X26.891 Y19.009
X27.118 Y18.961
X27.351 Y18.961
X27.578 Y19.009
X27.790 Y19.104
X27.978 Y19.240
X28.133 Y19.413
X28.250 Y19.614
X28.321 Y19.835
X28.346 Y20.066
X28.321 Y20.297
X28.250 Y20.518
X28.133 Y20.719
X27.978 Y20.892
X27.790 Y21.029
X27.578 Y21.123
X27.351 Y21.171
X27.118 Y21.171
G0 Z3.000
G0  X52.204 Y18.631
G0  Z3.000
G01 F400 Z0
G01 F400 Z-0.100
G01F400X51.977 Y18.583
X51.765 Y18.489
X51.577 Y18.352
X51.421 Y18.179
X51.305 Y17.978
X51.233 Y17.757
X51.209 Y17.526
X51.233 Y17.295
X51.305 Y17.074
X51.421 Y16.873
X51.577 Y16.700
X51.765 Y16.564
X51.977 Y16.469
X52.204 Y16.421
X52.436 Y16.421
X52.664 Y16.469
X52.876 Y16.564
X53.064 Y16.700
X53.219 Y16.873
X53.336 Y17.074
X53.407 Y17.295
X53.432 Y17.526
X53.407 Y17.757
X53.336 Y17.978
X53.219 Y18.179
X53.064 Y18.352
X52.876 Y18.489
X52.664 Y18.583
X52.436 Y18.631
X52.204 Y18.631
G0 Z3.000
G0  X27.118 Y18.631
G0  Z3.000
G01 F400 Z0
G01 F400 Z-0.100
G01F400X26.891 Y18.583
X26.679 Y18.489
X26.491 Y18.352
X26.335 Y18.179
X26.219 Y17.978
X26.147 Y17.757
X26.123 Y17.526
X26.147 Y17.295
X26.219 Y17.074
X26.335 Y16.873
X26.491 Y16.700
X26.679 Y16.564
X26.891 Y16.469
X27.118 Y16.421
X27.351 Y16.421
X27.578 Y16.469
X27.790 Y16.564
X27.978 Y16.700
X28.133 Y16.873
X28.250 Y17.074
X28.321 Y17.295
X28.346 Y17.526
X28.321 Y17.757
X28.250 Y17.978
X28.133 Y18.179
X27.978 Y18.352
X27.790 Y18.489
X27.578 Y18.583
X27.351 Y18.631
X27.118 Y18.631
G0 Z3.000
G0  X4.395 Y18.059
G0  Z3.000
G01 F400 Z0
G01 F400 Z-0.100
G01F400X4.140 Y18.005
X3.901 Y17.898
X3.690 Y17.745
X3.515 Y17.551
X3.385 Y17.324
X3.304 Y17.076
X3.276 Y16.816
X3.304 Y16.557
X3.385 Y16.308
X3.515 Y16.082
X3.690 Y15.888
X3.901 Y15.734
X4.140 Y15.628
X4.395 Y15.574
X4.657 Y15.574
X4.912 Y15.628
X5.151 Y15.734
X5.362 Y15.888
X5.537 Y16.082
X5.545 Y16.096
X10.009 Y16.096
X10.018 Y16.082
X10.192 Y15.888
X10.404 Y15.734
X10.642 Y15.628
X10.898 Y15.574
X11.159 Y15.574
X11.234 Y15.590
X15.382 Y11.442
X15.497 Y11.359
X15.635 Y11.297
X15.782 Y11.266
X17.217 Y11.257
X17.234 Y11.228
X17.415 Y11.028
X17.633 Y10.870
X17.879 Y10.760
X18.143 Y10.704
X18.412 Y10.704
X18.676 Y10.760
X18.922 Y10.870
X19.140 Y11.028
X19.320 Y11.228
X19.455 Y11.462
X19.538 Y11.718
X19.566 Y11.986
X19.538 Y12.254
X19.455 Y12.510
X19.320 Y12.744
X19.140 Y12.944
X18.922 Y13.103
X18.676 Y13.212
X18.412 Y13.268
X18.143 Y13.268
X17.879 Y13.212
X17.633 Y13.103
X17.415 Y12.944
X17.233 Y12.743
X17.213 Y12.706
X16.160 Y12.706
X12.256 Y16.610
X12.278 Y16.816
X12.250 Y17.076
X12.170 Y17.324
X12.039 Y17.551
X11.864 Y17.745
X11.653 Y17.898
X11.414 Y18.005
X11.159 Y18.059
X10.898 Y18.059
X10.642 Y18.005
X10.404 Y17.898
X10.192 Y17.745
X10.018 Y17.551
X10.010 Y17.537
X5.545 Y17.537
X5.537 Y17.551
X5.362 Y17.745
X5.151 Y17.898
X4.912 Y18.005
X4.657 Y18.059
X4.395 Y18.059
G0 Z3.000
G0  X68.395 Y18.059
G0  Z3.000
G01 F400 Z0
G01 F400 Z-0.100
G01F400X68.140 Y18.005
X67.901 Y17.898
X67.690 Y17.745
X67.515 Y17.551
X67.384 Y17.324
X67.304 Y17.076
X67.276 Y16.816
X67.298 Y16.610
X63.396 Y12.707
X61.337 Y12.715
X61.320 Y12.744
X61.140 Y12.944
X60.922 Y13.103
X60.675 Y13.212
X60.412 Y13.268
X60.142 Y13.268
X59.879 Y13.212
X59.633 Y13.103
X59.415 Y12.944
X59.234 Y12.744
X59.099 Y12.510
X59.016 Y12.254
X58.988 Y11.986
X59.016 Y11.718
X59.099 Y11.462
X59.234 Y11.228
X59.415 Y11.028
X59.633 Y10.870
X59.879 Y10.760
X60.142 Y10.704
X60.412 Y10.704
X60.675 Y10.760
X60.922 Y10.870
X61.140 Y11.028
X61.321 Y11.229
X61.342 Y11.266
X63.771 Y11.266
X63.919 Y11.297
X64.058 Y11.359
X64.173 Y11.442
X68.320 Y15.590
X68.395 Y15.574
X68.656 Y15.574
X68.912 Y15.628
X69.151 Y15.734
X69.362 Y15.888
X69.537 Y16.082
X69.545 Y16.096
X74.009 Y16.096
X74.017 Y16.082
X74.192 Y15.888
X74.404 Y15.734
X74.642 Y15.628
X74.898 Y15.574
X75.159 Y15.574
X75.414 Y15.628
X75.653 Y15.734
X75.864 Y15.888
X76.039 Y16.082
X76.170 Y16.308
X76.250 Y16.557
X76.278 Y16.816
X76.250 Y17.076
X76.170 Y17.325
X76.039 Y17.551
X75.864 Y17.745
X75.653 Y17.898
X75.414 Y18.005
X75.159 Y18.059
X74.898 Y18.059
X74.642 Y18.005
X74.404 Y17.898
X74.192 Y17.745
X74.017 Y17.551
X74.009 Y17.537
X69.544 Y17.537
X69.537 Y17.551
X69.362 Y17.745
X69.151 Y17.898
X68.912 Y18.005
X68.656 Y18.059
X68.395 Y18.059
G0 Z3.000
G0  X52.204 Y16.091
G0  Z3.000
G01 F400 Z0
G01 F400 Z-0.100
G01F400X51.977 Y16.043
X51.765 Y15.949
X51.577 Y15.812
X51.421 Y15.639
X51.305 Y15.438
X51.233 Y15.217
X51.209 Y14.986
X51.233 Y14.755
X51.305 Y14.534
X51.421 Y14.333
X51.577 Y14.160
X51.765 Y14.024
X51.977 Y13.929
X52.204 Y13.881
X52.436 Y13.881
X52.664 Y13.929
X52.876 Y14.024
X53.064 Y14.160
X53.219 Y14.333
X53.336 Y14.534
X53.407 Y14.755
X53.432 Y14.986
X53.407 Y15.217
X53.336 Y15.438
X53.219 Y15.639
X53.064 Y15.812
X52.876 Y15.949
X52.664 Y16.043
X52.436 Y16.091
X52.204 Y16.091
G0 Z3.000
G0  X27.118 Y16.091
G0  Z3.000
G01 F400 Z0
G01 F400 Z-0.100
G01F400X26.891 Y16.043
X26.679 Y15.949
X26.491 Y15.812
X26.335 Y15.639
X26.219 Y15.438
X26.147 Y15.217
X26.123 Y14.986
X26.147 Y14.755
X26.219 Y14.534
X26.335 Y14.333
X26.491 Y14.160
X26.679 Y14.024
X26.891 Y13.929
X27.118 Y13.881
X27.351 Y13.881
X27.578 Y13.929
X27.790 Y14.024
X27.978 Y14.160
X28.133 Y14.333
X28.250 Y14.534
X28.321 Y14.755
X28.346 Y14.986
X28.321 Y15.217
X28.250 Y15.438
X28.133 Y15.639
X27.978 Y15.812
X27.790 Y15.949
X27.578 Y16.043
X27.351 Y16.091
X27.118 Y16.091
G0 Z3.000
G0  X52.204 Y13.551
G0  Z3.000
G01 F400 Z0
G01 F400 Z-0.100
G01F400X51.977 Y13.503
X51.765 Y13.409
X51.577 Y13.272
X51.421 Y13.099
X51.305 Y12.898
X51.233 Y12.677
X51.209 Y12.446
X51.233 Y12.215
X51.305 Y11.994
X51.421 Y11.793
X51.577 Y11.620
X51.765 Y11.484
X51.977 Y11.389
X52.204 Y11.341
X52.436 Y11.341
X52.664 Y11.389
X52.876 Y11.484
X53.064 Y11.620
X53.219 Y11.793
X53.336 Y11.994
X53.407 Y12.215
X53.432 Y12.446
X53.407 Y12.677
X53.336 Y12.898
X53.219 Y13.099
X53.064 Y13.272
X52.876 Y13.409
X52.664 Y13.503
X52.436 Y13.551
X52.204 Y13.551
G0 Z3.000
G0  X27.118 Y13.551
G0  Z3.000
G01 F400 Z0
G01 F400 Z-0.100
G01F400X26.891 Y13.503
X26.679 Y13.409
X26.491 Y13.272
X26.335 Y13.099
X26.219 Y12.898
X26.147 Y12.677
X26.123 Y12.446
X26.147 Y12.215
X26.219 Y11.994
X26.335 Y11.793
X26.491 Y11.620
X26.679 Y11.484
X26.891 Y11.389
X27.118 Y11.341
X27.351 Y11.341
X27.578 Y11.389
X27.790 Y11.484
X27.978 Y11.620
X28.133 Y11.793
X28.250 Y11.994
X28.321 Y12.215
X28.346 Y12.446
X28.321 Y12.677
X28.250 Y12.898
X28.133 Y13.099
X27.978 Y13.272
X27.790 Y13.409
X27.578 Y13.503
X27.351 Y13.551
X27.118 Y13.551
G0 Z3.000
G0  X52.204 Y11.011
G0  Z3.000
G01 F400 Z0
G01 F400 Z-0.100
G01F400X51.977 Y10.963
X51.765 Y10.869
X51.577 Y10.732
X51.421 Y10.559
X51.305 Y10.358
X51.233 Y10.137
X51.209 Y9.906
X51.233 Y9.675
X51.305 Y9.454
X51.421 Y9.253
X51.577 Y9.080
X51.765 Y8.944
X51.977 Y8.849
X52.204 Y8.801
X52.436 Y8.801
X52.664 Y8.849
X52.876 Y8.944
X53.064 Y9.080
X53.219 Y9.253
X53.336 Y9.454
X53.407 Y9.675
X53.432 Y9.906
X53.407 Y10.137
X53.336 Y10.358
X53.219 Y10.559
X53.064 Y10.732
X52.876 Y10.869
X52.664 Y10.963
X52.436 Y11.011
X52.204 Y11.011
G0 Z3.000
G0  X27.118 Y11.011
G0  Z3.000
G01 F400 Z0
G01 F400 Z-0.100
G01F400X26.891 Y10.963
X26.679 Y10.869
X26.491 Y10.732
X26.335 Y10.559
X26.219 Y10.358
X26.147 Y10.137
X26.123 Y9.906
X26.147 Y9.675
X26.219 Y9.454
X26.335 Y9.253
X26.491 Y9.080
X26.679 Y8.944
X26.891 Y8.849
X27.118 Y8.801
X27.351 Y8.801
X27.578 Y8.849
X27.790 Y8.944
X27.978 Y9.080
X28.133 Y9.253
X28.250 Y9.454
X28.321 Y9.675
X28.346 Y9.906
X28.321 Y10.137
X28.250 Y10.358
X28.133 Y10.559
X27.978 Y10.732
X27.790 Y10.869
X27.578 Y10.963
X27.351 Y11.011
X27.118 Y11.011
G0 Z3.000
G0  X52.204 Y8.471
G0  Z3.000
G01 F400 Z0
G01 F400 Z-0.100
G01F400X51.977 Y8.423
X51.765 Y8.329
X51.577 Y8.192
X51.421 Y8.019
X51.305 Y7.818
X51.233 Y7.597
X51.209 Y7.366
X51.233 Y7.135
X51.305 Y6.914
X51.421 Y6.713
X51.577 Y6.540
X51.765 Y6.404
X51.977 Y6.309
X52.204 Y6.261
X52.436 Y6.261
X52.664 Y6.309
X52.876 Y6.404
X53.064 Y6.540
X53.219 Y6.713
X53.336 Y6.914
X53.407 Y7.135
X53.432 Y7.366
X53.407 Y7.597
X53.336 Y7.818
X53.219 Y8.019
X53.064 Y8.192
X52.876 Y8.329
X52.664 Y8.423
X52.436 Y8.471
X52.204 Y8.471
G0 Z3.000
G0  X27.118 Y8.471
G0  Z3.000
G01 F400 Z0
G01 F400 Z-0.100
G01F400X26.891 Y8.423
X26.679 Y8.329
X26.491 Y8.192
X26.335 Y8.019
X26.219 Y7.818
X26.147 Y7.597
X26.123 Y7.366
X26.147 Y7.135
X26.219 Y6.914
X26.335 Y6.713
X26.491 Y6.540
X26.679 Y6.404
X26.891 Y6.309
X27.118 Y6.261
X27.351 Y6.261
X27.578 Y6.309
X27.790 Y6.404
X27.978 Y6.540
X28.133 Y6.713
X28.250 Y6.914
X28.321 Y7.135
X28.346 Y7.366
X28.321 Y7.597
X28.250 Y7.818
X28.133 Y8.019
X27.978 Y8.192
X27.790 Y8.329
X27.578 Y8.423
X27.351 Y8.471
X27.118 Y8.471
G0 Z3.000
G0  X11.422 Y7.259
G0  Z3.000
G01 F400 Z0
G01 F400 Z-0.100
G01F400X11.177 Y7.207
X10.947 Y7.105
X10.745 Y6.957
X10.577 Y6.771
X10.452 Y6.554
X10.374 Y6.315
X10.348 Y6.066
X10.374 Y5.817
X10.452 Y5.578
X10.577 Y5.361
X10.745 Y5.175
X10.947 Y5.027
X11.063 Y4.976
X14.268 Y1.771
X14.383 Y1.688
X14.521 Y1.626
X14.669 Y1.595
X26.370 Y1.595
X26.491 Y1.460
X26.679 Y1.324
X26.891 Y1.229
X27.118 Y1.181
X27.351 Y1.181
X27.578 Y1.229
X27.790 Y1.324
X27.978 Y1.460
X28.133 Y1.633
X28.250 Y1.834
X28.321 Y2.055
X28.346 Y2.286
X28.321 Y2.517
X28.250 Y2.738
X28.133 Y2.939
X27.978 Y3.112
X27.790 Y3.248
X27.578 Y3.343
X27.351 Y3.391
X27.118 Y3.391
X26.891 Y3.343
X26.679 Y3.248
X26.491 Y3.112
X26.422 Y3.035
X15.046 Y3.035
X12.592 Y5.489
X12.643 Y5.578
X12.720 Y5.817
X12.747 Y6.066
X12.720 Y6.315
X12.643 Y6.554
X12.518 Y6.771
X12.350 Y6.957
X12.147 Y7.105
X11.918 Y7.207
X11.673 Y7.259
X11.422 Y7.259
G0 Z3.000
G0  X52.204 Y3.391
G0  Z3.000
G01 F400 Z0
G01 F400 Z-0.100
G01F400X51.977 Y3.343
X51.765 Y3.248
X51.577 Y3.112
X51.421 Y2.939
X51.305 Y2.738
X51.233 Y2.517
X51.209 Y2.286
X51.233 Y2.055
X51.305 Y1.834
X51.421 Y1.633
X51.577 Y1.460
X51.765 Y1.324
X51.977 Y1.229
X52.204 Y1.181
X52.436 Y1.181
X52.664 Y1.229
X52.876 Y1.324
X53.064 Y1.460
X53.219 Y1.633
X53.336 Y1.834
X53.407 Y2.055
X53.432 Y2.286
X53.407 Y2.517
X53.336 Y2.738
X53.219 Y2.939
X53.064 Y3.112
X52.876 Y3.248
X52.664 Y3.343
X52.436 Y3.391
X52.204 Y3.391
G0 Z3.000
G0  X27.095 Y39.175
G0  Z3.000
G01 F400 Z0
G01 F400 Z-0.100
G01F400X26.821 Y39.117
X26.566 Y39.003
X26.340 Y38.839
X26.153 Y38.631
X26.014 Y38.389
X25.928 Y38.124
X25.898 Y37.846
X25.928 Y37.568
X26.014 Y37.303
X26.153 Y37.061
X26.340 Y36.853
X26.566 Y36.689
X26.820 Y36.576
X26.566 Y36.463
X26.340 Y36.299
X26.153 Y36.091
X26.014 Y35.849
X25.928 Y35.584
X25.898 Y35.306
X25.928 Y35.028
X26.014 Y34.763
X26.153 Y34.521
X26.340 Y34.313
X26.566 Y34.149
X26.820 Y34.036
X26.566 Y33.923
X26.340 Y33.759
X26.153 Y33.551
X26.014 Y33.309
X25.928 Y33.044
X25.898 Y32.766
X25.928 Y32.488
X26.014 Y32.223
X26.153 Y31.981
X26.340 Y31.773
X26.566 Y31.609
X26.820 Y31.496
X26.566 Y31.383
X26.340 Y31.219
X26.153 Y31.011
X26.014 Y30.769
X25.928 Y30.504
X25.898 Y30.226
X25.928 Y29.948
X26.014 Y29.683
X26.153 Y29.441
X26.340 Y29.233
X26.566 Y29.069
X26.820 Y28.956
X26.566 Y28.843
X26.340 Y28.679
X26.296 Y28.630
X18.878 Y28.630
X18.684 Y28.588
X18.503 Y28.508
X18.470 Y28.484
X18.436 Y28.492
X18.119 Y28.492
X17.809 Y28.426
X17.520 Y28.297
X17.264 Y28.111
X17.053 Y27.876
X16.894 Y27.602
X16.797 Y27.301
X16.763 Y26.986
X16.797 Y26.671
X16.894 Y26.370
X17.053 Y26.096
X17.264 Y25.861
X17.520 Y25.675
X17.809 Y25.546
X18.119 Y25.480
X18.436 Y25.480
X18.745 Y25.546
X19.034 Y25.675
X19.290 Y25.861
X19.502 Y26.096
X19.660 Y26.370
X19.758 Y26.671
X19.765 Y26.742
X26.296 Y26.742
X26.340 Y26.693
X26.566 Y26.529
X26.820 Y26.416
X26.566 Y26.303
X26.340 Y26.139
X26.296 Y26.090
X24.015 Y26.090
X23.821 Y26.049
X23.640 Y25.968
X23.491 Y25.860
X20.829 Y23.198
X19.356 Y23.198
X19.290 Y23.271
X19.034 Y23.457
X18.745 Y23.586
X18.435 Y23.652
X18.119 Y23.652
X17.809 Y23.586
X17.520 Y23.457
X17.264 Y23.271
X17.053 Y23.036
X16.894 Y22.762
X16.797 Y22.461
X16.763 Y22.146
X16.797 Y21.831
X16.894 Y21.530
X17.053 Y21.256
X17.264 Y21.021
X17.520 Y20.835
X17.809 Y20.706
X18.119 Y20.640
X18.435 Y20.640
X18.745 Y20.706
X19.034 Y20.835
X19.290 Y21.021
X19.502 Y21.256
X19.533 Y21.310
X21.321 Y21.310
X21.515 Y21.351
X21.697 Y21.432
X21.845 Y21.540
X24.507 Y24.202
X26.296 Y24.202
X26.340 Y24.153
X26.566 Y23.989
X26.820 Y23.876
X26.566 Y23.763
X26.340 Y23.599
X26.153 Y23.391
X26.014 Y23.149
X25.928 Y22.884
X25.898 Y22.606
X25.928 Y22.328
X26.014 Y22.063
X26.153 Y21.821
X26.340 Y21.613
X26.566 Y21.449
X26.820 Y21.336
X26.566 Y21.223
X26.340 Y21.059
X26.153 Y20.851
X26.014 Y20.609
X25.928 Y20.344
X25.898 Y20.066
X25.928 Y19.788
X26.014 Y19.523
X26.153 Y19.281
X26.340 Y19.073
X26.566 Y18.909
X26.820 Y18.796
X26.566 Y18.683
X26.340 Y18.519
X26.153 Y18.311
X26.014 Y18.069
X25.928 Y17.804
X25.898 Y17.526
X25.928 Y17.248
X26.014 Y16.983
X26.153 Y16.741
X26.340 Y16.533
X26.566 Y16.369
X26.820 Y16.256
X26.566 Y16.143
X26.340 Y15.979
X26.153 Y15.771
X26.014 Y15.529
X25.928 Y15.264
X25.898 Y14.986
X25.928 Y14.708
X26.014 Y14.443
X26.153 Y14.201
X26.340 Y13.993
X26.566 Y13.829
X26.820 Y13.716
X26.566 Y13.603
X26.340 Y13.439
X26.153 Y13.231
X26.014 Y12.989
X25.928 Y12.724
X25.898 Y12.446
X25.928 Y12.168
X26.014 Y11.903
X26.153 Y11.661
X26.340 Y11.453
X26.566 Y11.289
X26.820 Y11.176
X26.566 Y11.063
X26.340 Y10.899
X26.153 Y10.691
X26.014 Y10.449
X25.928 Y10.184
X25.898 Y9.906
X25.928 Y9.628
X26.014 Y9.363
X26.153 Y9.121
X26.340 Y8.913
X26.566 Y8.749
X26.820 Y8.636
X26.566 Y8.523
X26.340 Y8.359
X26.153 Y8.151
X26.014 Y7.909
X25.928 Y7.644
X25.898 Y7.366
X25.928 Y7.088
X26.014 Y6.823
X26.153 Y6.581
X26.340 Y6.373
X26.566 Y6.209
X26.820 Y6.096
X26.566 Y5.983
X26.340 Y5.819
X26.296 Y5.770
X18.911 Y5.770
X12.489 Y12.192
X12.502 Y12.315
X12.470 Y12.622
X12.375 Y12.915
X12.221 Y13.182
X12.015 Y13.411
X11.765 Y13.592
X11.484 Y13.717
X11.182 Y13.781
X10.874 Y13.781
X10.573 Y13.717
X10.291 Y13.592
X10.042 Y13.411
X9.906 Y13.259
X5.649 Y13.259
X5.512 Y13.411
X5.263 Y13.592
X4.981 Y13.717
X4.680 Y13.781
X4.372 Y13.781
X4.070 Y13.717
X3.789 Y13.592
X3.540 Y13.411
X3.503 Y13.370
X3.499 Y13.374
X3.499 Y15.766
X3.540 Y15.721
X3.789 Y15.540
X4.070 Y15.415
X4.372 Y15.350
X4.680 Y15.350
X4.981 Y15.415
X5.263 Y15.540
X5.512 Y15.721
X5.649 Y15.873
X9.905 Y15.873
X10.042 Y15.721
X10.291 Y15.540
X10.573 Y15.415
X10.874 Y15.350
X11.158 Y15.350
X15.236 Y11.272
X15.384 Y11.164
X15.566 Y11.084
X15.758 Y11.043
X17.108 Y11.035
X17.264 Y10.861
X17.520 Y10.675
X17.809 Y10.546
X18.119 Y10.481
X18.435 Y10.481
X18.745 Y10.546
X19.034 Y10.675
X19.290 Y10.861
X19.502 Y11.096
X19.660 Y11.370
X19.758 Y11.671
X19.791 Y11.986
X19.758 Y12.301
X19.660 Y12.602
X19.502 Y12.876
X19.290 Y13.111
X19.034 Y13.297
X18.745 Y13.426
X18.435 Y13.492
X18.119 Y13.492
X17.809 Y13.426
X17.520 Y13.297
X17.264 Y13.111
X17.101 Y12.930
X16.252 Y12.930
X12.489 Y16.692
X12.502 Y16.816
X12.470 Y17.123
X12.375 Y17.416
X12.221 Y17.683
X12.015 Y17.912
X11.765 Y18.093
X11.484 Y18.218
X11.182 Y18.282
X10.874 Y18.282
X10.573 Y18.218
X10.291 Y18.093
X10.042 Y17.912
X9.906 Y17.760
X5.649 Y17.760
X5.512 Y17.912
X5.263 Y18.093
X4.981 Y18.218
X4.680 Y18.282
X4.372 Y18.282
X4.070 Y18.218
X3.789 Y18.093
X3.540 Y17.912
X3.499 Y17.867
X3.499 Y28.765
X3.540 Y28.720
X3.789 Y28.539
X4.070 Y28.414
X4.372 Y28.350
X4.680 Y28.350
X4.981 Y28.414
X5.263 Y28.539
X5.512 Y28.720
X5.649 Y28.872
X9.906 Y28.872
X10.042 Y28.720
X10.291 Y28.539
X10.573 Y28.414
X10.874 Y28.350
X11.182 Y28.350
X11.484 Y28.414
X11.765 Y28.539
X12.015 Y28.720
X12.221 Y28.949
X12.375 Y29.216
X12.470 Y29.509
X12.502 Y29.816
X12.481 Y30.014
X18.110 Y35.642
X18.119 Y35.640
X18.436 Y35.640
X18.745 Y35.706
X19.034 Y35.835
X19.290 Y36.021
X19.502 Y36.256
X19.660 Y36.530
X19.758 Y36.831
X19.791 Y37.146
X19.758 Y37.461
X19.660 Y37.762
X19.502 Y38.036
X19.290 Y38.271
X19.034 Y38.457
X18.745 Y38.586
X18.436 Y38.651
X18.119 Y38.651
X17.809 Y38.586
X17.520 Y38.457
X17.264 Y38.271
X17.053 Y38.036
X16.894 Y37.762
X16.797 Y37.461
X16.763 Y37.146
X16.780 Y36.986
X11.076 Y31.282
X10.874 Y31.282
X10.573 Y31.217
X10.291 Y31.092
X10.042 Y30.911
X9.906 Y30.759
X5.649 Y30.759
X5.512 Y30.911
X5.263 Y31.092
X4.981 Y31.217
X4.680 Y31.282
X4.372 Y31.282
X4.070 Y31.217
X3.789 Y31.092
X3.540 Y30.911
X3.499 Y30.866
X3.499 Y31.952
X4.397 Y32.850
X4.680 Y32.850
X4.981 Y32.915
X5.263 Y33.040
X5.512 Y33.221
X5.649 Y33.373
X9.905 Y33.373
X10.042 Y33.221
X10.291 Y33.040
X10.573 Y32.915
X10.874 Y32.850
X11.182 Y32.850
X11.484 Y32.915
X11.765 Y33.040
X12.015 Y33.221
X12.221 Y33.450
X12.375 Y33.717
X12.470 Y34.010
X12.502 Y34.316
X12.470 Y34.623
X12.375 Y34.916
X12.221 Y35.183
X12.015 Y35.412
X11.765 Y35.593
X11.484 Y35.718
X11.182 Y35.782
X10.874 Y35.782
X10.573 Y35.718
X10.291 Y35.593
X10.042 Y35.412
X9.906 Y35.260
X5.649 Y35.260
X5.512 Y35.412
X5.263 Y35.593
X4.981 Y35.718
X4.680 Y35.782
X4.372 Y35.782
X4.070 Y35.718
X3.789 Y35.593
X3.540 Y35.412
X3.333 Y35.183
X3.179 Y34.916
X3.084 Y34.623
X3.052 Y34.316
X3.065 Y34.192
X1.888 Y33.015
X1.785 Y32.901
X1.686 Y32.729
X1.625 Y32.540
X1.607 Y32.373
X1.607 Y12.953
X1.625 Y12.786
X1.686 Y12.597
X1.785 Y12.425
X1.888 Y12.311
X2.598 Y11.601
X2.747 Y11.493
X2.928 Y11.412
X3.122 Y11.371
X3.404 Y11.371
X3.540 Y11.220
X3.789 Y11.039
X4.070 Y10.914
X4.372 Y10.850
X4.655 Y10.850
X8.061 Y7.443
X8.061 Y7.424
X7.586 Y7.424
X7.586 Y4.708
X10.428 Y4.708
X10.428 Y5.192
X10.594 Y5.008
X10.835 Y4.833
X10.935 Y4.788
X14.122 Y1.601
X14.271 Y1.493
X14.452 Y1.412
X14.646 Y1.371
X26.270 Y1.371
X26.340 Y1.293
X26.566 Y1.129
X26.821 Y1.015
X27.095 Y0.957
X27.374 Y0.957
X27.647 Y1.015
X27.902 Y1.129
X28.128 Y1.293
X28.315 Y1.501
X28.455 Y1.743
X28.541 Y2.008
X28.570 Y2.286
X28.541 Y2.564
X28.455 Y2.830
X28.315 Y3.071
X28.128 Y3.279
X27.902 Y3.443
X27.648 Y3.556
X27.902 Y3.669
X28.128 Y3.833
X28.172 Y3.882
X51.382 Y3.882
X51.426 Y3.833
X51.652 Y3.669
X51.906 Y3.556
X51.652 Y3.443
X51.426 Y3.279
X51.239 Y3.071
X51.100 Y2.830
X51.014 Y2.564
X50.984 Y2.286
X51.014 Y2.008
X51.100 Y1.743
X51.239 Y1.501
X51.426 Y1.293
X51.652 Y1.129
X51.908 Y1.015
X52.181 Y0.957
X52.460 Y0.957
X52.733 Y1.015
X52.988 Y1.129
X53.214 Y1.293
X53.401 Y1.501
X53.541 Y1.743
X53.627 Y2.008
X53.656 Y2.286
X53.627 Y2.564
X53.541 Y2.830
X53.401 Y3.071
X53.214 Y3.279
X52.988 Y3.443
X52.735 Y3.556
X52.988 Y3.669
X53.214 Y3.833
X53.285 Y3.911
X60.818 Y3.911
X61.012 Y3.952
X61.194 Y4.033
X61.342 Y4.141
X68.107 Y10.906
X68.372 Y10.850
X68.680 Y10.850
X68.981 Y10.914
X69.263 Y11.039
X69.512 Y11.220
X69.649 Y11.372
X73.905 Y11.372
X74.042 Y11.220
X74.291 Y11.039
X74.573 Y10.914
X74.874 Y10.850
X75.182 Y10.850
X75.484 Y10.914
X75.765 Y11.039
X76.014 Y11.220
X76.221 Y11.449
X76.375 Y11.716
X76.470 Y12.009
X76.502 Y12.315
X76.489 Y12.440
X78.529 Y14.480
X78.632 Y14.594
X78.731 Y14.766
X78.792 Y14.954
X78.810 Y15.121
X78.810 Y28.380
X78.792 Y28.547
X78.731 Y28.736
X78.632 Y28.908
X78.529 Y29.022
X77.021 Y30.530
X76.873 Y30.638
X76.692 Y30.718
X76.498 Y30.759
X76.151 Y30.759
X76.014 Y30.911
X75.765 Y31.092
X75.484 Y31.217
X75.182 Y31.282
X74.874 Y31.282
X74.573 Y31.217
X74.291 Y31.092
X74.042 Y30.911
X73.906 Y30.759
X69.648 Y30.759
X69.512 Y30.911
X69.263 Y31.092
X68.981 Y31.217
X68.680 Y31.282
X68.372 Y31.282
X68.070 Y31.217
X67.789 Y31.092
X67.540 Y30.911
X67.333 Y30.682
X67.179 Y30.415
X67.084 Y30.122
X67.052 Y29.816
X67.084 Y29.509
X67.179 Y29.216
X67.333 Y28.949
X67.540 Y28.720
X67.789 Y28.539
X68.070 Y28.414
X68.372 Y28.350
X68.680 Y28.350
X68.981 Y28.414
X69.263 Y28.539
X69.512 Y28.720
X69.648 Y28.872
X73.906 Y28.872
X74.042 Y28.720
X74.291 Y28.539
X74.573 Y28.414
X74.874 Y28.350
X75.182 Y28.350
X75.484 Y28.414
X75.765 Y28.539
X76.014 Y28.720
X76.082 Y28.795
X76.918 Y27.959
X76.918 Y15.543
X75.157 Y13.781
X74.874 Y13.781
X74.573 Y13.717
X74.291 Y13.592
X74.042 Y13.411
X73.906 Y13.259
X69.648 Y13.259
X69.512 Y13.411
X69.263 Y13.592
X68.981 Y13.717
X68.680 Y13.781
X68.372 Y13.781
X68.070 Y13.717
X67.789 Y13.592
X67.540 Y13.411
X67.333 Y13.182
X67.179 Y12.915
X67.082 Y12.616
X67.077 Y12.549
X60.326 Y5.799
X53.232 Y5.799
X53.214 Y5.819
X52.988 Y5.983
X52.735 Y6.096
X52.988 Y6.209
X53.214 Y6.373
X53.401 Y6.581
X53.541 Y6.823
X53.627 Y7.088
X53.656 Y7.366
X53.627 Y7.644
X53.541 Y7.910
X53.401 Y8.151
X53.214 Y8.359
X52.988 Y8.523
X52.735 Y8.636
X52.988 Y8.749
X53.214 Y8.913
X53.401 Y9.121
X53.541 Y9.363
X53.627 Y9.628
X53.656 Y9.906
X53.627 Y10.184
X53.541 Y10.450
X53.401 Y10.691
X53.214 Y10.899
X52.988 Y11.063
X52.735 Y11.176
X52.988 Y11.289
X53.214 Y11.453
X53.401 Y11.661
X53.541 Y11.902
X53.627 Y12.168
X53.656 Y12.446
X53.627 Y12.724
X53.541 Y12.990
X53.401 Y13.231
X53.214 Y13.439
X52.988 Y13.603
X52.735 Y13.716
X52.988 Y13.829
X53.214 Y13.993
X53.401 Y14.201
X53.541 Y14.443
X53.627 Y14.708
X53.656 Y14.986
X53.627 Y15.264
X53.541 Y15.530
X53.401 Y15.771
X53.214 Y15.979
X52.988 Y16.143
X52.735 Y16.256
X52.988 Y16.369
X53.214 Y16.533
X53.401 Y16.741
X53.541 Y16.983
X53.627 Y17.248
X53.656 Y17.526
X53.627 Y17.804
X53.541 Y18.070
X53.401 Y18.311
X53.214 Y18.519
X52.988 Y18.683
X52.735 Y18.796
X52.988 Y18.909
X53.214 Y19.073
X53.401 Y19.281
X53.541 Y19.523
X53.627 Y19.788
X53.656 Y20.066
X53.627 Y20.344
X53.541 Y20.610
X53.401 Y20.851
X53.214 Y21.059
X52.988 Y21.223
X52.735 Y21.336
X52.988 Y21.449
X53.214 Y21.613
X53.401 Y21.821
X53.541 Y22.063
X53.627 Y22.328
X53.656 Y22.606
X53.627 Y22.884
X53.541 Y23.149
X53.401 Y23.391
X53.214 Y23.599
X52.988 Y23.763
X52.735 Y23.876
X52.988 Y23.989
X53.214 Y24.153
X53.285 Y24.231
X54.484 Y24.231
X57.283 Y21.432
X57.431 Y21.324
X57.613 Y21.244
X57.805 Y21.203
X59.108 Y21.195
X59.264 Y21.021
X59.520 Y20.835
X59.809 Y20.706
X60.119 Y20.640
X60.435 Y20.640
X60.745 Y20.706
X61.034 Y20.835
X61.290 Y21.021
X61.502 Y21.256
X61.660 Y21.530
X61.758 Y21.831
X61.791 Y22.146
X61.758 Y22.461
X61.660 Y22.762
X61.502 Y23.036
X61.290 Y23.271
X61.034 Y23.457
X60.745 Y23.586
X60.435 Y23.652
X60.119 Y23.652
X59.809 Y23.586
X59.520 Y23.457
X59.264 Y23.271
X59.101 Y23.090
X58.299 Y23.090
X55.500 Y25.889
X55.352 Y25.997
X55.170 Y26.078
X54.976 Y26.119
X53.232 Y26.119
X53.214 Y26.139
X52.988 Y26.303
X52.735 Y26.416
X52.988 Y26.529
X53.214 Y26.693
X53.258 Y26.742
X58.789 Y26.742
X58.796 Y26.671
X58.894 Y26.370
X59.053 Y26.096
X59.264 Y25.861
X59.520 Y25.675
X59.809 Y25.546
X60.119 Y25.480
X60.435 Y25.480
X60.745 Y25.546
X61.034 Y25.675
X61.290 Y25.861
X61.502 Y26.096
X61.660 Y26.370
X61.758 Y26.671
X61.791 Y26.986
X61.758 Y27.301
X61.660 Y27.602
X61.502 Y27.876
X61.290 Y28.111
X61.034 Y28.297
X60.745 Y28.426
X60.435 Y28.492
X60.119 Y28.492
X60.084 Y28.484
X60.052 Y28.508
X59.870 Y28.588
X59.676 Y28.630
X53.258 Y28.630
X53.214 Y28.679
X52.988 Y28.843
X52.735 Y28.956
X52.988 Y29.069
X53.214 Y29.233
X53.401 Y29.441
X53.541 Y29.683
X53.627 Y29.948
X53.656 Y30.226
X53.627 Y30.504
X53.541 Y30.770
X53.401 Y31.011
X53.214 Y31.219
X52.988 Y31.383
X52.735 Y31.496
X52.988 Y31.609
X53.214 Y31.773
X53.401 Y31.981
X53.541 Y32.223
X53.627 Y32.488
X53.656 Y32.766
X53.627 Y33.044
X53.541 Y33.309
X53.401 Y33.551
X53.214 Y33.759
X52.988 Y33.923
X52.735 Y34.036
X52.988 Y34.149
X53.214 Y34.313
X53.401 Y34.521
X53.541 Y34.763
X53.627 Y35.028
X53.656 Y35.306
X53.627 Y35.584
X53.541 Y35.849
X53.401 Y36.091
X53.214 Y36.299
X52.988 Y36.463
X52.735 Y36.576
X52.988 Y36.689
X53.214 Y36.853
X53.401 Y37.061
X53.541 Y37.303
X53.627 Y37.568
X53.656 Y37.846
X53.627 Y38.124
X53.541 Y38.390
X53.401 Y38.631
X53.214 Y38.839
X52.988 Y39.003
X52.733 Y39.117
X52.460 Y39.175
X52.181 Y39.175
X51.908 Y39.117
X51.652 Y39.003
X51.426 Y38.839
X51.239 Y38.631
X51.100 Y38.390
X51.014 Y38.124
X50.984 Y37.846
X51.014 Y37.568
X51.100 Y37.303
X51.239 Y37.061
X51.426 Y36.853
X51.652 Y36.689
X51.906 Y36.576
X51.652 Y36.463
X51.426 Y36.299
X51.239 Y36.091
X51.100 Y35.849
X51.014 Y35.584
X50.984 Y35.306
X51.014 Y35.028
X51.100 Y34.763
X51.239 Y34.521
X51.426 Y34.313
X51.652 Y34.149
X51.906 Y34.036
X51.652 Y33.923
X51.426 Y33.759
X51.239 Y33.551
X51.100 Y33.309
X51.014 Y33.044
X50.984 Y32.766
X51.014 Y32.488
X51.100 Y32.223
X51.239 Y31.981
X51.426 Y31.773
X51.652 Y31.609
X51.906 Y31.496
X51.652 Y31.383
X51.426 Y31.219
X51.239 Y31.011
X51.100 Y30.770
X51.014 Y30.504
X50.984 Y30.226
X51.014 Y29.948
X51.100 Y29.683
X51.239 Y29.441
X51.426 Y29.233
X51.652 Y29.069
X51.906 Y28.956
X51.652 Y28.843
X51.426 Y28.679
X51.239 Y28.471
X51.100 Y28.230
X51.014 Y27.964
X50.984 Y27.686
X51.014 Y27.408
X51.100 Y27.143
X51.239 Y26.901
X51.426 Y26.693
X51.652 Y26.529
X51.906 Y26.416
X51.652 Y26.303
X51.426 Y26.139
X51.239 Y25.931
X51.100 Y25.690
X51.014 Y25.424
X50.984 Y25.146
X51.014 Y24.868
X51.100 Y24.603
X51.239 Y24.361
X51.426 Y24.153
X51.652 Y23.989
X51.906 Y23.876
X51.652 Y23.763
X51.426 Y23.599
X51.239 Y23.391
X51.100 Y23.149
X51.014 Y22.884
X50.984 Y22.606
X51.014 Y22.328
X51.100 Y22.063
X51.239 Y21.821
X51.426 Y21.613
X51.652 Y21.449
X51.906 Y21.336
X51.652 Y21.223
X51.426 Y21.059
X51.239 Y20.851
X51.100 Y20.610
X51.014 Y20.344
X50.984 Y20.066
X51.014 Y19.788
X51.100 Y19.523
X51.239 Y19.281
X51.426 Y19.073
X51.652 Y18.909
X51.906 Y18.796
X51.652 Y18.683
X51.426 Y18.519
X51.239 Y18.311
X51.100 Y18.070
X51.014 Y17.804
X50.984 Y17.526
X51.014 Y17.248
X51.100 Y16.983
X51.239 Y16.741
X51.426 Y16.533
X51.652 Y16.369
X51.906 Y16.256
X51.652 Y16.143
X51.426 Y15.979
X51.239 Y15.771
X51.100 Y15.530
X51.014 Y15.264
X50.984 Y14.986
X51.014 Y14.708
X51.100 Y14.443
X51.239 Y14.201
X51.426 Y13.993
X51.652 Y13.829
X51.906 Y13.716
X51.652 Y13.603
X51.426 Y13.439
X51.239 Y13.231
X51.100 Y12.990
X51.014 Y12.724
X50.984 Y12.446
X51.014 Y12.168
X51.100 Y11.902
X51.239 Y11.661
X51.426 Y11.453
X51.652 Y11.289
X51.906 Y11.176
X51.652 Y11.063
X51.426 Y10.899
X51.239 Y10.691
X51.100 Y10.450
X51.014 Y10.184
X50.984 Y9.906
X51.014 Y9.628
X51.100 Y9.363
X51.239 Y9.121
X51.426 Y8.913
X51.652 Y8.749
X51.906 Y8.636
X51.652 Y8.523
X51.426 Y8.359
X51.239 Y8.151
X51.100 Y7.910
X51.014 Y7.644
X50.984 Y7.366
X51.014 Y7.088
X51.100 Y6.823
X51.239 Y6.581
X51.426 Y6.373
X51.652 Y6.209
X51.906 Y6.096
X51.652 Y5.983
X51.426 Y5.819
X51.382 Y5.770
X28.172 Y5.770
X28.128 Y5.819
X27.902 Y5.983
X27.648 Y6.096
X27.902 Y6.209
X28.128 Y6.373
X28.315 Y6.581
X28.455 Y6.823
X28.541 Y7.088
X28.570 Y7.366
X28.541 Y7.644
X28.455 Y7.910
X28.315 Y8.151
X28.128 Y8.359
X27.902 Y8.523
X27.648 Y8.636
X27.902 Y8.749
X28.128 Y8.913
X28.315 Y9.121
X28.455 Y9.363
X28.541 Y9.628
X28.570 Y9.906
X28.541 Y10.184
X28.455 Y10.450
X28.315 Y10.691
X28.128 Y10.899
X27.902 Y11.063
X27.648 Y11.176
X27.902 Y11.289
X28.128 Y11.453
X28.315 Y11.661
X28.455 Y11.902
X28.541 Y12.168
X28.570 Y12.446
X28.541 Y12.724
X28.455 Y12.990
X28.315 Y13.231
X28.128 Y13.439
X27.902 Y13.603
X27.648 Y13.716
X27.902 Y13.829
X28.128 Y13.993
X28.315 Y14.201
X28.455 Y14.443
X28.541 Y14.708
X28.570 Y14.986
X28.541 Y15.264
X28.455 Y15.530
X28.315 Y15.771
X28.128 Y15.979
X27.902 Y16.143
X27.648 Y16.256
X27.902 Y16.369
X28.128 Y16.533
X28.315 Y16.741
X28.455 Y16.983
X28.541 Y17.248
X28.570 Y17.526
X28.541 Y17.804
X28.455 Y18.070
X28.315 Y18.311
X28.128 Y18.519
X27.902 Y18.683
X27.648 Y18.796
X27.902 Y18.909
X28.128 Y19.073
X28.315 Y19.281
X28.455 Y19.523
X28.541 Y19.788
X28.570 Y20.066
X28.541 Y20.344
X28.455 Y20.610
X28.315 Y20.851
X28.128 Y21.059
X27.902 Y21.223
X27.648 Y21.336
X27.902 Y21.449
X28.128 Y21.613
X28.315 Y21.821
X28.455 Y22.063
X28.541 Y22.328
X28.570 Y22.606
X28.541 Y22.884
X28.455 Y23.149
X28.315 Y23.391
X28.128 Y23.599
X27.902 Y23.763
X27.648 Y23.876
X27.902 Y23.989
X28.128 Y24.153
X28.315 Y24.361
X28.455 Y24.603
X28.541 Y24.868
X28.570 Y25.146
X28.541 Y25.424
X28.455 Y25.690
X28.315 Y25.931
X28.128 Y26.139
X27.902 Y26.303
X27.648 Y26.416
X27.902 Y26.529
X28.128 Y26.693
X28.315 Y26.901
X28.455 Y27.143
X28.541 Y27.408
X28.570 Y27.686
X28.541 Y27.964
X28.455 Y28.230
X28.315 Y28.471
X28.128 Y28.679
X27.902 Y28.843
X27.648 Y28.956
X27.902 Y29.069
X28.128 Y29.233
X28.315 Y29.441
X28.455 Y29.683
X28.541 Y29.948
X28.570 Y30.226
X28.541 Y30.504
X28.455 Y30.770
X28.315 Y31.011
X28.128 Y31.219
X27.902 Y31.383
X27.648 Y31.496
X27.902 Y31.609
X28.128 Y31.773
X28.315 Y31.981
X28.455 Y32.223
X28.541 Y32.488
X28.570 Y32.766
X28.541 Y33.044
X28.455 Y33.309
X28.315 Y33.551
X28.128 Y33.759
X27.902 Y33.923
X27.648 Y34.036
X27.902 Y34.149
X28.128 Y34.313
X28.315 Y34.521
X28.455 Y34.763
X28.541 Y35.028
X28.570 Y35.306
X28.541 Y35.584
X28.455 Y35.849
X28.315 Y36.091
X28.128 Y36.299
X27.902 Y36.463
X27.648 Y36.576
X27.902 Y36.689
X28.128 Y36.853
X28.315 Y37.061
X28.455 Y37.303
X28.541 Y37.568
X28.570 Y37.846
X28.541 Y38.124
X28.455 Y38.390
X28.315 Y38.631
X28.128 Y38.839
X27.902 Y39.003
X27.647 Y39.117
X27.374 Y39.175
X27.095 Y39.175
G0 Z3.000
G0  X60.119 Y38.651
G0  Z3.000
G01 F400 Z0
G01 F400 Z-0.100
G01F400X59.809 Y38.586
X59.520 Y38.457
X59.264 Y38.271
X59.053 Y38.036
X58.894 Y37.762
X58.796 Y37.461
X58.763 Y37.146
X58.796 Y36.831
X58.894 Y36.530
X59.053 Y36.256
X59.264 Y36.021
X59.520 Y35.835
X59.809 Y35.706
X60.119 Y35.640
X60.435 Y35.640
X60.745 Y35.706
X61.034 Y35.835
X61.290 Y36.021
X61.453 Y36.202
X65.303 Y36.202
X67.065 Y34.441
X67.052 Y34.316
X67.084 Y34.010
X67.179 Y33.717
X67.333 Y33.450
X67.540 Y33.221
X67.789 Y33.040
X68.070 Y32.915
X68.372 Y32.850
X68.680 Y32.850
X68.981 Y32.915
X69.263 Y33.040
X69.512 Y33.221
X69.648 Y33.373
X73.905 Y33.373
X74.042 Y33.221
X74.291 Y33.040
X74.573 Y32.915
X74.874 Y32.850
X75.182 Y32.850
X75.484 Y32.915
X75.765 Y33.040
X76.014 Y33.221
X76.221 Y33.450
X76.375 Y33.717
X76.470 Y34.010
X76.502 Y34.316
X76.470 Y34.623
X76.375 Y34.916
X76.221 Y35.183
X76.014 Y35.412
X75.765 Y35.593
X75.484 Y35.718
X75.182 Y35.782
X74.874 Y35.782
X74.573 Y35.718
X74.291 Y35.593
X74.042 Y35.412
X73.906 Y35.260
X69.648 Y35.260
X69.512 Y35.412
X69.263 Y35.593
X68.981 Y35.718
X68.680 Y35.782
X68.397 Y35.782
X66.319 Y37.860
X66.171 Y37.968
X65.990 Y38.049
X65.796 Y38.090
X61.445 Y38.099
X61.290 Y38.271
X61.034 Y38.457
X60.745 Y38.586
X60.435 Y38.651
X60.119 Y38.651
G0 Z3.000
G0  X68.372 Y18.282
G0  Z3.000
G01 F400 Z0
G01 F400 Z-0.100
G01F400X68.070 Y18.218
X67.789 Y18.093
X67.540 Y17.912
X67.333 Y17.683
X67.179 Y17.416
X67.084 Y17.123
X67.052 Y16.816
X67.065 Y16.692
X63.304 Y12.931
X61.446 Y12.938
X61.290 Y13.111
X61.034 Y13.297
X60.745 Y13.426
X60.435 Y13.492
X60.119 Y13.492
X59.809 Y13.426
X59.520 Y13.297
X59.264 Y13.111
X59.053 Y12.876
X58.894 Y12.602
X58.796 Y12.301
X58.763 Y11.986
X58.796 Y11.671
X58.894 Y11.370
X59.053 Y11.096
X59.264 Y10.861
X59.520 Y10.675
X59.809 Y10.546
X60.119 Y10.481
X60.435 Y10.481
X60.745 Y10.546
X61.034 Y10.675
X61.290 Y10.861
X61.453 Y11.042
X63.795 Y11.042
X63.989 Y11.084
X64.170 Y11.164
X64.318 Y11.272
X68.397 Y15.350
X68.680 Y15.350
X68.981 Y15.415
X69.263 Y15.540
X69.512 Y15.721
X69.649 Y15.873
X73.905 Y15.873
X74.042 Y15.721
X74.291 Y15.540
X74.573 Y15.415
X74.874 Y15.350
X75.182 Y15.350
X75.484 Y15.415
X75.765 Y15.540
X76.014 Y15.721
X76.221 Y15.950
X76.375 Y16.217
X76.470 Y16.510
X76.502 Y16.816
X76.470 Y17.123
X76.375 Y17.416
X76.221 Y17.683
X76.014 Y17.912
X75.765 Y18.093
X75.484 Y18.218
X75.182 Y18.282
X74.874 Y18.282
X74.573 Y18.218
X74.291 Y18.093
X74.042 Y17.912
X73.906 Y17.760
X69.648 Y17.760
X69.512 Y17.912
X69.263 Y18.093
X68.981 Y18.218
X68.680 Y18.282
X68.372 Y18.282
G0 Z3.000
G0  X6.807 Y11.372
G0  Z3.000
G01 F400 Z0
G01 F400 Z-0.100
G01F400X9.905 Y11.372
X10.042 Y11.220
X10.291 Y11.039
X10.573 Y10.914
X10.874 Y10.850
X11.158 Y10.850
X17.895 Y4.112
X18.044 Y4.004
X18.225 Y3.924
X18.419 Y3.882
X26.296 Y3.882
X26.340 Y3.833
X26.566 Y3.669
X26.820 Y3.556
X26.566 Y3.443
X26.340 Y3.279
X26.322 Y3.259
X15.138 Y3.259
X12.863 Y5.534
X12.940 Y5.770
X12.971 Y6.066
X12.940 Y6.362
X12.848 Y6.645
X12.699 Y6.903
X12.500 Y7.124
X12.259 Y7.299
X11.987 Y7.420
X11.696 Y7.482
X11.398 Y7.482
X11.107 Y7.420
X10.835 Y7.299
X10.594 Y7.124
X10.428 Y6.940
X10.428 Y7.424
X9.953 Y7.424
X9.953 Y7.865
X9.936 Y8.032
X9.874 Y8.220
X9.775 Y8.392
X9.672 Y8.506
X6.807 Y11.372
G0 Z3.000
G00 Z3.000
M05
M30
%