; Generated by GTRACE Core Engine
G21 ; Set units to millimeters
G90 ; Absolute positioning
F800 ; Set feed rate
; Isolation Path 1
G0 X131.1342 Y71.3801 S0
G1 X131.2507 Y71.3974 S215
G1 X131.3364 Y71.4189 S215
G1 X131.4337 Y71.4529 S215
G1 X131.5272 Y71.4963 S215
G1 X131.6159 Y71.5487 S215
G1 X131.6992 Y71.6095 S215
G1 X131.7760 Y71.6782 S215
G1 X131.8458 Y71.7541 S215
G1 X131.9077 Y71.8364 S215
G1 X131.9613 Y71.9245 S215
G1 X132.0061 Y72.0173 S215
G1 X132.0415 Y72.1141 S215
G1 X132.0672 Y72.2139 S215
G1 X132.0830 Y72.3158 S215
G1 X132.0888 Y72.4187 S215
G1 X132.0845 Y72.5217 S215
G1 X132.0701 Y72.6237 S215
G1 X132.0457 Y72.7239 S215
G1 X132.0117 Y72.8212 S215
G1 X131.9683 Y72.9146 S215
G1 X131.9159 Y73.0034 S215
G1 X131.8551 Y73.0866 S215
G1 X131.7864 Y73.1635 S215
G1 X131.7105 Y73.2332 S215
G1 X131.6282 Y73.2952 S215
G1 X131.5401 Y73.3488 S215
G1 X131.4473 Y73.3935 S215
G1 X131.3505 Y73.4289 S215
G1 X131.2507 Y73.4547 S215
G1 X131.1488 Y73.4705 S215
G1 X131.0459 Y73.4763 S215
G1 X130.9430 Y73.4720 S215
G1 X130.8409 Y73.4575 S215
G1 X130.7407 Y73.4332 S215
G1 X130.6435 Y73.3992 S215
G1 X130.5500 Y73.3558 S215
G1 X130.4612 Y73.3034 S215
G1 X130.3780 Y73.2426 S215
G1 X130.3011 Y73.1739 S215
G1 X130.2314 Y73.0980 S215
G1 X130.1694 Y73.0157 S215
G1 X130.1158 Y72.9276 S215
G1 X130.0711 Y72.8348 S215
G1 X130.0357 Y72.7380 S215
G1 X130.0099 Y72.6382 S215
G1 X129.9941 Y72.5363 S215
G1 X129.9883 Y72.4334 S215
G1 X129.9927 Y72.3304 S215
G1 X130.0071 Y72.2284 S215
G1 X130.0314 Y72.1282 S215
G1 X130.0655 Y72.0309 S215
G1 X130.1089 Y71.9374 S215
G1 X130.1612 Y71.8487 S215
G1 X130.2221 Y71.7655 S215
G1 X130.2907 Y71.6886 S215
G1 X130.3666 Y71.6189 S215
G1 X130.4490 Y71.5569 S215
G1 X130.5370 Y71.5033 S215
G1 X130.6299 Y71.4586 S215
G1 X130.7267 Y71.4232 S215
G1 X130.8265 Y71.3974 S215
G1 X130.9283 Y71.3816 S215
G1 X131.0459 Y71.3758 S215
G1 X131.1342 Y71.3801 S215
; Isolation Path 2
G0 X57.3726 Y71.1770 S0
G1 X57.4891 Y71.1942 S215
G1 X57.5889 Y71.2200 S215
G1 X57.6721 Y71.2497 S215
G1 X57.7656 Y71.2932 S215
G1 X57.8544 Y71.3455 S215
G1 X57.9376 Y71.4063 S215
G1 X58.0144 Y71.4750 S215
G1 X58.0842 Y71.5509 S215
G1 X58.1462 Y71.6333 S215
G1 X58.1998 Y71.7213 S215
G1 X58.2445 Y71.8142 S215
G1 X58.2799 Y71.9110 S215
G1 X58.3056 Y72.0108 S215
G1 X58.3215 Y72.1126 S215
G1 X58.3272 Y72.2155 S215
G1 X58.3229 Y72.3185 S215
G1 X58.3085 Y72.4205 S215
G1 X58.2842 Y72.5207 S215
G1 X58.2501 Y72.6180 S215
G1 X58.2067 Y72.7115 S215
G1 X58.1543 Y72.8002 S215
G1 X58.0935 Y72.8834 S215
G1 X58.0248 Y72.9603 S215
G1 X57.9490 Y73.0301 S215
G1 X57.8666 Y73.0920 S215
G1 X57.7786 Y73.1456 S215
G1 X57.6857 Y73.1904 S215
G1 X57.5889 Y73.2258 S215
G1 X57.4891 Y73.2515 S215
G1 X57.3873 Y73.2673 S215
G1 X57.2844 Y73.2731 S215
G1 X57.1814 Y73.2688 S215
G1 X57.0793 Y73.2544 S215
G1 X56.9792 Y73.2300 S215
G1 X56.8819 Y73.1960 S215
G1 X56.7884 Y73.1526 S215
G1 X56.6996 Y73.1002 S215
G1 X56.6164 Y73.0394 S215
G1 X56.5396 Y72.9707 S215
G1 X56.4698 Y72.8948 S215
G1 X56.4078 Y72.8125 S215
G1 X56.3542 Y72.7244 S215
G1 X56.3095 Y72.6316 S215
G1 X56.2741 Y72.5348 S215
G1 X56.2484 Y72.4350 S215
G1 X56.2325 Y72.3331 S215
G1 X56.2268 Y72.2302 S215
G1 X56.2311 Y72.1273 S215
G1 X56.2455 Y72.0252 S215
G1 X56.2698 Y71.9250 S215
G1 X56.3039 Y71.8278 S215
G1 X56.3473 Y71.7343 S215
G1 X56.3997 Y71.6455 S215
G1 X56.4605 Y71.5623 S215
G1 X56.5292 Y71.4854 S215
G1 X56.6050 Y71.4157 S215
G1 X56.6874 Y71.3537 S215
G1 X56.7754 Y71.3001 S215
G1 X56.8683 Y71.2554 S215
G1 X56.9651 Y71.2200 S215
G1 X57.0649 Y71.1942 S215
G1 X57.1667 Y71.1784 S215
G1 X57.2844 Y71.1726 S215
G1 X57.3726 Y71.1770 S215
; Isolation Path 3
G0 X79.9482 Y69.8505 S0
G1 X80.0598 Y69.8670 S215
G1 X80.1408 Y69.8873 S215
G1 X80.2334 Y69.9197 S215
G1 X80.3224 Y69.9610 S215
G1 X80.4069 Y70.0108 S215
G1 X80.4862 Y70.0687 S215
G1 X80.5593 Y70.1340 S215
G1 X80.6258 Y70.2062 S215
G1 X80.6848 Y70.2846 S215
G1 X80.7359 Y70.3684 S215
G1 X80.7785 Y70.4568 S215
G1 X80.8122 Y70.5489 S215
G1 X80.8367 Y70.6439 S215
G1 X80.8519 Y70.7409 S215
G1 X80.8574 Y70.8388 S215
G1 X80.8576 Y71.5462 S215
G1 X80.8533 Y71.6369 S215
G1 X80.8396 Y71.7340 S215
G1 X80.8165 Y71.8294 S215
G1 X80.7841 Y71.9220 S215
G1 X80.7428 Y72.0110 S215
G1 X80.6930 Y72.0955 S215
G1 X80.6351 Y72.1748 S215
G1 X80.5698 Y72.2480 S215
G1 X80.4975 Y72.3144 S215
G1 X80.4192 Y72.3734 S215
G1 X80.3354 Y72.4245 S215
G1 X80.2470 Y72.4671 S215
G1 X80.1548 Y72.5008 S215
G1 X80.0598 Y72.5254 S215
G1 X79.9629 Y72.5405 S215
G1 X79.8649 Y72.5460 S215
G1 X79.7669 Y72.5419 S215
G1 X79.6697 Y72.5282 S215
G1 X79.5744 Y72.5051 S215
G1 X79.4818 Y72.4727 S215
G1 X79.3928 Y72.4314 S215
G1 X79.3082 Y72.3816 S215
G1 X79.2290 Y72.3237 S215
G1 X79.1558 Y72.2584 S215
G1 X79.0894 Y72.1862 S215
G1 X79.0303 Y72.1078 S215
G1 X78.9793 Y72.0240 S215
G1 X78.9367 Y71.9356 S215
G1 X78.9029 Y71.8435 S215
G1 X78.8784 Y71.7485 S215
G1 X78.8633 Y71.6515 S215
G1 X78.8578 Y71.5536 S215
G1 X78.8576 Y70.8462 S215
G1 X78.8619 Y70.7555 S215
G1 X78.8755 Y70.6584 S215
G1 X78.8987 Y70.5630 S215
G1 X78.9310 Y70.4704 S215
G1 X78.9723 Y70.3814 S215
G1 X79.0222 Y70.2969 S215
G1 X79.0800 Y70.2176 S215
G1 X79.1454 Y70.1444 S215
G1 X79.2176 Y70.0780 S215
G1 X79.2960 Y70.0190 S215
G1 X79.3798 Y69.9679 S215
G1 X79.4682 Y69.9253 S215
G1 X79.5603 Y69.8916 S215
G1 X79.6553 Y69.8670 S215
G1 X79.7523 Y69.8519 S215
G1 X79.8649 Y69.8464 S215
G1 X79.9482 Y69.8505 S215
; Isolation Path 4
G0 X82.4882 Y69.8505 S0
G1 X82.5998 Y69.8670 S215
G1 X82.6808 Y69.8873 S215
G1 X82.7734 Y69.9197 S215
G1 X82.8624 Y69.9610 S215
G1 X82.9469 Y70.0108 S215
G1 X83.0262 Y70.0687 S215
G1 X83.0993 Y70.1340 S215
G1 X83.1658 Y70.2062 S215
G1 X83.2248 Y70.2846 S215
G1 X83.2759 Y70.3684 S215
G1 X83.3185 Y70.4568 S215
G1 X83.3522 Y70.5489 S215
G1 X83.3767 Y70.6439 S215
G1 X83.3919 Y70.7409 S215
G1 X83.3974 Y70.8388 S215
G1 X83.3976 Y71.5462 S215
G1 X83.3933 Y71.6369 S215
G1 X83.3796 Y71.7340 S215
G1 X83.3565 Y71.8294 S215
G1 X83.3241 Y71.9220 S215
G1 X83.2828 Y72.0110 S215
G1 X83.2330 Y72.0955 S215
G1 X83.1751 Y72.1748 S215
G1 X83.1098 Y72.2480 S215
G1 X83.0375 Y72.3144 S215
G1 X82.9592 Y72.3734 S215
G1 X82.8754 Y72.4245 S215
G1 X82.7870 Y72.4671 S215
G1 X82.6949 Y72.5008 S215
G1 X82.5998 Y72.5254 S215
G1 X82.5029 Y72.5405 S215
G1 X82.4049 Y72.5460 S215
G1 X82.3069 Y72.5419 S215
G1 X82.2097 Y72.5282 S215
G1 X82.1144 Y72.5051 S215
G1 X82.0218 Y72.4727 S215
G1 X81.9328 Y72.4314 S215
G1 X81.8482 Y72.3816 S215
G1 X81.7690 Y72.3237 S215
G1 X81.6958 Y72.2584 S215
G1 X81.6294 Y72.1862 S215
G1 X81.5703 Y72.1078 S215
G1 X81.5193 Y72.0240 S215
G1 X81.4767 Y71.9356 S215
G1 X81.4429 Y71.8435 S215
G1 X81.4184 Y71.7485 S215
G1 X81.4033 Y71.6515 S215
G1 X81.3978 Y71.5536 S215
G1 X81.3976 Y70.8462 S215
G1 X81.4018 Y70.7555 S215
G1 X81.4155 Y70.6584 S215
G1 X81.4387 Y70.5630 S215
G1 X81.4710 Y70.4704 S215
G1 X81.5123 Y70.3814 S215
G1 X81.5622 Y70.2969 S215
G1 X81.6200 Y70.2176 S215
G1 X81.6854 Y70.1444 S215
G1 X81.7576 Y70.0780 S215
G1 X81.8360 Y70.0190 S215
G1 X81.9198 Y69.9679 S215
G1 X82.0082 Y69.9253 S215
G1 X82.1003 Y69.8916 S215
G1 X82.1953 Y69.8670 S215
G1 X82.2922 Y69.8519 S215
G1 X82.4049 Y69.8464 S215
G1 X82.4882 Y69.8505 S215
; Isolation Path 5
G0 X85.0282 Y69.8505 S0
G1 X85.1398 Y69.8670 S215
G1 X85.2208 Y69.8873 S215
G1 X85.3134 Y69.9197 S215
G1 X85.4024 Y69.9610 S215
G1 X85.4869 Y70.0108 S215
G1 X85.5662 Y70.0687 S215
G1 X85.6393 Y70.1340 S215
G1 X85.7058 Y70.2062 S215
G1 X85.7648 Y70.2846 S215
G1 X85.8159 Y70.3684 S215
G1 X85.8585 Y70.4568 S215
G1 X85.8922 Y70.5489 S215
G1 X85.9167 Y70.6439 S215
G1 X85.9319 Y70.7409 S215
G1 X85.9374 Y70.8388 S215
G1 X85.9376 Y71.5462 S215
G1 X85.9333 Y71.6369 S215
G1 X85.9196 Y71.7340 S215
G1 X85.8965 Y71.8294 S215
G1 X85.8641 Y71.9220 S215
G1 X85.8228 Y72.0110 S215
G1 X85.7730 Y72.0955 S215
G1 X85.7151 Y72.1748 S215
G1 X85.6498 Y72.2480 S215
G1 X85.5775 Y72.3144 S215
G1 X85.4992 Y72.3734 S215
G1 X85.4154 Y72.4245 S215
G1 X85.3270 Y72.4671 S215
G1 X85.2348 Y72.5008 S215
G1 X85.1398 Y72.5254 S215
G1 X85.0429 Y72.5405 S215
G1 X84.9449 Y72.5460 S215
G1 X84.8469 Y72.5419 S215
G1 X84.7497 Y72.5282 S215
G1 X84.6544 Y72.5051 S215
G1 X84.5618 Y72.4727 S215
G1 X84.4728 Y72.4314 S215
G1 X84.3882 Y72.3816 S215
G1 X84.3090 Y72.3237 S215
G1 X84.2358 Y72.2584 S215
G1 X84.1694 Y72.1862 S215
G1 X84.1103 Y72.1078 S215
G1 X84.0593 Y72.0240 S215
G1 X84.0167 Y71.9356 S215
G1 X83.9829 Y71.8435 S215
G1 X83.9584 Y71.7485 S215
G1 X83.9433 Y71.6515 S215
G1 X83.9378 Y71.5536 S215
G1 X83.9376 Y70.8462 S215
G1 X83.9419 Y70.7555 S215
G1 X83.9555 Y70.6584 S215
G1 X83.9787 Y70.5630 S215
G1 X84.0110 Y70.4704 S215
G1 X84.0523 Y70.3814 S215
G1 X84.1022 Y70.2969 S215
G1 X84.1600 Y70.2176 S215
G1 X84.2254 Y70.1444 S215
G1 X84.2976 Y70.0780 S215
G1 X84.3760 Y70.0190 S215
G1 X84.4598 Y69.9679 S215
G1 X84.5482 Y69.9253 S215
G1 X84.6403 Y69.8916 S215
G1 X84.7353 Y69.8670 S215
G1 X84.8323 Y69.8519 S215
G1 X84.9449 Y69.8464 S215
G1 X85.0282 Y69.8505 S215
; Isolation Path 6
G0 X87.5682 Y69.8505 S0
G1 X87.6798 Y69.8670 S215
G1 X87.7608 Y69.8873 S215
G1 X87.8534 Y69.9197 S215
G1 X87.9424 Y69.9610 S215
G1 X88.0269 Y70.0108 S215
G1 X88.1062 Y70.0687 S215
G1 X88.1793 Y70.1340 S215
G1 X88.2458 Y70.2062 S215
G1 X88.3048 Y70.2846 S215
G1 X88.3559 Y70.3684 S215
G1 X88.3985 Y70.4568 S215
G1 X88.4322 Y70.5489 S215
G1 X88.4567 Y70.6439 S215
G1 X88.4719 Y70.7409 S215
G1 X88.4774 Y70.8388 S215
G1 X88.4776 Y71.5462 S215
G1 X88.4733 Y71.6369 S215
G1 X88.4596 Y71.7340 S215
G1 X88.4365 Y71.8294 S215
G1 X88.4041 Y71.9220 S215
G1 X88.3628 Y72.0110 S215
G1 X88.3130 Y72.0955 S215
G1 X88.2551 Y72.1748 S215
G1 X88.1898 Y72.2480 S215
G1 X88.1175 Y72.3144 S215
G1 X88.0392 Y72.3734 S215
G1 X87.9554 Y72.4245 S215
G1 X87.8670 Y72.4671 S215
G1 X87.7749 Y72.5008 S215
G1 X87.6798 Y72.5254 S215
G1 X87.5829 Y72.5405 S215
G1 X87.4849 Y72.5460 S215
G1 X87.3869 Y72.5419 S215
G1 X87.2897 Y72.5282 S215
G1 X87.1944 Y72.5051 S215
G1 X87.1018 Y72.4727 S215
G1 X87.0128 Y72.4314 S215
G1 X86.9282 Y72.3816 S215
G1 X86.8490 Y72.3237 S215
G1 X86.7758 Y72.2584 S215
G1 X86.7094 Y72.1862 S215
G1 X86.6503 Y72.1078 S215
G1 X86.5993 Y72.0240 S215
G1 X86.5567 Y71.9356 S215
G1 X86.5229 Y71.8435 S215
G1 X86.4984 Y71.7485 S215
G1 X86.4833 Y71.6515 S215
G1 X86.4778 Y71.5536 S215
G1 X86.4776 Y70.8462 S215
G1 X86.4818 Y70.7555 S215
G1 X86.4955 Y70.6584 S215
G1 X86.5187 Y70.5630 S215
G1 X86.5510 Y70.4704 S215
G1 X86.5923 Y70.3814 S215
G1 X86.6422 Y70.2969 S215
G1 X86.7000 Y70.2176 S215
G1 X86.7654 Y70.1444 S215
G1 X86.8376 Y70.0780 S215
G1 X86.9160 Y70.0190 S215
G1 X86.9998 Y69.9679 S215
G1 X87.0882 Y69.9253 S215
G1 X87.1803 Y69.8916 S215
G1 X87.2753 Y69.8670 S215
G1 X87.3722 Y69.8519 S215
G1 X87.4849 Y69.8464 S215
G1 X87.5682 Y69.8505 S215
; Isolation Path 7
G0 X90.1082 Y69.8505 S0
G1 X90.2198 Y69.8670 S215
G1 X90.3008 Y69.8873 S215
G1 X90.3934 Y69.9197 S215
G1 X90.4824 Y69.9610 S215
G1 X90.5669 Y70.0108 S215
G1 X90.6462 Y70.0687 S215
G1 X90.7193 Y70.1340 S215
G1 X90.7858 Y70.2062 S215
G1 X90.8448 Y70.2846 S215
G1 X90.8959 Y70.3684 S215
G1 X90.9385 Y70.4568 S215
G1 X90.9722 Y70.5489 S215
G1 X90.9967 Y70.6439 S215
G1 X91.0119 Y70.7409 S215
G1 X91.0174 Y70.8388 S215
G1 X91.0176 Y71.5462 S215
G1 X91.0133 Y71.6369 S215
G1 X90.9996 Y71.7340 S215
G1 X90.9765 Y71.8294 S215
G1 X90.9441 Y71.9220 S215
G1 X90.9028 Y72.0110 S215
G1 X90.8530 Y72.0955 S215
G1 X90.7951 Y72.1748 S215
G1 X90.7298 Y72.2480 S215
G1 X90.6575 Y72.3144 S215
G1 X90.5792 Y72.3734 S215
G1 X90.4954 Y72.4245 S215
G1 X90.4070 Y72.4671 S215
G1 X90.3149 Y72.5008 S215
G1 X90.2198 Y72.5254 S215
G1 X90.1229 Y72.5405 S215
G1 X90.0249 Y72.5460 S215
G1 X89.9269 Y72.5419 S215
G1 X89.8297 Y72.5282 S215
G1 X89.7344 Y72.5051 S215
G1 X89.6418 Y72.4727 S215
G1 X89.5528 Y72.4314 S215
G1 X89.4682 Y72.3816 S215
G1 X89.3890 Y72.3237 S215
G1 X89.3158 Y72.2584 S215
G1 X89.2494 Y72.1862 S215
G1 X89.1903 Y72.1078 S215
G1 X89.1393 Y72.0240 S215
G1 X89.0967 Y71.9356 S215
G1 X89.0629 Y71.8435 S215
G1 X89.0384 Y71.7485 S215
G1 X89.0233 Y71.6515 S215
G1 X89.0178 Y71.5536 S215
G1 X89.0176 Y70.8462 S215
G1 X89.0219 Y70.7555 S215
G1 X89.0355 Y70.6584 S215
G1 X89.0587 Y70.5630 S215
G1 X89.0910 Y70.4704 S215
G1 X89.1323 Y70.3814 S215
G1 X89.1822 Y70.2969 S215
G1 X89.2400 Y70.2176 S215
G1 X89.3054 Y70.1444 S215
G1 X89.3776 Y70.0780 S215
G1 X89.4560 Y70.0190 S215
G1 X89.5398 Y69.9679 S215
G1 X89.6282 Y69.9253 S215
G1 X89.7203 Y69.8916 S215
G1 X89.8153 Y69.8670 S215
G1 X89.9123 Y69.8519 S215
G1 X90.0249 Y69.8464 S215
G1 X90.1082 Y69.8505 S215
; Isolation Path 8
G0 X92.6482 Y69.8505 S0
G1 X92.7598 Y69.8670 S215
G1 X92.8408 Y69.8873 S215
G1 X92.9334 Y69.9197 S215
G1 X93.0224 Y69.9610 S215
G1 X93.1069 Y70.0108 S215
G1 X93.1862 Y70.0687 S215
G1 X93.2593 Y70.1340 S215
G1 X93.3258 Y70.2062 S215
G1 X93.3848 Y70.2846 S215
G1 X93.4359 Y70.3684 S215
G1 X93.4785 Y70.4568 S215
G1 X93.5122 Y70.5489 S215
G1 X93.5367 Y70.6439 S215
G1 X93.5519 Y70.7409 S215
G1 X93.5574 Y70.8388 S215
G1 X93.5576 Y71.5462 S215
G1 X93.5533 Y71.6369 S215
G1 X93.5396 Y71.7340 S215
G1 X93.5165 Y71.8294 S215
G1 X93.4841 Y71.9220 S215
G1 X93.4428 Y72.0110 S215
G1 X93.3930 Y72.0955 S215
G1 X93.3351 Y72.1748 S215
G1 X93.2698 Y72.2480 S215
G1 X93.1975 Y72.3144 S215
G1 X93.1192 Y72.3734 S215
G1 X93.0354 Y72.4245 S215
G1 X92.9470 Y72.4671 S215
G1 X92.8548 Y72.5008 S215
G1 X92.7598 Y72.5254 S215
G1 X92.6629 Y72.5405 S215
G1 X92.5649 Y72.5460 S215
G1 X92.4669 Y72.5419 S215
G1 X92.3697 Y72.5282 S215
G1 X92.2744 Y72.5051 S215
G1 X92.1818 Y72.4727 S215
G1 X92.0928 Y72.4314 S215
G1 X92.0082 Y72.3816 S215
G1 X91.9290 Y72.3237 S215
G1 X91.8558 Y72.2584 S215
G1 X91.7894 Y72.1862 S215
G1 X91.7303 Y72.1078 S215
G1 X91.6793 Y72.0240 S215
G1 X91.6367 Y71.9356 S215
G1 X91.6029 Y71.8435 S215
G1 X91.5784 Y71.7485 S215
G1 X91.5633 Y71.6515 S215
G1 X91.5578 Y71.5536 S215
G1 X91.5576 Y70.8462 S215
G1 X91.5619 Y70.7555 S215
G1 X91.5755 Y70.6584 S215
G1 X91.5987 Y70.5630 S215
G1 X91.6310 Y70.4704 S215
G1 X91.6723 Y70.3814 S215
G1 X91.7222 Y70.2969 S215
G1 X91.7800 Y70.2176 S215
G1 X91.8454 Y70.1444 S215
G1 X91.9176 Y70.0780 S215
G1 X91.9960 Y70.0190 S215
G1 X92.0798 Y69.9679 S215
G1 X92.1682 Y69.9253 S215
G1 X92.2603 Y69.8916 S215
G1 X92.3553 Y69.8670 S215
G1 X92.4523 Y69.8519 S215
G1 X92.5649 Y69.8464 S215
G1 X92.6482 Y69.8505 S215
; Isolation Path 9
G0 X95.1882 Y69.8505 S0
G1 X95.2998 Y69.8670 S215
G1 X95.3808 Y69.8873 S215
G1 X95.4734 Y69.9197 S215
G1 X95.5624 Y69.9610 S215
G1 X95.6469 Y70.0108 S215
G1 X95.7262 Y70.0687 S215
G1 X95.7993 Y70.1340 S215
G1 X95.8658 Y70.2062 S215
G1 X95.9248 Y70.2846 S215
G1 X95.9759 Y70.3684 S215
G1 X96.0185 Y70.4568 S215
G1 X96.0522 Y70.5489 S215
G1 X96.0767 Y70.6439 S215
G1 X96.0919 Y70.7409 S215
G1 X96.0974 Y70.8388 S215
G1 X96.0976 Y71.5462 S215
G1 X96.0933 Y71.6369 S215
G1 X96.0796 Y71.7340 S215
G1 X96.0565 Y71.8294 S215
G1 X96.0241 Y71.9220 S215
G1 X95.9828 Y72.0110 S215
G1 X95.9330 Y72.0955 S215
G1 X95.8751 Y72.1748 S215
G1 X95.8098 Y72.2480 S215
G1 X95.7375 Y72.3144 S215
G1 X95.6592 Y72.3734 S215
G1 X95.5754 Y72.4245 S215
G1 X95.4870 Y72.4671 S215
G1 X95.3949 Y72.5008 S215
G1 X95.2998 Y72.5254 S215
G1 X95.2029 Y72.5405 S215
G1 X95.1049 Y72.5460 S215
G1 X95.0069 Y72.5419 S215
G1 X94.9097 Y72.5282 S215
G1 X94.8144 Y72.5051 S215
G1 X94.7218 Y72.4727 S215
G1 X94.6328 Y72.4314 S215
G1 X94.5482 Y72.3816 S215
G1 X94.4690 Y72.3237 S215
G1 X94.3958 Y72.2584 S215
G1 X94.3294 Y72.1862 S215
G1 X94.2703 Y72.1078 S215
G1 X94.2193 Y72.0240 S215
G1 X94.1767 Y71.9356 S215
G1 X94.1429 Y71.8435 S215
G1 X94.1184 Y71.7485 S215
G1 X94.1033 Y71.6515 S215
G1 X94.0978 Y71.5536 S215
G1 X94.0976 Y70.8462 S215
G1 X94.1018 Y70.7555 S215
G1 X94.1155 Y70.6584 S215
G1 X94.1387 Y70.5630 S215
G1 X94.1710 Y70.4704 S215
G1 X94.2123 Y70.3814 S215
G1 X94.2622 Y70.2969 S215
G1 X94.3200 Y70.2176 S215
G1 X94.3854 Y70.1444 S215
G1 X94.4576 Y70.0780 S215
G1 X94.5360 Y70.0190 S215
G1 X94.6198 Y69.9679 S215
G1 X94.7082 Y69.9253 S215
G1 X94.8003 Y69.8916 S215
G1 X94.8953 Y69.8670 S215
G1 X94.9922 Y69.8519 S215
G1 X95.1049 Y69.8464 S215
G1 X95.1882 Y69.8505 S215
; Isolation Path 10
G0 X97.7282 Y69.8505 S0
G1 X97.8398 Y69.8670 S215
