; Generated by GTRACE Core Engine
G21 ; Set units to millimeters
G90 ; Absolute positioning
F800 ; Set feed rate
; Polygon 1
G0 X78.1888 Y14.9639 S0
G1 X78.1202 Y14.8952 S215
G1 X78.1292 Y14.8862 S215
G1 X75.8500 Y12.6070 S215
G1 X75.9282 Y12.3154 S215
G1 X75.8076 Y11.8654 S215
G1 X75.4782 Y11.5360 S215
G1 X75.0282 Y11.4154 S215
G1 X74.5782 Y11.5360 S215
G1 X74.2487 Y11.8654 S215
G1 X74.2286 Y11.9406 S215
G1 X69.3253 Y11.9406 S215
G1 X69.3052 Y11.8654 S215
G1 X68.9758 Y11.5360 S215
G1 X68.5258 Y11.4154 S215
G1 X68.0758 Y11.5360 S215
G1 X68.0031 Y11.6087 S215
G1 X60.9842 Y4.5898 S215
G1 X60.9752 Y4.5988 S215
G1 X60.9066 Y4.5302 S215
G1 X60.7191 Y4.4799 S215
G1 X52.9896 Y4.4799 S215
G1 X52.9802 Y4.4450 S215
G1 X52.7013 Y4.1661 S215
G1 X52.3203 Y4.0640 S215
G1 X51.9393 Y4.1661 S215
G1 X51.6604 Y4.4450 S215
G1 X51.6588 Y4.4510 S215
G1 X27.8958 Y4.4510 S215
G1 X27.8942 Y4.4450 S215
G1 X27.6153 Y4.1661 S215
G1 X27.2343 Y4.0640 S215
G1 X26.8533 Y4.1661 S215
G1 X26.5743 Y4.4450 S215
G1 X26.5727 Y4.4510 S215
G1 X18.5180 Y4.4510 S215
G1 X18.3305 Y4.5012 S215
G1 X18.2619 Y4.5699 S215
G1 X18.2528 Y4.5608 S215
G1 X11.3201 Y11.4936 S215
G1 X11.0283 Y11.4154 S215
G1 X10.5783 Y11.5360 S215
G1 X10.2489 Y11.8654 S215
G1 X10.2287 Y11.9406 S215
G1 X5.4314 Y11.9406 S215
G1 X9.2724 Y8.0995 S215
G1 X9.2634 Y8.0905 S215
G1 X9.3320 Y8.0219 S215
G1 X9.3823 Y7.8344 S215
G1 X9.3823 Y6.8155 S215
G1 X9.4322 Y6.8021 S215
G1 X9.7433 Y6.4910 S215
G1 X9.8572 Y6.0660 S215
G1 X9.7433 Y5.6410 S215
G1 X9.4322 Y5.3299 S215
G1 X9.0072 Y5.2160 S215
G1 X8.5822 Y5.3299 S215
G1 X8.2711 Y5.6410 S215
G1 X8.1572 Y6.0660 S215
G1 X8.2711 Y6.4910 S215
G1 X8.5822 Y6.8021 S215
G1 X8.6323 Y6.8156 S215
G1 X8.6323 Y7.6790 S215
G1 X4.8177 Y11.4936 S215
G1 X4.5259 Y11.4154 S215
G1 X4.0759 Y11.5360 S215
G1 X3.7465 Y11.8654 S215
G1 X3.7265 Y11.9400 S215
G1 X3.2211 Y11.9400 S215
G1 X3.0336 Y11.9902 S215
G1 X2.9650 Y12.0588 S215
G1 X2.9559 Y12.0498 S215
G1 X2.2879 Y12.7178 S215
G1 X2.2970 Y12.7268 S215
G1 X2.2283 Y12.7955 S215
G1 X2.1781 Y12.9830 S215
G1 X2.1781 Y32.3428 S215
G1 X2.2283 Y32.5303 S215
G1 X2.2970 Y32.5990 S215
G1 X2.2879 Y32.6080 S215
G1 X3.7042 Y34.0243 S215
G1 X3.6259 Y34.3164 S215
G1 X3.7465 Y34.7664 S215
G1 X4.0759 Y35.0958 S215
G1 X4.5259 Y35.2164 S215
G1 X4.9759 Y35.0958 S215
G1 X5.3053 Y34.7664 S215
G1 X5.3254 Y34.6914 S215
G1 X10.2288 Y34.6914 S215
G1 X10.2489 Y34.7664 S215
G1 X10.5783 Y35.0958 S215
G1 X11.0283 Y35.2164 S215
G1 X11.4783 Y35.0958 S215
G1 X11.8077 Y34.7664 S215
G1 X11.9283 Y34.3164 S215
G1 X11.8077 Y33.8664 S215
G1 X11.4783 Y33.5370 S215
G1 X11.0283 Y33.4164 S215
G1 X10.5783 Y33.5370 S215
G1 X10.2489 Y33.8664 S215
G1 X10.2288 Y33.9414 S215
G1 X5.3254 Y33.9414 S215
G1 X5.3053 Y33.8664 S215
G1 X4.9759 Y33.5370 S215
G1 X4.5259 Y33.4164 S215
G1 X4.2349 Y33.4944 S215
G1 X2.9281 Y32.1875 S215
G1 X2.9281 Y13.1383 S215
G1 X3.3764 Y12.6900 S215
G1 X3.7263 Y12.6900 S215
G1 X3.7465 Y12.7654 S215
G1 X4.0759 Y13.0949 S215
G1 X4.5259 Y13.2154 S215
G1 X4.9759 Y13.0949 S215
G1 X5.3053 Y12.7654 S215
G1 X5.3254 Y12.6906 S215
G1 X10.2288 Y12.6906 S215
G1 X10.2489 Y12.7654 S215
G1 X10.5783 Y13.0949 S215
G1 X11.0283 Y13.2154 S215
G1 X11.4783 Y13.0949 S215
G1 X11.8077 Y12.7654 S215
G1 X11.9283 Y12.3154 S215
G1 X11.8502 Y12.0241 S215
G1 X18.6733 Y5.2010 S215
G1 X26.5727 Y5.2010 S215
G1 X26.5743 Y5.2070 S215
G1 X26.8533 Y5.4859 S215
G1 X27.2343 Y5.5880 S215
G1 X27.6153 Y5.4859 S215
G1 X27.8942 Y5.2070 S215
G1 X27.8958 Y5.2010 S215
G1 X51.6588 Y5.2010 S215
G1 X51.6604 Y5.2070 S215
G1 X51.9393 Y5.4859 S215
G1 X52.3203 Y5.5880 S215
G1 X52.7013 Y5.4859 S215
G1 X52.9573 Y5.2299 S215
G1 X60.5637 Y5.2299 S215
G1 X67.6307 Y12.2969 S215
G1 X67.6258 Y12.3154 S215
G1 X67.7463 Y12.7654 S215
G1 X68.0758 Y13.0949 S215
G1 X68.5258 Y13.2154 S215
G1 X68.9758 Y13.0949 S215
G1 X69.3052 Y12.7654 S215
G1 X69.3252 Y12.6906 S215
G1 X74.2287 Y12.6906 S215
G1 X74.2487 Y12.7654 S215
G1 X74.5782 Y13.0949 S215
G1 X75.0282 Y13.2154 S215
G1 X75.3197 Y13.1373 S215
G1 X77.4891 Y15.3067 S215
G1 X77.4891 Y28.1946 S215
G1 X76.2432 Y29.4405 S215
G1 X75.8277 Y29.4405 S215
G1 X75.8076 Y29.3655 S215
G1 X75.4782 Y29.0361 S215
G1 X75.0282 Y28.9155 S215
G1 X74.5782 Y29.0361 S215
G1 X74.2487 Y29.3655 S215
G1 X74.2287 Y29.4405 S215
G1 X69.3253 Y29.4405 S215
G1 X69.3052 Y29.3655 S215
G1 X68.9758 Y29.0361 S215
G1 X68.5258 Y28.9155 S215
G1 X68.0758 Y29.0361 S215
G1 X67.7463 Y29.3655 S215
G1 X67.6258 Y29.8155 S215
G1 X67.7463 Y30.2655 S215
G1 X68.0758 Y30.5950 S215
G1 X68.5258 Y30.7155 S215
G1 X68.9758 Y30.5950 S215
G1 X69.3052 Y30.2655 S215
G1 X69.3253 Y30.1905 S215
G1 X74.2287 Y30.1905 S215
G1 X74.2487 Y30.2655 S215
G1 X74.5782 Y30.5950 S215
G1 X75.0282 Y30.7155 S215
G1 X75.4782 Y30.5950 S215
G1 X75.8076 Y30.2655 S215
G1 X75.8277 Y30.1905 S215
G1 X76.3985 Y30.1905 S215
G1 X76.5860 Y30.1403 S215
G1 X76.6546 Y30.0717 S215
G1 X76.6637 Y30.0807 S215
G1 X78.1292 Y28.6151 S215
G1 X78.1202 Y28.6061 S215
G1 X78.1888 Y28.5374 S215
G1 X78.2391 Y28.3499 S215
G1 X78.2391 Y15.1514 S215
G1 X78.1888 Y14.9639 S215
; Polygon 2
G0 X75.8076 Y16.3663 S0
G1 X75.4782 Y16.0369 S215
G1 X75.0282 Y15.9163 S215
G1 X74.5782 Y16.0369 S215
G1 X74.2487 Y16.3663 S215
G1 X74.2286 Y16.4414 S215
G1 X69.3253 Y16.4414 S215
G1 X69.3052 Y16.3663 S215
G1 X68.9758 Y16.0369 S215
G1 X68.5258 Y15.9163 S215
G1 X68.2342 Y15.9944 S215
G1 X63.9606 Y11.7208 S215
G1 X63.9516 Y11.7299 S215
G1 X63.8830 Y11.6612 S215
G1 X63.6955 Y11.6110 S215
G1 X61.1164 Y11.6110 S215
G1 X61.0910 Y11.5161 S215
G1 X60.7470 Y11.1721 S215
G1 X60.2771 Y11.0462 S215
G1 X59.8072 Y11.1721 S215
G1 X59.4632 Y11.5161 S215
G1 X59.3373 Y11.9860 S215
G1 X59.4632 Y12.4559 S215
G1 X59.8072 Y12.7999 S215
G1 X60.2771 Y12.9258 S215
G1 X60.7470 Y12.7999 S215
G1 X61.0910 Y12.4559 S215
G1 X61.1164 Y12.3610 S215
G1 X63.5401 Y12.3610 S215
G1 X67.7039 Y16.5247 S215
G1 X67.6258 Y16.8163 S215
G1 X67.7463 Y17.2663 S215
G1 X68.0758 Y17.5957 S215
G1 X68.5258 Y17.7163 S215
G1 X68.9758 Y17.5957 S215
G1 X69.3052 Y17.2663 S215
G1 X69.3253 Y17.1914 S215
G1 X74.2287 Y17.1914 S215
G1 X74.2487 Y17.2663 S215
G1 X74.5782 Y17.5957 S215
G1 X75.0282 Y17.7163 S215
G1 X75.4782 Y17.5957 S215
G1 X75.8076 Y17.2663 S215
G1 X75.9282 Y16.8163 S215
G1 X75.8076 Y16.3663 S215
; Polygon 3
G0 X75.8076 Y33.8664 S0
G1 X75.4782 Y33.5370 S215
G1 X75.0282 Y33.4164 S215
G1 X74.5782 Y33.5370 S215
G1 X74.2487 Y33.8664 S215
G1 X74.2287 Y33.9414 S215
G1 X69.3253 Y33.9414 S215
G1 X69.3052 Y33.8664 S215
G1 X68.9758 Y33.5370 S215
G1 X68.5258 Y33.4164 S215
G1 X68.0758 Y33.5370 S215
G1 X67.7463 Y33.8664 S215
G1 X67.6258 Y34.3164 S215
G1 X67.7039 Y34.6081 S215
G1 X65.5410 Y36.7709 S215
G1 X61.1164 Y36.7709 S215
G1 X61.0910 Y36.6761 S215
G1 X60.7470 Y36.3321 S215
G1 X60.2771 Y36.2062 S215
G1 X59.8072 Y36.3321 S215
G1 X59.4632 Y36.6761 S215
G1 X59.3373 Y37.1460 S215
G1 X59.4632 Y37.6159 S215
G1 X59.8072 Y37.9599 S215
G1 X60.2771 Y38.0858 S215
G1 X60.7470 Y37.9599 S215
G1 X61.0910 Y37.6159 S215
G1 X61.1164 Y37.5209 S215
G1 X65.6963 Y37.5209 S215
G1 X65.8838 Y37.4707 S215
G1 X65.9525 Y37.4021 S215
G1 X65.9615 Y37.4111 S215
G1 X68.2343 Y35.1383 S215
G1 X68.5258 Y35.2164 S215
G1 X68.9758 Y35.0958 S215
G1 X69.3052 Y34.7664 S215
G1 X69.3253 Y34.6914 S215
G1 X74.2287 Y34.6914 S215
G1 X74.2487 Y34.7664 S215
G1 X74.5782 Y35.0958 S215
G1 X75.0282 Y35.2164 S215
G1 X75.4782 Y35.0958 S215
G1 X75.8076 Y34.7664 S215
G1 X75.9282 Y34.3164 S215
G1 X75.8076 Y33.8664 S215
; Polygon 4
G0 X61.0910 Y21.6761 S0
G1 X60.7470 Y21.3321 S215
G1 X60.2771 Y21.2062 S215
G1 X59.8072 Y21.3321 S215
G1 X59.4632 Y21.6761 S215
G1 X59.4378 Y21.7710 S215
G1 X57.9060 Y21.7710 S215
G1 X57.7185 Y21.8212 S215
G1 X57.6498 Y21.8899 S215
G1 X57.6408 Y21.8808 S215
G1 X54.7217 Y24.7999 S215
G1 X52.9896 Y24.7999 S215
G1 X52.9802 Y24.7650 S215
G1 X52.7013 Y24.4861 S215
G1 X52.3203 Y24.3840 S215
G1 X51.9393 Y24.4861 S215
G1 X51.6604 Y24.7650 S215
G1 X51.5583 Y25.1460 S215
G1 X51.6604 Y25.5270 S215
G1 X51.9393 Y25.8059 S215
G1 X52.3203 Y25.9080 S215
G1 X52.7013 Y25.8059 S215
G1 X52.9573 Y25.5499 S215
G1 X54.8771 Y25.5499 S215
G1 X55.0646 Y25.4997 S215
G1 X55.1332 Y25.4311 S215
G1 X55.1422 Y25.4401 S215
G1 X58.0613 Y22.5210 S215
G1 X59.4378 Y22.5210 S215
G1 X59.4632 Y22.6159 S215
G1 X59.8072 Y22.9599 S215
G1 X60.2771 Y23.0858 S215
G1 X60.7470 Y22.9599 S215
G1 X61.0910 Y22.6159 S215
G1 X61.2169 Y22.1460 S215
G1 X61.0910 Y21.6761 S215
; Polygon 5
G0 X61.0910 Y26.5161 S0
G1 X60.7470 Y26.1721 S215
G1 X60.2771 Y26.0462 S215
G1 X59.8072 Y26.1721 S215
G1 X59.4632 Y26.5161 S215
G1 X59.3373 Y26.9860 S215
G1 X59.4238 Y27.3089 S215
G1 X59.4217 Y27.3110 S215
G1 X52.9818 Y27.3110 S215
G1 X52.9802 Y27.3050 S215
G1 X52.7013 Y27.0261 S215
G1 X52.3203 Y26.9240 S215
G1 X51.9393 Y27.0261 S215
G1 X51.6604 Y27.3050 S215
G1 X51.5583 Y27.6860 S215
G1 X51.6604 Y28.0670 S215
G1 X51.9393 Y28.3459 S215
G1 X52.3203 Y28.4480 S215
G1 X52.7013 Y28.3459 S215
G1 X52.9802 Y28.0670 S215
G1 X52.9818 Y28.0610 S215
G1 X59.5771 Y28.0610 S215
G1 X59.7646 Y28.0108 S215
G1 X59.8332 Y27.9421 S215
G1 X59.8422 Y27.9512 S215
G1 X59.9542 Y27.8392 S215
G1 X60.2771 Y27.9258 S215
G1 X60.7470 Y27.7999 S215
G1 X61.0910 Y27.4559 S215
G1 X61.2169 Y26.9860 S215
G1 X61.0910 Y26.5161 S215
; Polygon 6
G0 X52.9802 Y1.9050 S0
G1 X52.7013 Y1.6261 S215
G1 X52.3203 Y1.5240 S215
G1 X51.9393 Y1.6261 S215
G1 X51.6604 Y1.9050 S215
G1 X51.5583 Y2.2860 S215
G1 X51.6604 Y2.6670 S215
G1 X51.9393 Y2.9459 S215
G1 X52.3203 Y3.0480 S215
G1 X52.7013 Y2.9459 S215
G1 X52.9802 Y2.6670 S215
G1 X53.0823 Y2.2860 S215
G1 X52.9802 Y1.9050 S215
; Polygon 7
G0 X52.9802 Y6.9850 S0
G1 X52.7013 Y6.7061 S215
G1 X52.3203 Y6.6040 S215
G1 X51.9393 Y6.7061 S215
G1 X51.6604 Y6.9850 S215
G1 X51.5583 Y7.3660 S215
G1 X51.6604 Y7.7470 S215
G1 X51.9393 Y8.0259 S215
G1 X52.3203 Y8.1280 S215
G1 X52.7013 Y8.0259 S215
G1 X52.9802 Y7.7470 S215
G1 X53.0823 Y7.3660 S215
G1 X52.9802 Y6.9850 S215
; Polygon 8
G0 X52.9802 Y9.5250 S0
G1 X52.7013 Y9.2461 S215
G1 X52.3203 Y9.1440 S215
G1 X51.9393 Y9.2461 S215
G1 X51.6604 Y9.5250 S215
G1 X51.5583 Y9.9060 S215
G1 X51.6604 Y10.2870 S215
G1 X51.9393 Y10.5659 S215
G1 X52.3203 Y10.6680 S215
G1 X52.7013 Y10.5659 S215
G1 X52.9802 Y10.2870 S215
G1 X53.0823 Y9.9060 S215
G1 X52.9802 Y9.5250 S215
; Polygon 9
G0 X52.9802 Y12.0650 S0
G1 X52.7013 Y11.7861 S215
G1 X52.3203 Y11.6840 S215
G1 X51.9393 Y11.7861 S215
G1 X51.6604 Y12.0650 S215
G1 X51.5583 Y12.4460 S215
G1 X51.6604 Y12.8270 S215
G1 X51.9393 Y13.1059 S215
G1 X52.3203 Y13.2080 S215
G1 X52.7013 Y13.1059 S215
G1 X52.9802 Y12.8270 S215
G1 X53.0823 Y12.4460 S215
G1 X52.9802 Y12.0650 S215
; Polygon 10
G0 X52.9802 Y14.6050 S0
G1 X52.7013 Y14.3261 S215
G1 X52.3203 Y14.2240 S215
G1 X51.9393 Y14.3261 S215
G1 X51.6604 Y14.6050 S215
G1 X51.5583 Y14.9860 S215
G1 X51.6604 Y15.3670 S215
G1 X51.9393 Y15.6459 S215
G1 X52.3203 Y15.7480 S215
G1 X52.7013 Y15.6459 S215
G1 X52.9802 Y15.3670 S215
G1 X53.0823 Y14.9860 S215
G1 X52.9802 Y14.6050 S215
; Polygon 11
G0 X52.9802 Y17.1450 S0
G1 X52.7013 Y16.8661 S215
G1 X52.3203 Y16.7640 S215
G1 X51.9393 Y16.8661 S215
G1 X51.6604 Y17.1450 S215
G1 X51.5583 Y17.5260 S215
G1 X51.6604 Y17.9070 S215
G1 X51.9393 Y18.1859 S215
G1 X52.3203 Y18.2880 S215
G1 X52.7013 Y18.1859 S215
G1 X52.9802 Y17.9070 S215
G1 X53.0823 Y17.5260 S215
G1 X52.9802 Y17.1450 S215
; Polygon 12
G0 X52.9802 Y19.6850 S0
G1 X52.7013 Y19.4061 S215
G1 X52.3203 Y19.3040 S215
G1 X51.9393 Y19.4061 S215
G1 X51.6604 Y19.6850 S215
G1 X51.5583 Y20.0660 S215
G1 X51.6604 Y20.4470 S215
G1 X51.9393 Y20.7259 S215
G1 X52.3203 Y20.8280 S215
G1 X52.7013 Y20.7259 S215
G1 X52.9802 Y20.4470 S215
G1 X53.0823 Y20.0660 S215
G1 X52.9802 Y19.6850 S215
; Polygon 13
G0 X52.9802 Y22.2250 S0
G1 X52.7013 Y21.9461 S215
G1 X52.3203 Y21.8440 S215
G1 X51.9393 Y21.9461 S215
G1 X51.6604 Y22.2250 S215
G1 X51.5583 Y22.6060 S215
G1 X51.6604 Y22.9870 S215
G1 X51.9393 Y23.2659 S215
G1 X52.3203 Y23.3680 S215
G1 X52.7013 Y23.2659 S215
G1 X52.9802 Y22.9870 S215
G1 X53.0823 Y22.6060 S215
G1 X52.9802 Y22.2250 S215
; Polygon 14
G0 X52.9802 Y29.8450 S0
G1 X52.7013 Y29.5661 S215
G1 X52.3203 Y29.4640 S215
G1 X51.9393 Y29.5661 S215
G1 X51.6604 Y29.8450 S215
G1 X51.5583 Y30.2260 S215
G1 X51.6604 Y30.6070 S215
G1 X51.9393 Y30.8859 S215
G1 X52.3203 Y30.9880 S215
G1 X52.7013 Y30.8859 S215
G1 X52.9802 Y30.6070 S215
G1 X53.0823 Y30.2260 S215
G1 X52.9802 Y29.8450 S215
; Polygon 15
G0 X52.9802 Y32.3850 S0
G1 X52.7013 Y32.1061 S215
G1 X52.3203 Y32.0040 S215
G1 X51.9393 Y32.1061 S215
G1 X51.6604 Y32.3850 S215
G1 X51.5583 Y32.7660 S215
G1 X51.6604 Y33.1470 S215
G1 X51.9393 Y33.4259 S215
G1 X52.3203 Y33.5280 S215
G1 X52.7013 Y33.4259 S215
G1 X52.9802 Y33.1470 S215
G1 X53.0823 Y32.7660 S215
G1 X52.9802 Y32.3850 S215
; Polygon 16
G0 X52.9802 Y34.9250 S0
G1 X52.7013 Y34.6461 S215
G1 X52.3203 Y34.5440 S215
G1 X51.9393 Y34.6461 S215
G1 X51.6604 Y34.9250 S215
G1 X51.5583 Y35.3060 S215
G1 X51.6604 Y35.6870 S215
G1 X51.9393 Y35.9659 S215
G1 X52.3203 Y36.0680 S215
G1 X52.7013 Y35.9659 S215
G1 X52.9802 Y35.6870 S215
G1 X53.0823 Y35.3060 S215
G1 X52.9802 Y34.9250 S215
; Polygon 17
G0 X52.9802 Y37.4650 S0
G1 X52.7013 Y37.1861 S215
G1 X52.3203 Y37.0840 S215
G1 X51.9393 Y37.1861 S215
G1 X51.6604 Y37.4650 S215
G1 X51.5583 Y37.8460 S215
G1 X51.6604 Y38.2270 S215
G1 X51.9393 Y38.5059 S215
G1 X52.3203 Y38.6080 S215
G1 X52.7013 Y38.5059 S215
G1 X52.9802 Y38.2270 S215
G1 X53.0823 Y37.8460 S215
G1 X52.9802 Y37.4650 S215
; Polygon 18
G0 X27.8942 Y1.9050 S0
G1 X27.6153 Y1.6261 S215
G1 X27.2343 Y1.5240 S215
G1 X26.8533 Y1.6261 S215
G1 X26.5743 Y1.9050 S215
G1 X26.5650 Y1.9400 S215
G1 X14.7451 Y1.9400 S215
G1 X14.5576 Y1.9902 S215
G1 X14.4889 Y2.0588 S215
G1 X14.4799 Y2.0498 S215
G1 X11.2821 Y5.2477 S215
G1 X11.2911 Y5.2567 S215
G1 X11.2530 Y5.2949 S215
G1 X11.1222 Y5.3299 S215
G1 X10.8111 Y5.6410 S215
G1 X10.6972 Y6.0660 S215
G1 X10.8111 Y6.4910 S215
G1 X11.1222 Y6.8021 S215
G1 X11.5472 Y6.9160 S215
G1 X11.9722 Y6.8021 S215
G1 X12.2833 Y6.4910 S215
G1 X12.3972 Y6.0660 S215
G1 X12.2833 Y5.6410 S215
G1 X12.1164 Y5.4741 S215
G1 X14.9004 Y2.6900 S215
G1 X26.5973 Y2.6900 S215
G1 X26.8533 Y2.9459 S215
G1 X27.2343 Y3.0480 S215
G1 X27.6153 Y2.9459 S215
G1 X27.8942 Y2.6670 S215
G1 X27.9963 Y2.2860 S215
G1 X27.8942 Y1.9050 S215
; Polygon 19
G0 X27.8942 Y6.9850 S0
G1 X27.6153 Y6.7061 S215
G1 X27.2343 Y6.6040 S215
G1 X26.8533 Y6.7061 S215
G1 X26.5743 Y6.9850 S215
G1 X26.4723 Y7.3660 S215
G1 X26.5743 Y7.7470 S215
G1 X26.8533 Y8.0259 S215
G1 X27.2343 Y8.1280 S215
G1 X27.6153 Y8.0259 S215
G1 X27.8942 Y7.7470 S215
G1 X27.9963 Y7.3660 S215
G1 X27.8942 Y6.9850 S215
; Polygon 20
G0 X27.8942 Y9.5250 S0
G1 X27.6153 Y9.2461 S215
G1 X27.2343 Y9.1440 S215
G1 X26.8533 Y9.2461 S215
G1 X26.5743 Y9.5250 S215
G1 X26.4723 Y9.9060 S215
G1 X26.5743 Y10.2870 S215
G1 X26.8533 Y10.5659 S215
G1 X27.2343 Y10.6680 S215
G1 X27.6153 Y10.5659 S215
G1 X27.8942 Y10.2870 S215
G1 X27.9963 Y9.9060 S215
G1 X27.8942 Y9.5250 S215
; Polygon 21
G0 X27.8942 Y12.0650 S0
G1 X27.6153 Y11.7861 S215
G1 X27.2343 Y11.6840 S215
G1 X26.8533 Y11.7861 S215
G1 X26.5743 Y12.0650 S215
G1 X26.4723 Y12.4460 S215
G1 X26.5743 Y12.8270 S215
G1 X26.8533 Y13.1059 S215
G1 X27.2343 Y13.2080 S215
G1 X27.6153 Y13.1059 S215
G1 X27.8942 Y12.8270 S215
G1 X27.9963 Y12.4460 S215
G1 X27.8942 Y12.0650 S215
; Polygon 22
G0 X27.8942 Y14.6050 S0
G1 X27.6153 Y14.3261 S215
G1 X27.2343 Y14.2240 S215
G1 X26.8533 Y14.3261 S215
G1 X26.5743 Y14.6050 S215
G1 X26.4723 Y14.9860 S215
G1 X26.5743 Y15.3670 S215
G1 X26.8533 Y15.6459 S215
G1 X27.2343 Y15.7480 S215
G1 X27.6153 Y15.6459 S215
G1 X27.8942 Y15.3670 S215
G1 X27.9963 Y14.9860 S215
G1 X27.8942 Y14.6050 S215
; Polygon 23
G0 X27.8942 Y17.1450 S0
G1 X27.6153 Y16.8661 S215
G1 X27.2343 Y16.7640 S215
G1 X26.8533 Y16.8661 S215
G1 X26.5743 Y17.1450 S215
G1 X26.4723 Y17.5260 S215
G1 X26.5743 Y17.9070 S215
G1 X26.8533 Y18.1859 S215
G1 X27.2343 Y18.2880 S215
G1 X27.6153 Y18.1859 S215
G1 X27.8942 Y17.9070 S215
G1 X27.9963 Y17.5260 S215
G1 X27.8942 Y17.1450 S215
; Polygon 24
G0 X27.8942 Y19.6850 S0
G1 X27.6153 Y19.4061 S215
G1 X27.2343 Y19.3040 S215
G1 X26.8533 Y19.4061 S215
G1 X26.5743 Y19.6850 S215
G1 X26.4723 Y20.0660 S215
