; Generated by GTRACE Core Engine
G21 ; Set units to millimeters
G90 ; Absolute positioning
F800 ; Set feed rate
; Polygon 1
G0 X0.0309 Y0.2753 S0
G1 X0.0453 Y0.2609 S215
G1 X0.0650 Y0.2556 S215
G1 X0.0847 Y0.2609 S215
G1 X0.0991 Y0.2753 S215
G1 X0.1043 Y0.2950 S215
G1 X0.0991 Y0.3147 S215
G1 X0.0847 Y0.3291 S215
G1 X0.0650 Y0.3343 S215
G1 X0.0453 Y0.3291 S215
G1 X0.0309 Y0.3147 S215
G1 X0.0256 Y0.2950 S215
G1 X0.0309 Y0.2753 S215
; Polygon 2
G0 X0.0309 Y0.8253 S0
G1 X0.0453 Y0.8109 S215
G1 X0.0650 Y0.8056 S215
G1 X0.0847 Y0.8109 S215
G1 X0.0991 Y0.8253 S215
G1 X0.1043 Y0.8450 S215
G1 X0.0991 Y0.8647 S215
G1 X0.0847 Y0.8791 S215
G1 X0.0650 Y0.8843 S215
G1 X0.0453 Y0.8791 S215
G1 X0.0309 Y0.8647 S215
G1 X0.0256 Y0.8450 S215
G1 X0.0309 Y0.8253 S215
; Polygon 3
G0 X0.2110 Y1.7783 S0
G1 X0.2233 Y1.7660 S215
G1 X0.2400 Y1.7615 S215
G1 X0.2567 Y1.7660 S215
G1 X0.2690 Y1.7783 S215
G1 X0.2735 Y1.7950 S215
G1 X0.2690 Y1.8117 S215
G1 X0.2567 Y1.8240 S215
G1 X0.2400 Y1.8285 S215
G1 X0.2233 Y1.8240 S215
G1 X0.2110 Y1.8117 S215
G1 X0.2065 Y1.7950 S215
G1 X0.2110 Y1.7783 S215
; Polygon 4
G0 X0.2110 Y2.7783 S0
G1 X0.2233 Y2.7660 S215
G1 X0.2400 Y2.7615 S215
G1 X0.2567 Y2.7660 S215
G1 X0.2690 Y2.7783 S215
G1 X0.2735 Y2.7950 S215
G1 X0.2690 Y2.8117 S215
G1 X0.2567 Y2.8240 S215
G1 X0.2400 Y2.8285 S215
G1 X0.2233 Y2.8240 S215
G1 X0.2110 Y2.8117 S215
G1 X0.2065 Y2.7950 S215
G1 X0.2110 Y2.7783 S215
; Polygon 5
G0 X0.3110 Y1.7783 S0
G1 X0.3233 Y1.7660 S215
G1 X0.3400 Y1.7615 S215
G1 X0.3567 Y1.7660 S215
G1 X0.3690 Y1.7783 S215
G1 X0.3735 Y1.7950 S215
G1 X0.3690 Y1.8117 S215
G1 X0.3567 Y1.8240 S215
G1 X0.3400 Y1.8285 S215
G1 X0.3233 Y1.8240 S215
G1 X0.3110 Y1.8117 S215
G1 X0.3065 Y1.7950 S215
G1 X0.3110 Y1.7783 S215
; Polygon 6
G0 X0.3110 Y2.7783 S0
G1 X0.3233 Y2.7660 S215
G1 X0.3400 Y2.7615 S215
G1 X0.3567 Y2.7660 S215
G1 X0.3690 Y2.7783 S215
G1 X0.3735 Y2.7950 S215
G1 X0.3690 Y2.8117 S215
G1 X0.3567 Y2.8240 S215
G1 X0.3400 Y2.8285 S215
G1 X0.3233 Y2.8240 S215
G1 X0.3110 Y2.8117 S215
G1 X0.3065 Y2.7950 S215
G1 X0.3110 Y2.7783 S215
; Polygon 7
G0 X0.4110 Y1.7783 S0
G1 X0.4233 Y1.7660 S215
G1 X0.4400 Y1.7615 S215
G1 X0.4567 Y1.7660 S215
G1 X0.4690 Y1.7783 S215
G1 X0.4735 Y1.7950 S215
G1 X0.4690 Y1.8117 S215
G1 X0.4567 Y1.8240 S215
G1 X0.4400 Y1.8285 S215
G1 X0.4233 Y1.8240 S215
G1 X0.4110 Y1.8117 S215
G1 X0.4065 Y1.7950 S215
G1 X0.4110 Y1.7783 S215
; Polygon 8
G0 X0.4110 Y2.7783 S0
G1 X0.4233 Y2.7660 S215
G1 X0.4400 Y2.7615 S215
G1 X0.4567 Y2.7660 S215
G1 X0.4690 Y2.7783 S215
G1 X0.4735 Y2.7950 S215
G1 X0.4690 Y2.8117 S215
G1 X0.4567 Y2.8240 S215
G1 X0.4400 Y2.8285 S215
G1 X0.4233 Y2.8240 S215
G1 X0.4110 Y2.8117 S215
G1 X0.4065 Y2.7950 S215
G1 X0.4110 Y2.7783 S215
; Polygon 9
G0 X0.5110 Y1.7783 S0
G1 X0.5233 Y1.7660 S215
G1 X0.5400 Y1.7615 S215
G1 X0.5567 Y1.7660 S215
G1 X0.5690 Y1.7783 S215
G1 X0.5735 Y1.7950 S215
G1 X0.5690 Y1.8117 S215
G1 X0.5567 Y1.8240 S215
G1 X0.5400 Y1.8285 S215
G1 X0.5233 Y1.8240 S215
G1 X0.5110 Y1.8117 S215
G1 X0.5065 Y1.7950 S215
G1 X0.5110 Y1.7783 S215
; Polygon 10
G0 X0.5110 Y2.7783 S0
G1 X0.5233 Y2.7660 S215
G1 X0.5400 Y2.7615 S215
G1 X0.5567 Y2.7660 S215
G1 X0.5690 Y2.7783 S215
G1 X0.5735 Y2.7950 S215
G1 X0.5690 Y2.8117 S215
G1 X0.5567 Y2.8240 S215
G1 X0.5400 Y2.8285 S215
G1 X0.5233 Y2.8240 S215
G1 X0.5110 Y2.8117 S215
G1 X0.5065 Y2.7950 S215
G1 X0.5110 Y2.7783 S215
; Polygon 11
G0 X0.6110 Y1.7783 S0
G1 X0.6233 Y1.7660 S215
G1 X0.6400 Y1.7615 S215
G1 X0.6567 Y1.7660 S215
G1 X0.6690 Y1.7783 S215
G1 X0.6735 Y1.7950 S215
G1 X0.6690 Y1.8117 S215
G1 X0.6567 Y1.8240 S215
G1 X0.6400 Y1.8285 S215
G1 X0.6233 Y1.8240 S215
G1 X0.6110 Y1.8117 S215
G1 X0.6065 Y1.7950 S215
G1 X0.6110 Y1.7783 S215
; Polygon 12
G0 X0.6110 Y2.7783 S0
G1 X0.6233 Y2.7660 S215
G1 X0.6400 Y2.7615 S215
G1 X0.6567 Y2.7660 S215
G1 X0.6690 Y2.7783 S215
G1 X0.6735 Y2.7950 S215
G1 X0.6690 Y2.8117 S215
G1 X0.6567 Y2.8240 S215
G1 X0.6400 Y2.8285 S215
G1 X0.6233 Y2.8240 S215
G1 X0.6110 Y2.8117 S215
G1 X0.6065 Y2.7950 S215
G1 X0.6110 Y2.7783 S215
; Polygon 13
G0 X0.7110 Y1.7783 S0
G1 X0.7233 Y1.7660 S215
G1 X0.7400 Y1.7615 S215
G1 X0.7567 Y1.7660 S215
G1 X0.7690 Y1.7783 S215
G1 X0.7735 Y1.7950 S215
G1 X0.7690 Y1.8117 S215
G1 X0.7567 Y1.8240 S215
G1 X0.7400 Y1.8285 S215
G1 X0.7233 Y1.8240 S215
G1 X0.7110 Y1.8117 S215
G1 X0.7065 Y1.7950 S215
G1 X0.7110 Y1.7783 S215
; Polygon 14
G0 X0.7110 Y2.7783 S0
G1 X0.7233 Y2.7660 S215
G1 X0.7400 Y2.7615 S215
G1 X0.7567 Y2.7660 S215
G1 X0.7690 Y2.7783 S215
G1 X0.7735 Y2.7950 S215
G1 X0.7690 Y2.8117 S215
G1 X0.7567 Y2.8240 S215
G1 X0.7400 Y2.8285 S215
G1 X0.7233 Y2.8240 S215
G1 X0.7110 Y2.8117 S215
G1 X0.7065 Y2.7950 S215
G1 X0.7110 Y2.7783 S215
; Polygon 15
G0 X0.8110 Y1.7783 S0
G1 X0.8233 Y1.7660 S215
G1 X0.8400 Y1.7615 S215
G1 X0.8567 Y1.7660 S215
G1 X0.8690 Y1.7783 S215
G1 X0.8735 Y1.7950 S215
G1 X0.8690 Y1.8117 S215
G1 X0.8567 Y1.8240 S215
G1 X0.8400 Y1.8285 S215
G1 X0.8233 Y1.8240 S215
G1 X0.8110 Y1.8117 S215
G1 X0.8065 Y1.7950 S215
G1 X0.8110 Y1.7783 S215
; Polygon 16
G0 X0.8110 Y2.7783 S0
G1 X0.8233 Y2.7660 S215
G1 X0.8400 Y2.7615 S215
G1 X0.8567 Y2.7660 S215
G1 X0.8690 Y2.7783 S215
G1 X0.8735 Y2.7950 S215
G1 X0.8690 Y2.8117 S215
G1 X0.8567 Y2.8240 S215
G1 X0.8400 Y2.8285 S215
G1 X0.8233 Y2.8240 S215
G1 X0.8110 Y2.8117 S215
G1 X0.8065 Y2.7950 S215
G1 X0.8110 Y2.7783 S215
; Polygon 17
G0 X0.9110 Y1.7783 S0
G1 X0.9233 Y1.7660 S215
G1 X0.9400 Y1.7615 S215
G1 X0.9567 Y1.7660 S215
G1 X0.9690 Y1.7783 S215
G1 X0.9735 Y1.7950 S215
G1 X0.9690 Y1.8117 S215
G1 X0.9567 Y1.8240 S215
G1 X0.9400 Y1.8285 S215
G1 X0.9233 Y1.8240 S215
G1 X0.9110 Y1.8117 S215
G1 X0.9065 Y1.7950 S215
G1 X0.9110 Y1.7783 S215
; Polygon 18
G0 X0.9110 Y2.7783 S0
G1 X0.9233 Y2.7660 S215
G1 X0.9400 Y2.7615 S215
G1 X0.9567 Y2.7660 S215
G1 X0.9690 Y2.7783 S215
G1 X0.9735 Y2.7950 S215
G1 X0.9690 Y2.8117 S215
G1 X0.9567 Y2.8240 S215
G1 X0.9400 Y2.8285 S215
G1 X0.9233 Y2.8240 S215
G1 X0.9110 Y2.8117 S215
G1 X0.9065 Y2.7950 S215
G1 X0.9110 Y2.7783 S215
; Polygon 19
G0 X0.9309 Y0.2753 S0
G1 X0.9453 Y0.2609 S215
G1 X0.9650 Y0.2556 S215
G1 X0.9847 Y0.2609 S215
G1 X0.9991 Y0.2753 S215
G1 X1.0044 Y0.2950 S215
G1 X0.9991 Y0.3147 S215
G1 X0.9847 Y0.3291 S215
G1 X0.9650 Y0.3343 S215
G1 X0.9453 Y0.3291 S215
G1 X0.9309 Y0.3147 S215
G1 X0.9256 Y0.2950 S215
G1 X0.9309 Y0.2753 S215
; Polygon 20
G0 X0.9309 Y0.3953 S0
G1 X0.9453 Y0.3809 S215
G1 X0.9650 Y0.3756 S215
G1 X0.9847 Y0.3809 S215
G1 X0.9991 Y0.3953 S215
G1 X1.0044 Y0.4150 S215
G1 X0.9991 Y0.4347 S215
G1 X0.9847 Y0.4491 S215
G1 X0.9650 Y0.4543 S215
G1 X0.9453 Y0.4491 S215
G1 X0.9309 Y0.4347 S215
G1 X0.9256 Y0.4150 S215
G1 X0.9309 Y0.3953 S215
; Polygon 21
G0 X0.9309 Y0.7053 S0
G1 X0.9453 Y0.6909 S215
G1 X0.9650 Y0.6856 S215
G1 X0.9847 Y0.6909 S215
G1 X0.9991 Y0.7053 S215
G1 X1.0044 Y0.7250 S215
G1 X0.9991 Y0.7447 S215
G1 X0.9847 Y0.7591 S215
G1 X0.9650 Y0.7643 S215
G1 X0.9453 Y0.7591 S215
G1 X0.9309 Y0.7447 S215
G1 X0.9256 Y0.7250 S215
G1 X0.9309 Y0.7053 S215
; Polygon 22
G0 X0.9309 Y0.8253 S0
G1 X0.9453 Y0.8109 S215
G1 X0.9650 Y0.8056 S215
G1 X0.9847 Y0.8109 S215
G1 X0.9991 Y0.8253 S215
G1 X1.0044 Y0.8450 S215
G1 X0.9991 Y0.8647 S215
G1 X0.9847 Y0.8791 S215
G1 X0.9650 Y0.8843 S215
G1 X0.9453 Y0.8791 S215
G1 X0.9309 Y0.8647 S215
G1 X0.9256 Y0.8450 S215
G1 X0.9309 Y0.8253 S215
; Polygon 23
G0 X1.0110 Y1.7783 S0
G1 X1.0233 Y1.7660 S215
G1 X1.0400 Y1.7615 S215
G1 X1.0567 Y1.7660 S215
G1 X1.0690 Y1.7783 S215
G1 X1.0735 Y1.7950 S215
G1 X1.0690 Y1.8117 S215
G1 X1.0567 Y1.8240 S215
G1 X1.0400 Y1.8285 S215
G1 X1.0233 Y1.8240 S215
G1 X1.0110 Y1.8117 S215
G1 X1.0065 Y1.7950 S215
G1 X1.0110 Y1.7783 S215
; Polygon 24
G0 X1.0110 Y2.7783 S0
G1 X1.0233 Y2.7660 S215
G1 X1.0400 Y2.7615 S215
G1 X1.0567 Y2.7660 S215
G1 X1.0690 Y2.7783 S215
G1 X1.0735 Y2.7950 S215
G1 X1.0690 Y2.8117 S215
G1 X1.0567 Y2.8240 S215
G1 X1.0400 Y2.8285 S215
G1 X1.0233 Y2.8240 S215
G1 X1.0110 Y2.8117 S215
G1 X1.0065 Y2.7950 S215
G1 X1.0110 Y2.7783 S215
; Polygon 25
G0 X1.1110 Y1.7783 S0
G1 X1.1233 Y1.7660 S215
G1 X1.1400 Y1.7615 S215
G1 X1.1567 Y1.7660 S215
G1 X1.1690 Y1.7783 S215
G1 X1.1735 Y1.7950 S215
G1 X1.1690 Y1.8117 S215
G1 X1.1567 Y1.8240 S215
G1 X1.1400 Y1.8285 S215
G1 X1.1233 Y1.8240 S215
G1 X1.1110 Y1.8117 S215
G1 X1.1065 Y1.7950 S215
G1 X1.1110 Y1.7783 S215
; Polygon 26
G0 X1.1110 Y2.7783 S0
G1 X1.1233 Y2.7660 S215
G1 X1.1400 Y2.7615 S215
G1 X1.1567 Y2.7660 S215
G1 X1.1690 Y2.7783 S215
G1 X1.1735 Y2.7950 S215
G1 X1.1690 Y2.8117 S215
G1 X1.1567 Y2.8240 S215
G1 X1.1400 Y2.8285 S215
G1 X1.1233 Y2.8240 S215
G1 X1.1110 Y2.8117 S215
G1 X1.1065 Y2.7950 S215
G1 X1.1110 Y2.7783 S215
; Polygon 27
G0 X1.1891 Y0.9684 S0
G1 X1.2049 Y0.9525 S215
G1 X1.2266 Y0.9467 S215
G1 X1.2482 Y0.9525 S215
G1 X1.2641 Y0.9683 S215
G1 X1.2699 Y0.9900 S215
G1 X1.2641 Y1.0116 S215
G1 X1.2482 Y1.0275 S215
G1 X1.2266 Y1.0333 S215
G1 X1.2049 Y1.0275 S215
G1 X1.1891 Y1.0116 S215
G1 X1.1833 Y0.9900 S215
G1 X1.1891 Y0.9684 S215
; Polygon 28
G0 X1.1982 Y0.5045 S0
G1 X1.2095 Y0.4932 S215
G1 X1.2250 Y0.4890 S215
G1 X1.2405 Y0.4932 S215
G1 X1.2518 Y0.5045 S215
G1 X1.2560 Y0.5200 S215
G1 X1.2518 Y0.5355 S215
G1 X1.2405 Y0.5468 S215
G1 X1.2250 Y0.5510 S215
G1 X1.2095 Y0.5468 S215
G1 X1.1982 Y0.5355 S215
G1 X1.1940 Y0.5200 S215
G1 X1.1982 Y0.5045 S215
; Polygon 29
G0 X1.1982 Y0.6045 S0
G1 X1.2095 Y0.5932 S215
G1 X1.2250 Y0.5890 S215
G1 X1.2405 Y0.5932 S215
G1 X1.2518 Y0.6045 S215
G1 X1.2560 Y0.6200 S215
G1 X1.2518 Y0.6355 S215
G1 X1.2405 Y0.6468 S215
G1 X1.2250 Y0.6510 S215
G1 X1.2095 Y0.6468 S215
G1 X1.1982 Y0.6355 S215
G1 X1.1940 Y0.6200 S215
G1 X1.1982 Y0.6045 S215
; Polygon 30
G0 X1.2110 Y1.7783 S0
G1 X1.2233 Y1.7660 S215
G1 X1.2400 Y1.7615 S215
G1 X1.2567 Y1.7660 S215
G1 X1.2690 Y1.7783 S215
G1 X1.2735 Y1.7950 S215
G1 X1.2690 Y1.8117 S215
G1 X1.2567 Y1.8240 S215
G1 X1.2400 Y1.8285 S215
G1 X1.2233 Y1.8240 S215
G1 X1.2110 Y1.8117 S215
G1 X1.2065 Y1.7950 S215
G1 X1.2110 Y1.7783 S215
; Polygon 31
G0 X1.2110 Y2.7783 S0
G1 X1.2233 Y2.7660 S215
G1 X1.2400 Y2.7615 S215
G1 X1.2567 Y2.7660 S215
G1 X1.2690 Y2.7783 S215
G1 X1.2735 Y2.7950 S215
G1 X1.2690 Y2.8117 S215
G1 X1.2567 Y2.8240 S215
G1 X1.2400 Y2.8285 S215
G1 X1.2233 Y2.8240 S215
G1 X1.2110 Y2.8117 S215
G1 X1.2065 Y2.7950 S215
G1 X1.2110 Y2.7783 S215
; Polygon 32
G0 X1.3110 Y1.7783 S0
G1 X1.3233 Y1.7660 S215
G1 X1.3400 Y1.7615 S215
G1 X1.3567 Y1.7660 S215
G1 X1.3690 Y1.7783 S215
G1 X1.3735 Y1.7950 S215
G1 X1.3690 Y1.8117 S215
G1 X1.3567 Y1.8240 S215
G1 X1.3400 Y1.8285 S215
G1 X1.3233 Y1.8240 S215
G1 X1.3110 Y1.8117 S215
G1 X1.3065 Y1.7950 S215
G1 X1.3110 Y1.7783 S215
; Polygon 33
G0 X1.3110 Y2.7783 S0
G1 X1.3233 Y2.7660 S215
G1 X1.3400 Y2.7615 S215
G1 X1.3567 Y2.7660 S215
G1 X1.3690 Y2.7783 S215
G1 X1.3735 Y2.7950 S215
G1 X1.3690 Y2.8117 S215
G1 X1.3567 Y2.8240 S215
G1 X1.3400 Y2.8285 S215
G1 X1.3233 Y2.8240 S215
G1 X1.3110 Y2.8117 S215
G1 X1.3065 Y2.7950 S215
G1 X1.3110 Y2.7783 S215
; Polygon 34
G0 X1.3859 Y0.9684 S0
G1 X1.4018 Y0.9525 S215
G1 X1.4234 Y0.9467 S215
G1 X1.4451 Y0.9525 S215
G1 X1.4609 Y0.9683 S215
G1 X1.4667 Y0.9900 S215
G1 X1.4609 Y1.0116 S215
G1 X1.4451 Y1.0275 S215
G1 X1.4234 Y1.0333 S215
G1 X1.4018 Y1.0275 S215
G1 X1.3859 Y1.0116 S215
G1 X1.3801 Y0.9900 S215
G1 X1.3859 Y0.9684 S215
; Polygon 35
G0 X1.4110 Y1.7783 S0
G1 X1.4233 Y1.7660 S215
G1 X1.4400 Y1.7615 S215
G1 X1.4567 Y1.7660 S215
G1 X1.4690 Y1.7783 S215
G1 X1.4735 Y1.7950 S215
G1 X1.4690 Y1.8117 S215
G1 X1.4567 Y1.8240 S215
G1 X1.4400 Y1.8285 S215
G1 X1.4233 Y1.8240 S215
G1 X1.4110 Y1.8117 S215
G1 X1.4065 Y1.7950 S215
G1 X1.4110 Y1.7783 S215
; Polygon 36
G0 X1.4110 Y2.7783 S0
G1 X1.4233 Y2.7660 S215
G1 X1.4400 Y2.7615 S215
G1 X1.4567 Y2.7660 S215
G1 X1.4690 Y2.7783 S215
G1 X1.4735 Y2.7950 S215
G1 X1.4690 Y2.8117 S215
G1 X1.4567 Y2.8240 S215
G1 X1.4400 Y2.8285 S215
G1 X1.4233 Y2.8240 S215
G1 X1.4110 Y2.8117 S215
G1 X1.4065 Y2.7950 S215
G1 X1.4110 Y2.7783 S215
; Polygon 37
G0 X1.5110 Y1.7783 S0
G1 X1.5233 Y1.7660 S215
G1 X1.5400 Y1.7615 S215
G1 X1.5567 Y1.7660 S215
G1 X1.5690 Y1.7783 S215
G1 X1.5735 Y1.7950 S215
G1 X1.5690 Y1.8117 S215
G1 X1.5567 Y1.8240 S215
G1 X1.5400 Y1.8285 S215
G1 X1.5233 Y1.8240 S215
G1 X1.5110 Y1.8117 S215
G1 X1.5065 Y1.7950 S215
G1 X1.5110 Y1.7783 S215
; Polygon 38
G0 X1.5110 Y2.7783 S0
G1 X1.5233 Y2.7660 S215
G1 X1.5400 Y2.7615 S215
G1 X1.5567 Y2.7660 S215
G1 X1.5690 Y2.7783 S215
G1 X1.5735 Y2.7950 S215
G1 X1.5690 Y2.8117 S215
G1 X1.5567 Y2.8240 S215
G1 X1.5400 Y2.8285 S215
G1 X1.5233 Y2.8240 S215
G1 X1.5110 Y2.8117 S215
G1 X1.5065 Y2.7950 S215
G1 X1.5110 Y2.7783 S215
; Polygon 39
G0 X1.6110 Y1.7783 S0
G1 X1.6233 Y1.7660 S215
G1 X1.6400 Y1.7615 S215
G1 X1.6567 Y1.7660 S215
G1 X1.6690 Y1.7783 S215
G1 X1.6735 Y1.7950 S215
G1 X1.6690 Y1.8117 S215
G1 X1.6567 Y1.8240 S215
G1 X1.6400 Y1.8285 S215
G1 X1.6233 Y1.8240 S215
G1 X1.6110 Y1.8117 S215
G1 X1.6065 Y1.7950 S215
G1 X1.6110 Y1.7783 S215
; Polygon 40
G0 X1.6110 Y2.7783 S0
G1 X1.6233 Y2.7660 S215
G1 X1.6400 Y2.7615 S215
G1 X1.6567 Y2.7660 S215
G1 X1.6690 Y2.7783 S215
G1 X1.6735 Y2.7950 S215
G1 X1.6690 Y2.8117 S215
G1 X1.6567 Y2.8240 S215
G1 X1.6400 Y2.8285 S215
G1 X1.6233 Y2.8240 S215
G1 X1.6110 Y2.8117 S215
G1 X1.6065 Y2.7950 S215
G1 X1.6110 Y2.7783 S215
; Polygon 41
G0 X2.2243 Y1.7223 S0
G1 X2.2373 Y1.7093 S215
G1 X2.2550 Y1.7046 S215
G1 X2.2727 Y1.7093 S215
G1 X2.2857 Y1.7223 S215
G1 X2.2904 Y1.7400 S215
G1 X2.2857 Y1.7577 S215
G1 X2.2727 Y1.7707 S215
G1 X2.2550 Y1.7754 S215
G1 X2.2373 Y1.7707 S215
G1 X2.2243 Y1.7577 S215
G1 X2.2195 Y1.7400 S215
G1 X2.2243 Y1.7223 S215
; Polygon 42
G0 X2.2243 Y1.8223 S0
G1 X2.2373 Y1.8093 S215
G1 X2.2550 Y1.8046 S215
G1 X2.2727 Y1.8093 S215
G1 X2.2857 Y1.8223 S215
G1 X2.2904 Y1.8400 S215
G1 X2.2857 Y1.8577 S215
G1 X2.2727 Y1.8707 S215
G1 X2.2550 Y1.8755 S215
G1 X2.2373 Y1.8707 S215
G1 X2.2243 Y1.8577 S215
G1 X2.2195 Y1.8400 S215
G1 X2.2243 Y1.8223 S215
; Polygon 43
G0 X2.2243 Y2.6289 S0
G1 X2.2373 Y2.6159 S215
G1 X2.2550 Y2.6111 S215
G1 X2.2727 Y2.6159 S215
G1 X2.2857 Y2.6289 S215
G1 X2.2904 Y2.6466 S215
G1 X2.2857 Y2.6643 S215
G1 X2.2727 Y2.6773 S215
G1 X2.2550 Y2.6820 S215
G1 X2.2373 Y2.6773 S215
G1 X2.2243 Y2.6643 S215
G1 X2.2195 Y2.6466 S215
G1 X2.2243 Y2.6289 S215
; Polygon 44
G0 X2.2243 Y2.7273 S0
G1 X2.2373 Y2.7143 S215
G1 X2.2550 Y2.7096 S215
G1 X2.2727 Y2.7143 S215
G1 X2.2857 Y2.7273 S215
G1 X2.2904 Y2.7450 S215
G1 X2.2857 Y2.7627 S215
G1 X2.2727 Y2.7757 S215
G1 X2.2550 Y2.7805 S215
G1 X2.2373 Y2.7757 S215
G1 X2.2243 Y2.7627 S215
G1 X2.2195 Y2.7450 S215
G1 X2.2243 Y2.7273 S215
; Polygon 45
G0 X2.2243 Y2.8257 S0
G1 X2.2373 Y2.8127 S215
G1 X2.2550 Y2.8080 S215
G1 X2.2727 Y2.8127 S215
G1 X2.2857 Y2.8257 S215
G1 X2.2904 Y2.8434 S215
G1 X2.2857 Y2.8611 S215
G1 X2.2727 Y2.8741 S215
G1 X2.2550 Y2.8789 S215
G1 X2.2373 Y2.8741 S215
G1 X2.2243 Y2.8611 S215
G1 X2.2195 Y2.8434 S215
G1 X2.2243 Y2.8257 S215
; Polygon 46
G0 X2.9349 Y0.2833 S0
G1 X2.9493 Y0.2689 S215
G1 X2.9690 Y0.2636 S215
G1 X2.9887 Y0.2689 S215
G1 X3.0031 Y0.2833 S215
G1 X3.0083 Y0.3030 S215
G1 X3.0031 Y0.3227 S215
G1 X2.9887 Y0.3371 S215
G1 X2.9690 Y0.3423 S215
G1 X2.9493 Y0.3371 S215
G1 X2.9349 Y0.3227 S215
G1 X2.9296 Y0.3030 S215
G1 X2.9349 Y0.2833 S215
; Polygon 47
G0 X2.9349 Y0.8333 S0
G1 X2.9493 Y0.8189 S215
G1 X2.9690 Y0.8136 S215
G1 X2.9887 Y0.8189 S215
G1 X3.0031 Y0.8333 S215
G1 X3.0083 Y0.8530 S215
G1 X3.0031 Y0.8727 S215
G1 X2.9887 Y0.8871 S215
G1 X2.9690 Y0.8923 S215
G1 X2.9493 Y0.8871 S215
G1 X2.9349 Y0.8727 S215
G1 X2.9296 Y0.8530 S215
G1 X2.9349 Y0.8333 S215
; Polygon 48
G0 X3.1150 Y1.7863 S0
G1 X3.1273 Y1.7740 S215
G1 X3.1440 Y1.7695 S215
G1 X3.1607 Y1.7740 S215
G1 X3.1730 Y1.7863 S215
G1 X3.1775 Y1.8030 S215
G1 X3.1730 Y1.8197 S215
G1 X3.1607 Y1.8320 S215
G1 X3.1440 Y1.8365 S215
G1 X3.1273 Y1.8320 S215
G1 X3.1150 Y1.8197 S215
G1 X3.1105 Y1.8030 S215
G1 X3.1150 Y1.7863 S215
; Polygon 49
G0 X3.1150 Y2.7863 S0
G1 X3.1273 Y2.7740 S215
G1 X3.1440 Y2.7695 S215
G1 X3.1607 Y2.7740 S215
G1 X3.1730 Y2.7863 S215
G1 X3.1775 Y2.8030 S215
G1 X3.1730 Y2.8197 S215
G1 X3.1607 Y2.8320 S215
G1 X3.1440 Y2.8365 S215
G1 X3.1273 Y2.8320 S215
G1 X3.1150 Y2.8197 S215
G1 X3.1105 Y2.8030 S215
G1 X3.1150 Y2.7863 S215
; Polygon 50
G0 X3.2150 Y1.7863 S0
G1 X3.2273 Y1.7740 S215
