; Generated by GTRACE Core Engine
G21 ; Set units to millimeters
G90 ; Absolute positioning
F800 ; Set feed rate
; Isolation Path 1
G0 X1.4563 Y71.3801 S0
G1 X1.3398 Y71.3974 S215
G1 X1.2541 Y71.4189 S215
G1 X1.1568 Y71.4529 S215
G1 X1.0633 Y71.4963 S215
G1 X0.9746 Y71.5487 S215
G1 X0.8914 Y71.6095 S215
G1 X0.8145 Y71.6782 S215
G1 X0.7448 Y71.7541 S215
G1 X0.6828 Y71.8364 S215
G1 X0.6292 Y71.9245 S215
G1 X0.5845 Y72.0173 S215
G1 X0.5491 Y72.1141 S215
G1 X0.5233 Y72.2139 S215
G1 X0.5075 Y72.3158 S215
G1 X0.5017 Y72.4187 S215
G1 X0.5060 Y72.5217 S215
G1 X0.5204 Y72.6237 S215
G1 X0.5448 Y72.7239 S215
G1 X0.5788 Y72.8212 S215
G1 X0.6222 Y72.9146 S215
G1 X0.6746 Y73.0034 S215
G1 X0.7354 Y73.0866 S215
G1 X0.8041 Y73.1635 S215
G1 X0.8800 Y73.2332 S215
G1 X0.9623 Y73.2952 S215
G1 X1.0504 Y73.3488 S215
G1 X1.1432 Y73.3935 S215
G1 X1.2400 Y73.4289 S215
G1 X1.3398 Y73.4547 S215
G1 X1.4417 Y73.4705 S215
G1 X1.5446 Y73.4763 S215
G1 X1.6476 Y73.4720 S215
G1 X1.7496 Y73.4575 S215
G1 X1.8498 Y73.4332 S215
G1 X1.9471 Y73.3992 S215
G1 X2.0405 Y73.3558 S215
G1 X2.1293 Y73.3034 S215
G1 X2.2125 Y73.2426 S215
G1 X2.2894 Y73.1739 S215
G1 X2.3591 Y73.0980 S215
G1 X2.4211 Y73.0157 S215
G1 X2.4747 Y72.9276 S215
G1 X2.5194 Y72.8348 S215
G1 X2.5548 Y72.7380 S215
G1 X2.5806 Y72.6382 S215
G1 X2.5964 Y72.5363 S215
G1 X2.6022 Y72.4334 S215
G1 X2.5979 Y72.3304 S215
G1 X2.5834 Y72.2284 S215
G1 X2.5591 Y72.1282 S215
G1 X2.5251 Y72.0309 S215
G1 X2.4816 Y71.9374 S215
G1 X2.4293 Y71.8487 S215
G1 X2.3685 Y71.7655 S215
G1 X2.2998 Y71.6886 S215
G1 X2.2239 Y71.6189 S215
G1 X2.1415 Y71.5569 S215
G1 X2.0535 Y71.5033 S215
G1 X1.9607 Y71.4586 S215
G1 X1.8639 Y71.4232 S215
G1 X1.7641 Y71.3974 S215
G1 X1.6622 Y71.3816 S215
G1 X1.5446 Y71.3758 S215
G1 X1.4563 Y71.3801 S215
; Isolation Path 2
G0 X75.2179 Y71.1770 S0
G1 X75.1014 Y71.1942 S215
G1 X75.0016 Y71.2200 S215
G1 X74.9184 Y71.2497 S215
G1 X74.8249 Y71.2932 S215
G1 X74.7361 Y71.3455 S215
G1 X74.6529 Y71.4063 S215
G1 X74.5761 Y71.4750 S215
G1 X74.5063 Y71.5509 S215
G1 X74.4444 Y71.6333 S215
G1 X74.3907 Y71.7213 S215
G1 X74.3460 Y71.8142 S215
G1 X74.3106 Y71.9110 S215
G1 X74.2849 Y72.0108 S215
G1 X74.2690 Y72.1126 S215
G1 X74.2633 Y72.2155 S215
G1 X74.2676 Y72.3185 S215
G1 X74.2820 Y72.4205 S215
G1 X74.3064 Y72.5207 S215
G1 X74.3404 Y72.6180 S215
G1 X74.3838 Y72.7115 S215
G1 X74.4362 Y72.8002 S215
G1 X74.4970 Y72.8834 S215
G1 X74.5657 Y72.9603 S215
G1 X74.6416 Y73.0301 S215
G1 X74.7239 Y73.0920 S215
G1 X74.8119 Y73.1456 S215
G1 X74.9048 Y73.1904 S215
G1 X75.0016 Y73.2258 S215
G1 X75.1014 Y73.2515 S215
G1 X75.2032 Y73.2673 S215
G1 X75.3062 Y73.2731 S215
G1 X75.4091 Y73.2688 S215
G1 X75.5112 Y73.2544 S215
G1 X75.6113 Y73.2300 S215
G1 X75.7086 Y73.1960 S215
G1 X75.8021 Y73.1526 S215
G1 X75.8909 Y73.1002 S215
G1 X75.9741 Y73.0394 S215
G1 X76.0510 Y72.9707 S215
G1 X76.1207 Y72.8948 S215
G1 X76.1827 Y72.8125 S215
G1 X76.2363 Y72.7244 S215
G1 X76.2810 Y72.6316 S215
G1 X76.3164 Y72.5348 S215
G1 X76.3421 Y72.4350 S215
G1 X76.3580 Y72.3331 S215
G1 X76.3638 Y72.2302 S215
G1 X76.3594 Y72.1273 S215
G1 X76.3450 Y72.0252 S215
G1 X76.3207 Y71.9250 S215
G1 X76.2866 Y71.8278 S215
G1 X76.2432 Y71.7343 S215
G1 X76.1909 Y71.6455 S215
G1 X76.1300 Y71.5623 S215
G1 X76.0614 Y71.4854 S215
G1 X75.9855 Y71.4157 S215
G1 X75.9031 Y71.3537 S215
G1 X75.8151 Y71.3001 S215
G1 X75.7222 Y71.2554 S215
G1 X75.6254 Y71.2200 S215
G1 X75.5256 Y71.1942 S215
G1 X75.4238 Y71.1784 S215
G1 X75.3062 Y71.1726 S215
G1 X75.2179 Y71.1770 S215
; Isolation Path 3
G0 X52.6423 Y69.8505 S0
G1 X52.5307 Y69.8670 S215
G1 X52.4498 Y69.8873 S215
G1 X52.3571 Y69.9197 S215
G1 X52.2681 Y69.9610 S215
G1 X52.1836 Y70.0108 S215
G1 X52.1044 Y70.0687 S215
G1 X52.0312 Y70.1340 S215
G1 X51.9647 Y70.2062 S215
G1 X51.9057 Y70.2846 S215
G1 X51.8547 Y70.3684 S215
G1 X51.8120 Y70.4568 S215
G1 X51.7783 Y70.5489 S215
G1 X51.7538 Y70.6439 S215
G1 X51.7387 Y70.7409 S215
G1 X51.7331 Y70.8388 S215
G1 X51.7329 Y71.5462 S215
G1 X51.7372 Y71.6369 S215
G1 X51.7509 Y71.7340 S215
G1 X51.7740 Y71.8294 S215
G1 X51.8064 Y71.9220 S215
G1 X51.8477 Y72.0110 S215
G1 X51.8975 Y72.0955 S215
G1 X51.9554 Y72.1748 S215
G1 X52.0208 Y72.2480 S215
G1 X52.0930 Y72.3144 S215
G1 X52.1714 Y72.3734 S215
G1 X52.2551 Y72.4245 S215
G1 X52.3435 Y72.4671 S215
G1 X52.4357 Y72.5008 S215
G1 X52.5307 Y72.5254 S215
G1 X52.6276 Y72.5405 S215
G1 X52.7256 Y72.5460 S215
G1 X52.8236 Y72.5419 S215
G1 X52.9208 Y72.5282 S215
G1 X53.0161 Y72.5051 S215
G1 X53.1088 Y72.4727 S215
G1 X53.1978 Y72.4314 S215
G1 X53.2823 Y72.3816 S215
G1 X53.3615 Y72.3237 S215
G1 X53.4347 Y72.2584 S215
G1 X53.5011 Y72.1862 S215
G1 X53.5602 Y72.1078 S215
G1 X53.6112 Y72.0240 S215
G1 X53.6538 Y71.9356 S215
G1 X53.6876 Y71.8435 S215
G1 X53.7121 Y71.7485 S215
G1 X53.7272 Y71.6515 S215
G1 X53.7328 Y71.5536 S215
G1 X53.7329 Y70.8462 S215
G1 X53.7287 Y70.7555 S215
G1 X53.7150 Y70.6584 S215
G1 X53.6918 Y70.5630 S215
G1 X53.6595 Y70.4704 S215
G1 X53.6182 Y70.3814 S215
G1 X53.5683 Y70.2969 S215
G1 X53.5105 Y70.2176 S215
G1 X53.4451 Y70.1444 S215
G1 X53.3729 Y70.0780 S215
G1 X53.2945 Y70.0190 S215
G1 X53.2107 Y69.9679 S215
G1 X53.1224 Y69.9253 S215
G1 X53.0302 Y69.8916 S215
G1 X52.9352 Y69.8670 S215
G1 X52.8383 Y69.8519 S215
G1 X52.7256 Y69.8464 S215
G1 X52.6423 Y69.8505 S215
; Isolation Path 4
G0 X50.1023 Y69.8505 S0
G1 X49.9907 Y69.8670 S215
G1 X49.9098 Y69.8873 S215
G1 X49.8171 Y69.9197 S215
G1 X49.7281 Y69.9610 S215
G1 X49.6436 Y70.0108 S215
G1 X49.5644 Y70.0687 S215
G1 X49.4912 Y70.1340 S215
G1 X49.4247 Y70.2062 S215
G1 X49.3657 Y70.2846 S215
G1 X49.3147 Y70.3684 S215
G1 X49.2720 Y70.4568 S215
G1 X49.2383 Y70.5489 S215
G1 X49.2138 Y70.6439 S215
G1 X49.1987 Y70.7409 S215
G1 X49.1931 Y70.8388 S215
G1 X49.1929 Y71.5462 S215
G1 X49.1972 Y71.6369 S215
G1 X49.2109 Y71.7340 S215
G1 X49.2340 Y71.8294 S215
G1 X49.2664 Y71.9220 S215
G1 X49.3077 Y72.0110 S215
G1 X49.3575 Y72.0955 S215
G1 X49.4154 Y72.1748 S215
G1 X49.4808 Y72.2480 S215
G1 X49.5530 Y72.3144 S215
G1 X49.6314 Y72.3734 S215
G1 X49.7151 Y72.4245 S215
G1 X49.8035 Y72.4671 S215
G1 X49.8957 Y72.5008 S215
G1 X49.9907 Y72.5254 S215
G1 X50.0876 Y72.5405 S215
G1 X50.1856 Y72.5460 S215
G1 X50.2836 Y72.5419 S215
G1 X50.3808 Y72.5282 S215
G1 X50.4761 Y72.5051 S215
G1 X50.5688 Y72.4727 S215
G1 X50.6578 Y72.4314 S215
G1 X50.7423 Y72.3816 S215
G1 X50.8215 Y72.3237 S215
G1 X50.8947 Y72.2584 S215
G1 X50.9611 Y72.1862 S215
G1 X51.0202 Y72.1078 S215
G1 X51.0712 Y72.0240 S215
G1 X51.1138 Y71.9356 S215
G1 X51.1476 Y71.8435 S215
G1 X51.1721 Y71.7485 S215
G1 X51.1872 Y71.6515 S215
G1 X51.1928 Y71.5536 S215
G1 X51.1929 Y70.8462 S215
G1 X51.1887 Y70.7555 S215
G1 X51.1750 Y70.6584 S215
G1 X51.1518 Y70.5630 S215
G1 X51.1195 Y70.4704 S215
G1 X51.0782 Y70.3814 S215
G1 X51.0283 Y70.2969 S215
G1 X50.9705 Y70.2176 S215
G1 X50.9051 Y70.1444 S215
G1 X50.8329 Y70.0780 S215
G1 X50.7545 Y70.0190 S215
G1 X50.6707 Y69.9679 S215
G1 X50.5824 Y69.9253 S215
G1 X50.4902 Y69.8916 S215
G1 X50.3952 Y69.8670 S215
G1 X50.2983 Y69.8519 S215
G1 X50.1856 Y69.8464 S215
G1 X50.1023 Y69.8505 S215
; Isolation Path 5
G0 X47.5623 Y69.8505 S0
G1 X47.4507 Y69.8670 S215
G1 X47.3698 Y69.8873 S215
G1 X47.2771 Y69.9197 S215
G1 X47.1881 Y69.9610 S215
G1 X47.1036 Y70.0108 S215
G1 X47.0244 Y70.0687 S215
G1 X46.9512 Y70.1340 S215
G1 X46.8847 Y70.2062 S215
G1 X46.8257 Y70.2846 S215
G1 X46.7747 Y70.3684 S215
G1 X46.7320 Y70.4568 S215
G1 X46.6983 Y70.5489 S215
G1 X46.6738 Y70.6439 S215
G1 X46.6587 Y70.7409 S215
G1 X46.6531 Y70.8388 S215
G1 X46.6529 Y71.5462 S215
G1 X46.6572 Y71.6369 S215
G1 X46.6709 Y71.7340 S215
G1 X46.6940 Y71.8294 S215
G1 X46.7264 Y71.9220 S215
G1 X46.7677 Y72.0110 S215
G1 X46.8175 Y72.0955 S215
G1 X46.8754 Y72.1748 S215
G1 X46.9408 Y72.2480 S215
G1 X47.0130 Y72.3144 S215
G1 X47.0914 Y72.3734 S215
G1 X47.1751 Y72.4245 S215
G1 X47.2635 Y72.4671 S215
G1 X47.3557 Y72.5008 S215
G1 X47.4507 Y72.5254 S215
G1 X47.5476 Y72.5405 S215
G1 X47.6456 Y72.5460 S215
G1 X47.7436 Y72.5419 S215
G1 X47.8408 Y72.5282 S215
G1 X47.9361 Y72.5051 S215
G1 X48.0288 Y72.4727 S215
G1 X48.1178 Y72.4314 S215
G1 X48.2023 Y72.3816 S215
G1 X48.2815 Y72.3237 S215
G1 X48.3547 Y72.2584 S215
G1 X48.4211 Y72.1862 S215
G1 X48.4802 Y72.1078 S215
G1 X48.5312 Y72.0240 S215
G1 X48.5738 Y71.9356 S215
G1 X48.6076 Y71.8435 S215
G1 X48.6321 Y71.7485 S215
G1 X48.6472 Y71.6515 S215
G1 X48.6528 Y71.5536 S215
G1 X48.6529 Y70.8462 S215
G1 X48.6487 Y70.7555 S215
G1 X48.6350 Y70.6584 S215
G1 X48.6118 Y70.5630 S215
G1 X48.5795 Y70.4704 S215
G1 X48.5382 Y70.3814 S215
G1 X48.4883 Y70.2969 S215
G1 X48.4305 Y70.2176 S215
G1 X48.3651 Y70.1444 S215
G1 X48.2929 Y70.0780 S215
G1 X48.2145 Y70.0190 S215
G1 X48.1307 Y69.9679 S215
G1 X48.0424 Y69.9253 S215
G1 X47.9502 Y69.8916 S215
G1 X47.8552 Y69.8670 S215
G1 X47.7583 Y69.8519 S215
G1 X47.6456 Y69.8464 S215
G1 X47.5623 Y69.8505 S215
; Isolation Path 6
G0 X45.0223 Y69.8505 S0
G1 X44.9107 Y69.8670 S215
G1 X44.8298 Y69.8873 S215
G1 X44.7371 Y69.9197 S215
G1 X44.6481 Y69.9610 S215
G1 X44.5636 Y70.0108 S215
G1 X44.4844 Y70.0687 S215
G1 X44.4112 Y70.1340 S215
G1 X44.3447 Y70.2062 S215
G1 X44.2857 Y70.2846 S215
G1 X44.2347 Y70.3684 S215
G1 X44.1920 Y70.4568 S215
G1 X44.1583 Y70.5489 S215
G1 X44.1338 Y70.6439 S215
G1 X44.1187 Y70.7409 S215
G1 X44.1131 Y70.8388 S215
G1 X44.1129 Y71.5462 S215
G1 X44.1172 Y71.6369 S215
G1 X44.1309 Y71.7340 S215
G1 X44.1540 Y71.8294 S215
G1 X44.1864 Y71.9220 S215
G1 X44.2277 Y72.0110 S215
G1 X44.2775 Y72.0955 S215
G1 X44.3354 Y72.1748 S215
G1 X44.4008 Y72.2480 S215
G1 X44.4730 Y72.3144 S215
G1 X44.5514 Y72.3734 S215
G1 X44.6351 Y72.4245 S215
G1 X44.7235 Y72.4671 S215
G1 X44.8157 Y72.5008 S215
G1 X44.9107 Y72.5254 S215
G1 X45.0076 Y72.5405 S215
G1 X45.1056 Y72.5460 S215
G1 X45.2036 Y72.5419 S215
G1 X45.3008 Y72.5282 S215
G1 X45.3961 Y72.5051 S215
G1 X45.4888 Y72.4727 S215
G1 X45.5778 Y72.4314 S215
G1 X45.6623 Y72.3816 S215
G1 X45.7415 Y72.3237 S215
G1 X45.8147 Y72.2584 S215
G1 X45.8811 Y72.1862 S215
G1 X45.9402 Y72.1078 S215
G1 X45.9912 Y72.0240 S215
G1 X46.0338 Y71.9356 S215
G1 X46.0676 Y71.8435 S215
G1 X46.0921 Y71.7485 S215
G1 X46.1072 Y71.6515 S215
G1 X46.1128 Y71.5536 S215
G1 X46.1129 Y70.8462 S215
G1 X46.1087 Y70.7555 S215
G1 X46.0950 Y70.6584 S215
G1 X46.0718 Y70.5630 S215
G1 X46.0395 Y70.4704 S215
G1 X45.9982 Y70.3814 S215
G1 X45.9483 Y70.2969 S215
G1 X45.8905 Y70.2176 S215
G1 X45.8251 Y70.1444 S215
G1 X45.7529 Y70.0780 S215
G1 X45.6745 Y70.0190 S215
G1 X45.5907 Y69.9679 S215
G1 X45.5024 Y69.9253 S215
G1 X45.4102 Y69.8916 S215
G1 X45.3152 Y69.8670 S215
G1 X45.2183 Y69.8519 S215
G1 X45.1056 Y69.8464 S215
G1 X45.0223 Y69.8505 S215
; Isolation Path 7
G0 X42.4823 Y69.8505 S0
G1 X42.3707 Y69.8670 S215
G1 X42.2898 Y69.8873 S215
G1 X42.1971 Y69.9197 S215
G1 X42.1081 Y69.9610 S215
G1 X42.0236 Y70.0108 S215
G1 X41.9444 Y70.0687 S215
G1 X41.8712 Y70.1340 S215
G1 X41.8047 Y70.2062 S215
G1 X41.7457 Y70.2846 S215
G1 X41.6947 Y70.3684 S215
G1 X41.6520 Y70.4568 S215
G1 X41.6183 Y70.5489 S215
G1 X41.5938 Y70.6439 S215
G1 X41.5787 Y70.7409 S215
G1 X41.5731 Y70.8388 S215
G1 X41.5729 Y71.5462 S215
G1 X41.5772 Y71.6369 S215
G1 X41.5909 Y71.7340 S215
G1 X41.6140 Y71.8294 S215
G1 X41.6464 Y71.9220 S215
G1 X41.6877 Y72.0110 S215
G1 X41.7375 Y72.0955 S215
G1 X41.7954 Y72.1748 S215
G1 X41.8608 Y72.2480 S215
G1 X41.9330 Y72.3144 S215
G1 X42.0114 Y72.3734 S215
G1 X42.0951 Y72.4245 S215
G1 X42.1835 Y72.4671 S215
G1 X42.2757 Y72.5008 S215
G1 X42.3707 Y72.5254 S215
G1 X42.4676 Y72.5405 S215
G1 X42.5656 Y72.5460 S215
G1 X42.6636 Y72.5419 S215
G1 X42.7608 Y72.5282 S215
G1 X42.8561 Y72.5051 S215
G1 X42.9488 Y72.4727 S215
G1 X43.0378 Y72.4314 S215
G1 X43.1223 Y72.3816 S215
G1 X43.2015 Y72.3237 S215
G1 X43.2747 Y72.2584 S215
G1 X43.3411 Y72.1862 S215
G1 X43.4002 Y72.1078 S215
G1 X43.4512 Y72.0240 S215
G1 X43.4938 Y71.9356 S215
G1 X43.5276 Y71.8435 S215
G1 X43.5521 Y71.7485 S215
G1 X43.5672 Y71.6515 S215
G1 X43.5728 Y71.5536 S215
G1 X43.5729 Y70.8462 S215
G1 X43.5687 Y70.7555 S215
G1 X43.5550 Y70.6584 S215
G1 X43.5318 Y70.5630 S215
G1 X43.4995 Y70.4704 S215
G1 X43.4582 Y70.3814 S215
G1 X43.4083 Y70.2969 S215
G1 X43.3505 Y70.2176 S215
G1 X43.2851 Y70.1444 S215
G1 X43.2129 Y70.0780 S215
G1 X43.1345 Y70.0190 S215
G1 X43.0507 Y69.9679 S215
G1 X42.9624 Y69.9253 S215
G1 X42.8702 Y69.8916 S215
G1 X42.7752 Y69.8670 S215
G1 X42.6783 Y69.8519 S215
G1 X42.5656 Y69.8464 S215
G1 X42.4823 Y69.8505 S215
; Isolation Path 8
G0 X39.9423 Y69.8505 S0
G1 X39.8307 Y69.8670 S215
G1 X39.7498 Y69.8873 S215
G1 X39.6571 Y69.9197 S215
G1 X39.5681 Y69.9610 S215
G1 X39.4836 Y70.0108 S215
G1 X39.4044 Y70.0687 S215
G1 X39.3312 Y70.1340 S215
G1 X39.2647 Y70.2062 S215
G1 X39.2057 Y70.2846 S215
G1 X39.1547 Y70.3684 S215
G1 X39.1120 Y70.4568 S215
G1 X39.0783 Y70.5489 S215
G1 X39.0538 Y70.6439 S215
G1 X39.0387 Y70.7409 S215
G1 X39.0331 Y70.8388 S215
G1 X39.0329 Y71.5462 S215
G1 X39.0372 Y71.6369 S215
G1 X39.0509 Y71.7340 S215
G1 X39.0740 Y71.8294 S215
G1 X39.1064 Y71.9220 S215
G1 X39.1477 Y72.0110 S215
G1 X39.1975 Y72.0955 S215
G1 X39.2554 Y72.1748 S215
G1 X39.3208 Y72.2480 S215
G1 X39.3930 Y72.3144 S215
G1 X39.4714 Y72.3734 S215
G1 X39.5551 Y72.4245 S215
G1 X39.6435 Y72.4671 S215
G1 X39.7357 Y72.5008 S215
G1 X39.8307 Y72.5254 S215
G1 X39.9276 Y72.5405 S215
G1 X40.0256 Y72.5460 S215
G1 X40.1236 Y72.5419 S215
G1 X40.2208 Y72.5282 S215
G1 X40.3161 Y72.5051 S215
G1 X40.4088 Y72.4727 S215
G1 X40.4978 Y72.4314 S215
G1 X40.5823 Y72.3816 S215
G1 X40.6615 Y72.3237 S215
G1 X40.7347 Y72.2584 S215
G1 X40.8011 Y72.1862 S215
G1 X40.8602 Y72.1078 S215
G1 X40.9112 Y72.0240 S215
G1 X40.9538 Y71.9356 S215
G1 X40.9876 Y71.8435 S215
G1 X41.0121 Y71.7485 S215
G1 X41.0272 Y71.6515 S215
G1 X41.0328 Y71.5536 S215
G1 X41.0329 Y70.8462 S215
G1 X41.0287 Y70.7555 S215
G1 X41.0150 Y70.6584 S215
G1 X40.9918 Y70.5630 S215
G1 X40.9595 Y70.4704 S215
G1 X40.9182 Y70.3814 S215
G1 X40.8683 Y70.2969 S215
G1 X40.8105 Y70.2176 S215
G1 X40.7451 Y70.1444 S215
G1 X40.6729 Y70.0780 S215
G1 X40.5945 Y70.0190 S215
G1 X40.5107 Y69.9679 S215
G1 X40.4224 Y69.9253 S215
G1 X40.3302 Y69.8916 S215
G1 X40.2352 Y69.8670 S215
G1 X40.1383 Y69.8519 S215
G1 X40.0256 Y69.8464 S215
G1 X39.9423 Y69.8505 S215
; Isolation Path 9
G0 X37.4023 Y69.8505 S0
G1 X37.2907 Y69.8670 S215
G1 X37.2098 Y69.8873 S215
G1 X37.1171 Y69.9197 S215
G1 X37.0281 Y69.9610 S215
G1 X36.9436 Y70.0108 S215
G1 X36.8644 Y70.0687 S215
G1 X36.7912 Y70.1340 S215
G1 X36.7247 Y70.2062 S215
G1 X36.6657 Y70.2846 S215
G1 X36.6147 Y70.3684 S215
G1 X36.5720 Y70.4568 S215
G1 X36.5383 Y70.5489 S215
G1 X36.5138 Y70.6439 S215
G1 X36.4987 Y70.7409 S215
G1 X36.4931 Y70.8388 S215
G1 X36.4929 Y71.5462 S215
G1 X36.4972 Y71.6369 S215
G1 X36.5109 Y71.7340 S215
G1 X36.5340 Y71.8294 S215
G1 X36.5664 Y71.9220 S215
G1 X36.6077 Y72.0110 S215
G1 X36.6575 Y72.0955 S215
G1 X36.7154 Y72.1748 S215
G1 X36.7808 Y72.2480 S215
G1 X36.8530 Y72.3144 S215
G1 X36.9314 Y72.3734 S215
G1 X37.0151 Y72.4245 S215
G1 X37.1035 Y72.4671 S215
G1 X37.1957 Y72.5008 S215
G1 X37.2907 Y72.5254 S215
G1 X37.3876 Y72.5405 S215
G1 X37.4856 Y72.5460 S215
G1 X37.5836 Y72.5419 S215
G1 X37.6808 Y72.5282 S215
G1 X37.7761 Y72.5051 S215
G1 X37.8688 Y72.4727 S215
G1 X37.9578 Y72.4314 S215
G1 X38.0423 Y72.3816 S215
G1 X38.1215 Y72.3237 S215
G1 X38.1947 Y72.2584 S215
G1 X38.2611 Y72.1862 S215
G1 X38.3202 Y72.1078 S215
G1 X38.3712 Y72.0240 S215
G1 X38.4138 Y71.9356 S215
G1 X38.4476 Y71.8435 S215
G1 X38.4721 Y71.7485 S215
G1 X38.4872 Y71.6515 S215
G1 X38.4928 Y71.5536 S215
G1 X38.4929 Y70.8462 S215
G1 X38.4887 Y70.7555 S215
G1 X38.4750 Y70.6584 S215
G1 X38.4518 Y70.5630 S215
G1 X38.4195 Y70.4704 S215
G1 X38.3782 Y70.3814 S215
G1 X38.3283 Y70.2969 S215
G1 X38.2705 Y70.2176 S215
G1 X38.2051 Y70.1444 S215
G1 X38.1329 Y70.0780 S215
G1 X38.0545 Y70.0190 S215
G1 X37.9707 Y69.9679 S215
G1 X37.8824 Y69.9253 S215
G1 X37.7902 Y69.8916 S215
G1 X37.6952 Y69.8670 S215
G1 X37.5983 Y69.8519 S215
G1 X37.4856 Y69.8464 S215
G1 X37.4023 Y69.8505 S215
; Isolation Path 10
G0 X34.8623 Y69.8505 S0
G1 X34.7507 Y69.8670 S215
G1 X34.6698 Y69.8873 S215
G1 X34.5771 Y69.9197 S215
G1 X34.4881 Y69.9610 S215
G1 X34.4036 Y70.0108 S215
G1 X34.3244 Y70.0687 S215
