; Generated by GTRACE Core Engine
G21 ; Set units to millimeters
G90 ; Absolute positioning
F800 ; Set feed rate
M4
; Isolation Path 1
G0 X28.1789 Y36.9378 S0
G1 X28.2819 Y36.9531 S215
G1 X28.3686 Y36.9756 S215
G1 X28.4390 Y37.0008 S215
G1 X28.5202 Y37.0384 S215
G1 X28.5973 Y37.0838 S215
G1 X28.6696 Y37.1365 S215
G1 X28.7364 Y37.1960 S215
G1 X28.7970 Y37.2619 S215
G1 X28.8509 Y37.3333 S215
G1 X28.8975 Y37.4097 S215
G1 X28.9364 Y37.4903 S215
G1 X28.9673 Y37.5743 S215
G1 X28.9897 Y37.6609 S215
G1 X29.0035 Y37.7493 S215
G1 X29.0087 Y37.8386 S215
G1 X29.0050 Y37.9280 S215
G1 X28.9926 Y38.0167 S215
G1 X28.9715 Y38.1036 S215
G1 X28.9421 Y38.1881 S215
G1 X28.9045 Y38.2693 S215
G1 X28.8591 Y38.3465 S215
G1 X28.8064 Y38.4188 S215
G1 X28.7468 Y38.4856 S215
G1 X28.6810 Y38.5462 S215
G1 X28.6095 Y38.6001 S215
G1 X28.5332 Y38.6467 S215
G1 X28.4526 Y38.6856 S215
G1 X28.3686 Y38.7164 S215
G1 X28.2819 Y38.7389 S215
G1 X28.1935 Y38.7527 S215
G1 X28.1042 Y38.7578 S215
G1 X28.0148 Y38.7542 S215
G1 X27.9262 Y38.7417 S215
G1 X27.8392 Y38.7207 S215
G1 X27.7547 Y38.6912 S215
G1 X27.6735 Y38.6536 S215
G1 X27.5964 Y38.6082 S215
G1 X27.5241 Y38.5555 S215
G1 X27.4573 Y38.4960 S215
G1 X27.3967 Y38.4301 S215
G1 X27.3428 Y38.3587 S215
G1 X27.2962 Y38.2823 S215
G1 X27.2572 Y38.2017 S215
G1 X27.2264 Y38.1177 S215
G1 X27.2040 Y38.0311 S215
G1 X27.1901 Y37.9427 S215
G1 X27.1850 Y37.8534 S215
G1 X27.1887 Y37.7640 S215
G1 X27.2011 Y37.6753 S215
G1 X27.2221 Y37.5884 S215
G1 X27.2516 Y37.5039 S215
G1 X27.2892 Y37.4227 S215
G1 X27.3346 Y37.3455 S215
G1 X27.3873 Y37.2732 S215
G1 X27.4469 Y37.2064 S215
G1 X27.5127 Y37.1458 S215
G1 X27.5841 Y37.0919 S215
G1 X27.6605 Y37.0453 S215
G1 X27.7411 Y37.0064 S215
G1 X27.8251 Y36.9756 S215
G1 X27.9117 Y36.9531 S215
G1 X28.0001 Y36.9393 S215
G1 X28.1042 Y36.9342 S215
G1 X28.1789 Y36.9378 S215
; Isolation Path 2
G0 X53.2649 Y36.9378 S0
G1 X53.3680 Y36.9531 S215
G1 X53.4546 Y36.9756 S215
G1 X53.5250 Y37.0008 S215
G1 X53.6062 Y37.0384 S215
G1 X53.6834 Y37.0838 S215
G1 X53.7557 Y37.1365 S215
G1 X53.8225 Y37.1960 S215
G1 X53.8831 Y37.2619 S215
G1 X53.9370 Y37.3333 S215
G1 X53.9836 Y37.4097 S215
G1 X54.0225 Y37.4903 S215
G1 X54.0533 Y37.5743 S215
G1 X54.0758 Y37.6609 S215
G1 X54.0896 Y37.7493 S215
G1 X54.0947 Y37.8386 S215
G1 X54.0911 Y37.9280 S215
G1 X54.0786 Y38.0167 S215
G1 X54.0576 Y38.1036 S215
G1 X54.0281 Y38.1881 S215
G1 X53.9905 Y38.2693 S215
G1 X53.9451 Y38.3465 S215
G1 X53.8924 Y38.4188 S215
G1 X53.8329 Y38.4856 S215
G1 X53.7670 Y38.5462 S215
G1 X53.6956 Y38.6001 S215
G1 X53.6192 Y38.6467 S215
G1 X53.5386 Y38.6856 S215
G1 X53.4546 Y38.7164 S215
G1 X53.3680 Y38.7389 S215
G1 X53.2796 Y38.7527 S215
G1 X53.1903 Y38.7578 S215
G1 X53.1009 Y38.7542 S215
G1 X53.0122 Y38.7417 S215
G1 X52.9253 Y38.7207 S215
G1 X52.8408 Y38.6912 S215
G1 X52.7596 Y38.6536 S215
G1 X52.6824 Y38.6082 S215
G1 X52.6101 Y38.5555 S215
G1 X52.5433 Y38.4960 S215
G1 X52.4827 Y38.4301 S215
G1 X52.4288 Y38.3587 S215
G1 X52.3822 Y38.2823 S215
G1 X52.3433 Y38.2017 S215
G1 X52.3125 Y38.1177 S215
G1 X52.2900 Y38.0311 S215
G1 X52.2762 Y37.9427 S215
G1 X52.2711 Y37.8534 S215
G1 X52.2747 Y37.7640 S215
G1 X52.2872 Y37.6753 S215
G1 X52.3082 Y37.5884 S215
G1 X52.3377 Y37.5039 S215
G1 X52.3753 Y37.4227 S215
G1 X52.4207 Y37.3455 S215
G1 X52.4734 Y37.2732 S215
G1 X52.5329 Y37.2064 S215
G1 X52.5988 Y37.1458 S215
G1 X52.6702 Y37.0919 S215
G1 X52.7466 Y37.0453 S215
G1 X52.8272 Y37.0064 S215
G1 X52.9112 Y36.9756 S215
G1 X52.9978 Y36.9531 S215
G1 X53.0862 Y36.9393 S215
G1 X53.1903 Y36.9342 S215
G1 X53.2649 Y36.9378 S215
; Isolation Path 3
G0 X5.4846 Y33.2709 S0
G1 X5.5866 Y33.2853 S215
G1 X5.6867 Y33.3097 S215
G1 X5.7839 Y33.3437 S215
G1 X5.8774 Y33.3871 S215
G1 X5.9661 Y33.4394 S215
G1 X6.0493 Y33.5002 S215
G1 X6.1261 Y33.5689 S215
G1 X6.1958 Y33.6447 S215
G1 X6.2578 Y33.7270 S215
G1 X6.2972 Y33.7914 S215
G1 X10.9832 Y33.7914 S215
G1 X11.0226 Y33.7270 S215
G1 X11.0752 Y33.6561 S215
G1 X11.1439 Y33.5793 S215
G1 X11.2197 Y33.5096 S215
G1 X11.3020 Y33.4476 S215
G1 X11.3900 Y33.3940 S215
G1 X11.4828 Y33.3493 S215
G1 X11.5796 Y33.3139 S215
G1 X11.6794 Y33.2882 S215
G1 X11.7812 Y33.2724 S215
G1 X11.8840 Y33.2666 S215
G1 X11.9870 Y33.2709 S215
G1 X12.0890 Y33.2853 S215
G1 X12.1891 Y33.3097 S215
G1 X12.2863 Y33.3437 S215
G1 X12.3798 Y33.3871 S215
G1 X12.4685 Y33.4394 S215
G1 X12.5517 Y33.5002 S215
G1 X12.6285 Y33.5689 S215
G1 X12.6982 Y33.6447 S215
G1 X12.7602 Y33.7270 S215
G1 X12.8138 Y33.8150 S215
G1 X12.8585 Y33.9079 S215
G1 X12.8939 Y34.0046 S215
G1 X12.9196 Y34.1044 S215
G1 X12.9354 Y34.2062 S215
G1 X12.9412 Y34.3090 S215
G1 X12.9369 Y34.4120 S215
G1 X12.9225 Y34.5140 S215
G1 X12.9048 Y34.5875 S215
G1 X14.9383 Y36.6210 S215
G1 X19.1855 Y36.6210 S215
G1 X19.2381 Y36.5345 S215
G1 X19.3024 Y36.4490 S215
G1 X19.3748 Y36.3703 S215
G1 X19.4431 Y36.3084 S215
G1 X19.5286 Y36.2441 S215
G1 X19.6199 Y36.1885 S215
G1 X19.7163 Y36.1421 S215
G1 X19.8167 Y36.1054 S215
G1 X19.9202 Y36.0787 S215
G1 X20.0259 Y36.0623 S215
G1 X20.1327 Y36.0564 S215
G1 X20.2395 Y36.0609 S215
G1 X20.3454 Y36.0759 S215
G1 X20.4493 Y36.1011 S215
G1 X20.5502 Y36.1365 S215
G1 X20.6472 Y36.1815 S215
G1 X20.7393 Y36.2359 S215
G1 X20.8256 Y36.2990 S215
G1 X20.9053 Y36.3703 S215
G1 X20.9777 Y36.4490 S215
G1 X21.0419 Y36.5345 S215
G1 X21.0975 Y36.6258 S215
G1 X21.1439 Y36.7222 S215
G1 X21.1806 Y36.8226 S215
G1 X21.2073 Y36.9262 S215
G1 X21.2237 Y37.0318 S215
G1 X21.2297 Y37.1386 S215
G1 X21.2251 Y37.2454 S215
G1 X21.2102 Y37.3513 S215
G1 X21.1849 Y37.4552 S215
G1 X21.1495 Y37.5562 S215
G1 X21.1045 Y37.6531 S215
G1 X21.0501 Y37.7452 S215
G1 X20.9870 Y37.8315 S215
G1 X20.9157 Y37.9112 S215
G1 X20.8370 Y37.9836 S215
G1 X20.7515 Y38.0479 S215
G1 X20.6602 Y38.1035 S215
G1 X20.5638 Y38.1498 S215
G1 X20.4634 Y38.1865 S215
G1 X20.3598 Y38.2132 S215
G1 X20.2542 Y38.2296 S215
G1 X20.1474 Y38.2356 S215
G1 X20.0406 Y38.2311 S215
G1 X19.9347 Y38.2161 S215
G1 X19.8308 Y38.1908 S215
G1 X19.7299 Y38.1555 S215
G1 X19.6329 Y38.1104 S215
G1 X19.5408 Y38.0560 S215
G1 X19.4545 Y37.9929 S215
G1 X19.3748 Y37.9217 S215
G1 X19.3024 Y37.8429 S215
G1 X19.2381 Y37.7574 S215
G1 X19.1855 Y37.6709 S215
G1 X14.7208 Y37.6709 S215
G1 X14.6767 Y37.6690 S215
G1 X14.6257 Y37.6621 S215
G1 X14.5755 Y37.6503 S215
G1 X14.5268 Y37.6336 S215
G1 X14.4799 Y37.6123 S215
G1 X14.4354 Y37.5864 S215
G1 X14.3936 Y37.5563 S215
G1 X14.3549 Y37.5223 S215
G1 X12.1623 Y35.3299 S215
G1 X12.0890 Y35.3475 S215
G1 X12.0016 Y35.3605 S215
G1 X11.8988 Y35.3662 S215
G1 X11.7958 Y35.3619 S215
G1 X11.6938 Y35.3475 S215
G1 X11.5937 Y35.3232 S215
G1 X11.4964 Y35.2891 S215
G1 X11.4030 Y35.2457 S215
G1 X11.3143 Y35.1934 S215
G1 X11.2311 Y35.1326 S215
G1 X11.1543 Y35.0639 S215
G1 X11.0845 Y34.9881 S215
G1 X11.0226 Y34.9058 S215
G1 X10.9832 Y34.8414 S215
G1 X6.2972 Y34.8414 S215
G1 X6.2578 Y34.9058 S215
G1 X6.2052 Y34.9767 S215
G1 X6.1365 Y35.0535 S215
G1 X6.0607 Y35.1233 S215
G1 X5.9784 Y35.1852 S215
G1 X5.8904 Y35.2388 S215
G1 X5.7975 Y35.2835 S215
G1 X5.7008 Y35.3189 S215
G1 X5.6010 Y35.3446 S215
G1 X5.4992 Y35.3605 S215
G1 X5.3964 Y35.3662 S215
G1 X5.2934 Y35.3619 S215
G1 X5.1914 Y35.3475 S215
G1 X5.0913 Y35.3232 S215
G1 X4.9940 Y35.2891 S215
G1 X4.9006 Y35.2457 S215
G1 X4.8119 Y35.1934 S215
G1 X4.7287 Y35.1326 S215
G1 X4.6519 Y35.0639 S215
G1 X4.5821 Y34.9881 S215
G1 X4.5202 Y34.9058 S215
G1 X4.4666 Y34.8178 S215
G1 X4.4219 Y34.7250 S215
G1 X4.3865 Y34.6282 S215
G1 X4.3608 Y34.5284 S215
G1 X4.3449 Y34.4266 S215
G1 X4.3392 Y34.3238 S215
G1 X4.3435 Y34.2208 S215
G1 X4.3579 Y34.1188 S215
G1 X4.3822 Y34.0187 S215
G1 X4.4163 Y33.9215 S215
G1 X4.4597 Y33.8280 S215
G1 X4.5120 Y33.7393 S215
G1 X4.5728 Y33.6561 S215
G1 X4.6415 Y33.5793 S215
G1 X4.7173 Y33.5096 S215
G1 X4.7996 Y33.4476 S215
G1 X4.8876 Y33.3940 S215
G1 X4.9804 Y33.3493 S215
G1 X5.0772 Y33.3139 S215
G1 X5.1770 Y33.2882 S215
G1 X5.2788 Y33.2724 S215
G1 X5.3964 Y33.2666 S215
G1 X5.4846 Y33.2709 S215
; Isolation Path 4
G0 X69.4844 Y28.7700 S0
G1 X69.5864 Y28.7844 S215
G1 X69.6866 Y28.8088 S215
G1 X69.7838 Y28.8428 S215
G1 X69.8773 Y28.8862 S215
G1 X69.9660 Y28.9385 S215
G1 X70.0492 Y28.9993 S215
G1 X70.1260 Y29.0680 S215
G1 X70.1957 Y29.1438 S215
G1 X70.2577 Y29.2262 S215
G1 X70.2971 Y29.2905 S215
G1 X74.9830 Y29.2905 S215
G1 X75.0225 Y29.2262 S215
G1 X75.0751 Y29.1552 S215
G1 X75.1437 Y29.0784 S215
G1 X75.2196 Y29.0087 S215
G1 X75.3019 Y28.9467 S215
G1 X75.3899 Y28.8931 S215
G1 X75.4827 Y28.8484 S215
G1 X75.5795 Y28.8131 S215
G1 X75.6792 Y28.7873 S215
G1 X75.7810 Y28.7715 S215
G1 X75.8839 Y28.7657 S215
G1 X75.9868 Y28.7700 S215
G1 X76.0888 Y28.7844 S215
G1 X76.1890 Y28.8088 S215
G1 X76.2862 Y28.8428 S215
G1 X76.3797 Y28.8862 S215
G1 X76.4684 Y28.9385 S215
G1 X76.5516 Y28.9993 S215
G1 X76.6284 Y29.0680 S215
G1 X76.6981 Y29.1438 S215
G1 X76.7601 Y29.2262 S215
G1 X76.8136 Y29.3142 S215
G1 X76.8584 Y29.4070 S215
G1 X76.8937 Y29.5037 S215
G1 X76.9195 Y29.6035 S215
G1 X76.9353 Y29.7053 S215
G1 X76.9411 Y29.8082 S215
G1 X76.9367 Y29.9111 S215
G1 X76.9223 Y30.0131 S215
G1 X76.8980 Y30.1132 S215
G1 X76.8640 Y30.2105 S215
G1 X76.8206 Y30.3039 S215
G1 X76.7682 Y30.3927 S215
G1 X76.7074 Y30.4758 S215
G1 X76.6388 Y30.5527 S215
G1 X76.5629 Y30.6224 S215
G1 X76.4806 Y30.6843 S215
G1 X76.3926 Y30.7379 S215
G1 X76.2998 Y30.7826 S215
G1 X76.2030 Y30.8180 S215
G1 X76.1033 Y30.8437 S215
G1 X76.0015 Y30.8596 S215
G1 X75.8986 Y30.8653 S215
G1 X75.7957 Y30.8610 S215
G1 X75.6937 Y30.8466 S215
G1 X75.5936 Y30.8223 S215
G1 X75.4963 Y30.7883 S215
G1 X75.4029 Y30.7449 S215
G1 X75.3141 Y30.6925 S215
G1 X75.2310 Y30.6317 S215
G1 X75.1541 Y30.5631 S215
G1 X75.0844 Y30.4872 S215
G1 X75.0225 Y30.4049 S215
G1 X74.9830 Y30.3405 S215
G1 X70.2971 Y30.3405 S215
G1 X70.2577 Y30.4049 S215
G1 X70.2050 Y30.4758 S215
G1 X70.1364 Y30.5527 S215
G1 X70.0605 Y30.6224 S215
G1 X69.9782 Y30.6843 S215
G1 X69.8902 Y30.7379 S215
G1 X69.7974 Y30.7826 S215
G1 X69.7006 Y30.8180 S215
G1 X69.6009 Y30.8437 S215
G1 X69.4991 Y30.8596 S215
G1 X69.3962 Y30.8653 S215
G1 X69.2933 Y30.8610 S215
G1 X69.1833 Y30.8450 S215
G1 X63.1862 Y36.8422 S215
G1 X63.2101 Y36.9406 S215
G1 X63.2250 Y37.0465 S215
G1 X63.2296 Y37.1533 S215
G1 X63.2250 Y37.2454 S215
G1 X63.2101 Y37.3513 S215
G1 X63.1848 Y37.4552 S215
G1 X63.1494 Y37.5562 S215
G1 X63.1044 Y37.6531 S215
G1 X63.0500 Y37.7452 S215
G1 X62.9869 Y37.8315 S215
G1 X62.9156 Y37.9112 S215
G1 X62.8369 Y37.9836 S215
G1 X62.7514 Y38.0479 S215
G1 X62.6601 Y38.1035 S215
G1 X62.5637 Y38.1498 S215
G1 X62.4633 Y38.1865 S215
G1 X62.3597 Y38.2132 S215
G1 X62.2541 Y38.2296 S215
G1 X62.1473 Y38.2356 S215
G1 X62.0405 Y38.2311 S215
G1 X61.9346 Y38.2161 S215
G1 X61.8307 Y38.1908 S215
G1 X61.7298 Y38.1555 S215
G1 X61.6328 Y38.1104 S215
G1 X61.5407 Y38.0560 S215
G1 X61.4544 Y37.9929 S215
G1 X61.3747 Y37.9217 S215
G1 X61.3023 Y37.8429 S215
G1 X61.2381 Y37.7574 S215
G1 X61.1825 Y37.6661 S215
G1 X61.1361 Y37.5697 S215
G1 X61.0994 Y37.4693 S215
G1 X61.0727 Y37.3658 S215
G1 X61.0563 Y37.2601 S215
G1 X61.0503 Y37.1533 S215
G1 X61.0549 Y37.0465 S215
G1 X61.0698 Y36.9406 S215
G1 X61.0951 Y36.8367 S215
G1 X61.1305 Y36.7358 S215
G1 X61.1755 Y36.6388 S215
G1 X61.2299 Y36.5467 S215
G1 X61.2930 Y36.4604 S215
G1 X61.3643 Y36.3807 S215
G1 X61.4430 Y36.3084 S215
G1 X61.5285 Y36.2441 S215
G1 X61.6198 Y36.1885 S215
G1 X61.7162 Y36.1421 S215
G1 X61.8166 Y36.1054 S215
G1 X61.9202 Y36.0787 S215
G1 X62.0258 Y36.0623 S215
G1 X62.1326 Y36.0564 S215
G1 X62.2394 Y36.0609 S215
G1 X62.3453 Y36.0759 S215
G1 X62.4437 Y36.0998 S215
G1 X68.3942 Y30.1492 S215
G1 X68.3821 Y30.1132 S215
G1 X68.3578 Y30.0131 S215
G1 X68.3448 Y29.9258 S215
G1 X68.3390 Y29.8229 S215
G1 X68.3434 Y29.7200 S215
G1 X68.3578 Y29.6179 S215
G1 X68.3821 Y29.5178 S215
G1 X68.4161 Y29.4206 S215
G1 X68.4595 Y29.3271 S215
G1 X68.5119 Y29.2384 S215
G1 X68.5727 Y29.1552 S215
G1 X68.6413 Y29.0784 S215
G1 X68.7172 Y29.0087 S215
G1 X68.7995 Y28.9467 S215
G1 X68.8875 Y28.8931 S215
G1 X68.9803 Y28.8484 S215
G1 X69.0771 Y28.8131 S215
G1 X69.1768 Y28.7873 S215
G1 X69.2786 Y28.7715 S215
G1 X69.3962 Y28.7657 S215
G1 X69.4844 Y28.7700 S215
; Isolation Path 5
G0 X28.1789 Y34.3978 S0
G1 X28.2819 Y34.4131 S215
G1 X28.3686 Y34.4356 S215
G1 X28.4390 Y34.4608 S215
G1 X28.5202 Y34.4984 S215
G1 X28.5973 Y34.5438 S215
G1 X28.6696 Y34.5965 S215
G1 X28.7364 Y34.6560 S215
G1 X28.7970 Y34.7219 S215
G1 X28.8509 Y34.7933 S215
G1 X28.8975 Y34.8697 S215
G1 X28.9364 Y34.9503 S215
G1 X28.9673 Y35.0343 S215
G1 X28.9897 Y35.1209 S215
G1 X29.0035 Y35.2093 S215
G1 X29.0087 Y35.2986 S215
G1 X29.0050 Y35.3880 S215
G1 X28.9926 Y35.4767 S215
G1 X28.9715 Y35.5636 S215
G1 X28.9421 Y35.6481 S215
G1 X28.9045 Y35.7293 S215
G1 X28.8591 Y35.8065 S215
G1 X28.8064 Y35.8788 S215
G1 X28.7468 Y35.9455 S215
G1 X28.6810 Y36.0062 S215
G1 X28.6095 Y36.0601 S215
G1 X28.5332 Y36.1067 S215
G1 X28.4526 Y36.1456 S215
G1 X28.3686 Y36.1764 S215
G1 X28.2819 Y36.1989 S215
G1 X28.1935 Y36.2127 S215
G1 X28.1042 Y36.2178 S215
G1 X28.0148 Y36.2141 S215
G1 X27.9262 Y36.2017 S215
G1 X27.8392 Y36.1807 S215
G1 X27.7547 Y36.1512 S215
G1 X27.6735 Y36.1136 S215
G1 X27.5964 Y36.0682 S215
G1 X27.5241 Y36.0155 S215
G1 X27.4573 Y35.9560 S215
G1 X27.3967 Y35.8901 S215
G1 X27.3428 Y35.8187 S215
G1 X27.2962 Y35.7423 S215
G1 X27.2572 Y35.6617 S215
G1 X27.2264 Y35.5777 S215
G1 X27.2040 Y35.4911 S215
G1 X27.1901 Y35.4027 S215
G1 X27.1850 Y35.3134 S215
G1 X27.1887 Y35.2240 S215
G1 X27.2011 Y35.1353 S215
G1 X27.2221 Y35.0484 S215
G1 X27.2516 Y34.9639 S215
G1 X27.2892 Y34.8827 S215
G1 X27.3346 Y34.8055 S215
G1 X27.3873 Y34.7332 S215
G1 X27.4469 Y34.6664 S215
G1 X27.5127 Y34.6058 S215
G1 X27.5841 Y34.5519 S215
G1 X27.6605 Y34.5053 S215
G1 X27.7411 Y34.4664 S215
G1 X27.8251 Y34.4356 S215
G1 X27.9117 Y34.4131 S215
G1 X28.0001 Y34.3993 S215
G1 X28.1042 Y34.3942 S215
G1 X28.1789 Y34.3978 S215
; Isolation Path 6
G0 X53.2649 Y34.3978 S0
G1 X53.3680 Y34.4131 S215
G1 X53.4546 Y34.4356 S215
G1 X53.5250 Y34.4608 S215
G1 X53.6062 Y34.4984 S215
G1 X53.6834 Y34.5438 S215
G1 X53.7557 Y34.5965 S215
G1 X53.8225 Y34.6560 S215
G1 X53.8831 Y34.7219 S215
G1 X53.9370 Y34.7933 S215
G1 X53.9836 Y34.8697 S215
G1 X54.0225 Y34.9503 S215
G1 X54.0533 Y35.0343 S215
G1 X54.0758 Y35.1209 S215
G1 X54.0896 Y35.2093 S215
G1 X54.0947 Y35.2986 S215
G1 X54.0911 Y35.3880 S215
G1 X54.0786 Y35.4767 S215
G1 X54.0576 Y35.5636 S215
G1 X54.0281 Y35.6481 S215
G1 X53.9905 Y35.7293 S215
G1 X53.9451 Y35.8065 S215
G1 X53.8924 Y35.8788 S215
G1 X53.8329 Y35.9455 S215
G1 X53.7670 Y36.0062 S215
G1 X53.6956 Y36.0601 S215
G1 X53.6192 Y36.1067 S215
G1 X53.5386 Y36.1456 S215
G1 X53.4546 Y36.1764 S215
G1 X53.3680 Y36.1989 S215
G1 X53.2796 Y36.2127 S215
G1 X53.1903 Y36.2178 S215
G1 X53.1009 Y36.2141 S215
G1 X53.0122 Y36.2017 S215
G1 X52.9253 Y36.1807 S215
G1 X52.8408 Y36.1512 S215
G1 X52.7596 Y36.1136 S215
G1 X52.6824 Y36.0682 S215
G1 X52.6101 Y36.0155 S215
G1 X52.5433 Y35.9560 S215
G1 X52.4827 Y35.8901 S215
G1 X52.4288 Y35.8187 S215
G1 X52.3822 Y35.7423 S215
G1 X52.3433 Y35.6617 S215
G1 X52.3125 Y35.5777 S215
G1 X52.2900 Y35.4911 S215
G1 X52.2762 Y35.4027 S215
G1 X52.2711 Y35.3134 S215
G1 X52.2747 Y35.2240 S215
G1 X52.2872 Y35.1353 S215
G1 X52.3082 Y35.0484 S215
G1 X52.3377 Y34.9639 S215
G1 X52.3753 Y34.8827 S215
G1 X52.4207 Y34.8055 S215
G1 X52.4734 Y34.7332 S215
G1 X52.5329 Y34.6664 S215
G1 X52.5988 Y34.6058 S215
G1 X52.6702 Y34.5519 S215
G1 X52.7466 Y34.5053 S215
G1 X52.8272 Y34.4664 S215
G1 X52.9112 Y34.4356 S215
G1 X52.9978 Y34.4131 S215
G1 X53.0862 Y34.3993 S215
G1 X53.1903 Y34.3942 S215
G1 X53.2649 Y34.3978 S215
; Isolation Path 7
G0 X28.1789 Y3.9179 S0
G1 X28.2819 Y3.9331 S215
G1 X28.3686 Y3.9556 S215
G1 X28.4390 Y3.9808 S215
G1 X28.5202 Y4.0184 S215
G1 X28.5973 Y4.0638 S215
G1 X28.6696 Y4.1165 S215
G1 X28.7364 Y4.1760 S215
G1 X28.7970 Y4.2419 S215
G1 X28.8418 Y4.3010 S215
G1 X52.4380 Y4.3010 S215
G1 X52.4827 Y4.2419 S215
G1 X52.5433 Y4.1760 S215
G1 X52.5988 Y4.1258 S215
G1 X52.6702 Y4.0719 S215
G1 X52.7466 Y4.0253 S215
G1 X52.8272 Y3.9864 S215
G1 X52.9112 Y3.9556 S215
G1 X52.9978 Y3.9331 S215
G1 X53.0862 Y3.9193 S215
G1 X53.1755 Y3.9142 S215
G1 X53.2649 Y3.9179 S215
G1 X53.3536 Y3.9303 S215
G1 X53.4405 Y3.9513 S215
G1 X53.5250 Y3.9808 S215
