; Generated by GTRACE Core Engine
G21 ; Set units to millimeters
G90 ; Absolute positioning
F800 ; Set feed rate
; Isolation Path 1
G0 X52.2383 Y36.9378 S0
G1 X52.1352 Y36.9531 S125
G1 X52.0486 Y36.9756 S125
G1 X51.9782 Y37.0008 S125
G1 X51.8970 Y37.0384 S125
G1 X51.8199 Y37.0838 S125
G1 X51.7476 Y37.1365 S125
G1 X51.6808 Y37.1960 S125
G1 X51.6201 Y37.2619 S125
G1 X51.5663 Y37.3333 S125
G1 X51.5196 Y37.4097 S125
G1 X51.4807 Y37.4903 S125
G1 X51.4499 Y37.5743 S125
G1 X51.4275 Y37.6609 S125
G1 X51.4136 Y37.7493 S125
G1 X51.4085 Y37.8386 S125
G1 X51.4122 Y37.9280 S125
G1 X51.4246 Y38.0167 S125
G1 X51.4456 Y38.1036 S125
G1 X51.4751 Y38.1881 S125
G1 X51.5127 Y38.2693 S125
G1 X51.5581 Y38.3465 S125
G1 X51.6108 Y38.4188 S125
G1 X51.6704 Y38.4856 S125
G1 X51.7362 Y38.5462 S125
G1 X51.8076 Y38.6001 S125
G1 X51.8840 Y38.6467 S125
G1 X51.9646 Y38.6856 S125
G1 X52.0486 Y38.7164 S125
G1 X52.1352 Y38.7389 S125
G1 X52.2236 Y38.7527 S125
G1 X52.3130 Y38.7578 S125
G1 X52.4024 Y38.7542 S125
G1 X52.4910 Y38.7417 S125
G1 X52.5780 Y38.7207 S125
G1 X52.6625 Y38.6912 S125
G1 X52.7437 Y38.6536 S125
G1 X52.8208 Y38.6082 S125
G1 X52.8931 Y38.5555 S125
G1 X52.9599 Y38.4960 S125
G1 X53.0205 Y38.4301 S125
G1 X53.0744 Y38.3587 S125
G1 X53.1210 Y38.2823 S125
G1 X53.1599 Y38.2017 S125
G1 X53.1907 Y38.1177 S125
G1 X53.2132 Y38.0311 S125
G1 X53.2270 Y37.9427 S125
G1 X53.2321 Y37.8534 S125
G1 X53.2285 Y37.7640 S125
G1 X53.2161 Y37.6753 S125
G1 X53.1950 Y37.5884 S125
G1 X53.1655 Y37.5039 S125
G1 X53.1279 Y37.4227 S125
G1 X53.0826 Y37.3455 S125
G1 X53.0298 Y37.2732 S125
G1 X52.9703 Y37.2064 S125
G1 X52.9045 Y37.1458 S125
G1 X52.8330 Y37.0919 S125
G1 X52.7566 Y37.0453 S125
G1 X52.6761 Y37.0064 S125
G1 X52.5921 Y36.9756 S125
G1 X52.5054 Y36.9531 S125
G1 X52.4170 Y36.9393 S125
G1 X52.3130 Y36.9342 S125
G1 X52.2383 Y36.9378 S125
; Isolation Path 2
G0 X27.1522 Y36.9378 S0
G1 X27.0492 Y36.9531 S125
G1 X26.9625 Y36.9756 S125
G1 X26.8921 Y37.0008 S125
G1 X26.8109 Y37.0384 S125
G1 X26.7338 Y37.0838 S125
G1 X26.6615 Y37.1365 S125
G1 X26.5947 Y37.1960 S125
G1 X26.5341 Y37.2619 S125
G1 X26.4802 Y37.3333 S125
G1 X26.4336 Y37.4097 S125
G1 X26.3947 Y37.4903 S125
G1 X26.3638 Y37.5743 S125
G1 X26.3414 Y37.6609 S125
G1 X26.3276 Y37.7493 S125
G1 X26.3224 Y37.8386 S125
G1 X26.3261 Y37.9280 S125
G1 X26.3385 Y38.0167 S125
G1 X26.3596 Y38.1036 S125
G1 X26.3890 Y38.1881 S125
G1 X26.4266 Y38.2693 S125
G1 X26.4720 Y38.3465 S125
G1 X26.5247 Y38.4188 S125
G1 X26.5843 Y38.4856 S125
G1 X26.6501 Y38.5462 S125
G1 X26.7216 Y38.6001 S125
G1 X26.7979 Y38.6467 S125
G1 X26.8785 Y38.6856 S125
G1 X26.9625 Y38.7164 S125
G1 X27.0492 Y38.7389 S125
G1 X27.1376 Y38.7527 S125
G1 X27.2269 Y38.7578 S125
G1 X27.3163 Y38.7542 S125
G1 X27.4049 Y38.7417 S125
G1 X27.4919 Y38.7207 S125
G1 X27.5764 Y38.6912 S125
G1 X27.6576 Y38.6536 S125
G1 X27.7347 Y38.6082 S125
G1 X27.8070 Y38.5555 S125
G1 X27.8738 Y38.4960 S125
G1 X27.9344 Y38.4301 S125
G1 X27.9883 Y38.3587 S125
G1 X28.0349 Y38.2823 S125
G1 X28.0739 Y38.2017 S125
G1 X28.1047 Y38.1177 S125
G1 X28.1271 Y38.0311 S125
G1 X28.1410 Y37.9427 S125
G1 X28.1461 Y37.8534 S125
G1 X28.1424 Y37.7640 S125
G1 X28.1300 Y37.6753 S125
G1 X28.1090 Y37.5884 S125
G1 X28.0795 Y37.5039 S125
G1 X28.0419 Y37.4227 S125
G1 X27.9965 Y37.3455 S125
G1 X27.9438 Y37.2732 S125
G1 X27.8842 Y37.2064 S125
G1 X27.8184 Y37.1458 S125
G1 X27.7470 Y37.0919 S125
G1 X27.6706 Y37.0453 S125
G1 X27.5900 Y37.0064 S125
G1 X27.5060 Y36.9756 S125
G1 X27.4194 Y36.9531 S125
G1 X27.3310 Y36.9393 S125
G1 X27.2269 Y36.9342 S125
G1 X27.1522 Y36.9378 S125
; Isolation Path 3
G0 X74.9326 Y33.2709 S0
G1 X74.8306 Y33.2853 S125
G1 X74.7305 Y33.3097 S125
G1 X74.6332 Y33.3437 S125
G1 X74.5398 Y33.3871 S125
G1 X74.4510 Y33.4394 S125
G1 X74.3679 Y33.5002 S125
G1 X74.2910 Y33.5689 S125
G1 X74.2213 Y33.6447 S125
G1 X74.1594 Y33.7270 S125
G1 X74.1199 Y33.7914 S125
G1 X69.4340 Y33.7914 S125
G1 X69.3946 Y33.7270 S125
G1 X69.3420 Y33.6561 S125
G1 X69.2733 Y33.5793 S125
G1 X69.1975 Y33.5096 S125
G1 X69.1151 Y33.4476 S125
G1 X69.0271 Y33.3940 S125
G1 X68.9343 Y33.3493 S125
G1 X68.8376 Y33.3139 S125
G1 X68.7378 Y33.2882 S125
G1 X68.6360 Y33.2724 S125
G1 X68.5331 Y33.2666 S125
G1 X68.4302 Y33.2709 S125
G1 X68.3282 Y33.2853 S125
G1 X68.2281 Y33.3097 S125
G1 X68.1308 Y33.3437 S125
G1 X68.0374 Y33.3871 S125
G1 X67.9486 Y33.4394 S125
G1 X67.8655 Y33.5002 S125
G1 X67.7886 Y33.5689 S125
G1 X67.7189 Y33.6447 S125
G1 X67.6570 Y33.7270 S125
G1 X67.6034 Y33.8150 S125
G1 X67.5587 Y33.9079 S125
G1 X67.5233 Y34.0046 S125
G1 X67.4976 Y34.1044 S125
G1 X67.4817 Y34.2062 S125
G1 X67.4760 Y34.3090 S125
G1 X67.4803 Y34.4120 S125
G1 X67.4947 Y34.5140 S125
G1 X67.5124 Y34.5875 S125
G1 X65.4789 Y36.6210 S125
G1 X61.2317 Y36.6210 S125
G1 X61.1790 Y36.5345 S125
G1 X61.1147 Y36.4490 S125
G1 X61.0424 Y36.3703 S125
G1 X60.9741 Y36.3084 S125
G1 X60.8886 Y36.2441 S125
G1 X60.7973 Y36.1885 S125
G1 X60.7009 Y36.1421 S125
G1 X60.6005 Y36.1054 S125
G1 X60.4969 Y36.0787 S125
G1 X60.3912 Y36.0623 S125
G1 X60.2845 Y36.0564 S125
G1 X60.1776 Y36.0609 S125
G1 X60.0718 Y36.0759 S125
G1 X59.9679 Y36.1011 S125
G1 X59.8669 Y36.1365 S125
G1 X59.7700 Y36.1815 S125
G1 X59.6779 Y36.2359 S125
G1 X59.5916 Y36.2990 S125
G1 X59.5118 Y36.3703 S125
G1 X59.4395 Y36.4490 S125
G1 X59.3752 Y36.5345 S125
G1 X59.3196 Y36.6258 S125
G1 X59.2733 Y36.7222 S125
G1 X59.2366 Y36.8226 S125
G1 X59.2099 Y36.9262 S125
G1 X59.1935 Y37.0318 S125
G1 X59.1875 Y37.1386 S125
G1 X59.1920 Y37.2454 S125
G1 X59.2070 Y37.3513 S125
G1 X59.2323 Y37.4552 S125
G1 X59.2676 Y37.5562 S125
G1 X59.3127 Y37.6531 S125
G1 X59.3670 Y37.7452 S125
G1 X59.4302 Y37.8315 S125
G1 X59.5014 Y37.9112 S125
G1 X59.5802 Y37.9836 S125
G1 X59.6656 Y38.0479 S125
G1 X59.7570 Y38.1035 S125
G1 X59.8533 Y38.1498 S125
G1 X59.9538 Y38.1865 S125
G1 X60.0573 Y38.2132 S125
G1 X60.1630 Y38.2296 S125
G1 X60.2698 Y38.2356 S125
G1 X60.3766 Y38.2311 S125
G1 X60.4825 Y38.2161 S125
G1 X60.5864 Y38.1908 S125
G1 X60.6873 Y38.1555 S125
G1 X60.7843 Y38.1104 S125
G1 X60.8764 Y38.0560 S125
G1 X60.9627 Y37.9929 S125
G1 X61.0424 Y37.9217 S125
G1 X61.1147 Y37.8429 S125
G1 X61.1790 Y37.7574 S125
G1 X61.2317 Y37.6709 S125
G1 X65.6963 Y37.6709 S125
G1 X65.7405 Y37.6690 S125
G1 X65.7915 Y37.6621 S125
G1 X65.8416 Y37.6503 S125
G1 X65.8904 Y37.6336 S125
G1 X65.9372 Y37.6123 S125
G1 X65.9818 Y37.5864 S125
G1 X66.0236 Y37.5563 S125
G1 X66.0622 Y37.5223 S125
G1 X68.2549 Y35.3299 S125
G1 X68.3282 Y35.3475 S125
G1 X68.4155 Y35.3605 S125
G1 X68.5184 Y35.3662 S125
G1 X68.6213 Y35.3619 S125
G1 X68.7234 Y35.3475 S125
G1 X68.8235 Y35.3232 S125
G1 X68.9207 Y35.2891 S125
G1 X69.0142 Y35.2457 S125
G1 X69.1029 Y35.1934 S125
G1 X69.1861 Y35.1326 S125
G1 X69.2629 Y35.0639 S125
G1 X69.3326 Y34.9881 S125
G1 X69.3946 Y34.9058 S125
G1 X69.4340 Y34.8414 S125
G1 X74.1199 Y34.8414 S125
G1 X74.1594 Y34.9058 S125
G1 X74.2120 Y34.9767 S125
G1 X74.2806 Y35.0535 S125
G1 X74.3565 Y35.1233 S125
G1 X74.4388 Y35.1852 S125
G1 X74.5268 Y35.2388 S125
G1 X74.6196 Y35.2835 S125
G1 X74.7164 Y35.3189 S125
G1 X74.8161 Y35.3446 S125
G1 X74.9179 Y35.3605 S125
G1 X75.0208 Y35.3662 S125
G1 X75.1237 Y35.3619 S125
G1 X75.2258 Y35.3475 S125
G1 X75.3259 Y35.3232 S125
G1 X75.4231 Y35.2891 S125
G1 X75.5166 Y35.2457 S125
G1 X75.6053 Y35.1934 S125
G1 X75.6885 Y35.1326 S125
G1 X75.7653 Y35.0639 S125
G1 X75.8350 Y34.9881 S125
G1 X75.8970 Y34.9058 S125
G1 X75.9506 Y34.8178 S125
G1 X75.9953 Y34.7250 S125
G1 X76.0306 Y34.6282 S125
G1 X76.0564 Y34.5284 S125
G1 X76.0722 Y34.4266 S125
G1 X76.0780 Y34.3238 S125
G1 X76.0737 Y34.2208 S125
G1 X76.0593 Y34.1188 S125
G1 X76.0349 Y34.0187 S125
G1 X76.0009 Y33.9215 S125
G1 X75.9575 Y33.8280 S125
G1 X75.9052 Y33.7393 S125
G1 X75.8444 Y33.6561 S125
G1 X75.7757 Y33.5793 S125
G1 X75.6999 Y33.5096 S125
G1 X75.6175 Y33.4476 S125
G1 X75.5295 Y33.3940 S125
G1 X75.4367 Y33.3493 S125
G1 X75.3400 Y33.3139 S125
G1 X75.2402 Y33.2882 S125
G1 X75.1384 Y33.2724 S125
G1 X75.0208 Y33.2666 S125
G1 X74.9326 Y33.2709 S125
; Isolation Path 4
G0 X10.9327 Y28.7700 S0
G1 X10.8307 Y28.7844 S125
G1 X10.7306 Y28.8088 S125
G1 X10.6334 Y28.8428 S125
G1 X10.5399 Y28.8862 S125
G1 X10.4512 Y28.9385 S125
G1 X10.3680 Y28.9993 S125
G1 X10.2912 Y29.0680 S125
G1 X10.2214 Y29.1438 S125
G1 X10.1595 Y29.2262 S125
G1 X10.1201 Y29.2905 S125
G1 X5.4341 Y29.2905 S125
G1 X5.3947 Y29.2262 S125
G1 X5.3421 Y29.1552 S125
G1 X5.2734 Y29.0784 S125
G1 X5.1976 Y29.0087 S125
G1 X5.1153 Y28.9467 S125
G1 X5.0273 Y28.8931 S125
G1 X4.9344 Y28.8484 S125
G1 X4.8377 Y28.8131 S125
G1 X4.7379 Y28.7873 S125
G1 X4.6361 Y28.7715 S125
G1 X4.5333 Y28.7657 S125
G1 X4.4303 Y28.7700 S125
G1 X4.3283 Y28.7844 S125
G1 X4.2282 Y28.8088 S125
G1 X4.1310 Y28.8428 S125
G1 X4.0375 Y28.8862 S125
G1 X3.9488 Y28.9385 S125
G1 X3.8656 Y28.9993 S125
G1 X3.7888 Y29.0680 S125
G1 X3.7190 Y29.1438 S125
G1 X3.6571 Y29.2262 S125
G1 X3.6035 Y29.3142 S125
G1 X3.5588 Y29.4070 S125
G1 X3.5234 Y29.5037 S125
G1 X3.4977 Y29.6035 S125
G1 X3.4819 Y29.7053 S125
G1 X3.4761 Y29.8082 S125
G1 X3.4804 Y29.9111 S125
G1 X3.4948 Y30.0131 S125
G1 X3.5191 Y30.1132 S125
G1 X3.5532 Y30.2105 S125
G1 X3.5966 Y30.3039 S125
G1 X3.6489 Y30.3927 S125
G1 X3.7097 Y30.4758 S125
G1 X3.7784 Y30.5527 S125
G1 X3.8542 Y30.6224 S125
G1 X3.9365 Y30.6843 S125
G1 X4.0245 Y30.7379 S125
G1 X4.1174 Y30.7826 S125
G1 X4.2141 Y30.8180 S125
G1 X4.3139 Y30.8437 S125
G1 X4.4157 Y30.8596 S125
G1 X4.5185 Y30.8653 S125
G1 X4.6215 Y30.8610 S125
G1 X4.7235 Y30.8466 S125
G1 X4.8236 Y30.8223 S125
G1 X4.9208 Y30.7883 S125
G1 X5.0143 Y30.7449 S125
G1 X5.1030 Y30.6925 S125
G1 X5.1862 Y30.6317 S125
G1 X5.2630 Y30.5631 S125
G1 X5.3328 Y30.4872 S125
G1 X5.3947 Y30.4049 S125
G1 X5.4341 Y30.3405 S125
G1 X10.1201 Y30.3405 S125
G1 X10.1595 Y30.4049 S125
G1 X10.2121 Y30.4758 S125
G1 X10.2808 Y30.5527 S125
G1 X10.3566 Y30.6224 S125
G1 X10.4389 Y30.6843 S125
G1 X10.5269 Y30.7379 S125
G1 X10.6198 Y30.7826 S125
G1 X10.7165 Y30.8180 S125
G1 X10.8163 Y30.8437 S125
G1 X10.9181 Y30.8596 S125
G1 X11.0209 Y30.8653 S125
G1 X11.1239 Y30.8610 S125
G1 X11.2338 Y30.8450 S125
G1 X17.2310 Y36.8422 S125
G1 X17.2071 Y36.9406 S125
G1 X17.1921 Y37.0465 S125
G1 X17.1876 Y37.1533 S125
G1 X17.1921 Y37.2454 S125
G1 X17.2071 Y37.3513 S125
G1 X17.2324 Y37.4552 S125
G1 X17.2677 Y37.5562 S125
G1 X17.3128 Y37.6531 S125
G1 X17.3671 Y37.7452 S125
G1 X17.4303 Y37.8315 S125
G1 X17.5015 Y37.9112 S125
G1 X17.5803 Y37.9836 S125
G1 X17.6657 Y38.0479 S125
G1 X17.7571 Y38.1035 S125
G1 X17.8534 Y38.1498 S125
G1 X17.9539 Y38.1865 S125
G1 X18.0574 Y38.2132 S125
G1 X18.1631 Y38.2296 S125
G1 X18.2699 Y38.2356 S125
G1 X18.3767 Y38.2311 S125
G1 X18.4826 Y38.2161 S125
G1 X18.5865 Y38.1908 S125
G1 X18.6874 Y38.1555 S125
G1 X18.7844 Y38.1104 S125
G1 X18.8765 Y38.0560 S125
G1 X18.9628 Y37.9929 S125
G1 X19.0425 Y37.9217 S125
G1 X19.1148 Y37.8429 S125
G1 X19.1791 Y37.7574 S125
G1 X19.2347 Y37.6661 S125
G1 X19.2811 Y37.5697 S125
G1 X19.3178 Y37.4693 S125
G1 X19.3445 Y37.3658 S125
G1 X19.3609 Y37.2601 S125
G1 X19.3668 Y37.1533 S125
G1 X19.3623 Y37.0465 S125
G1 X19.3473 Y36.9406 S125
G1 X19.3220 Y36.8367 S125
G1 X19.2867 Y36.7358 S125
G1 X19.2416 Y36.6388 S125
G1 X19.1873 Y36.5467 S125
G1 X19.1242 Y36.4604 S125
G1 X19.0529 Y36.3807 S125
G1 X18.9741 Y36.3084 S125
G1 X18.8887 Y36.2441 S125
G1 X18.7973 Y36.1885 S125
G1 X18.7010 Y36.1421 S125
G1 X18.6006 Y36.1054 S125
G1 X18.4970 Y36.0787 S125
G1 X18.3913 Y36.0623 S125
G1 X18.2846 Y36.0564 S125
G1 X18.1777 Y36.0609 S125
G1 X18.0719 Y36.0759 S125
G1 X17.9734 Y36.0998 S125
G1 X12.0229 Y30.1492 S125
G1 X12.0350 Y30.1132 S125
G1 X12.0594 Y30.0131 S125
G1 X12.0723 Y29.9258 S125
G1 X12.0781 Y29.8229 S125
G1 X12.0738 Y29.7200 S125
G1 X12.0594 Y29.6179 S125
G1 X12.0350 Y29.5178 S125
G1 X12.0010 Y29.4206 S125
G1 X11.9576 Y29.3271 S125
G1 X11.9053 Y29.2384 S125
G1 X11.8445 Y29.1552 S125
G1 X11.7758 Y29.0784 S125
G1 X11.7000 Y29.0087 S125
G1 X11.6177 Y28.9467 S125
G1 X11.5297 Y28.8931 S125
G1 X11.4368 Y28.8484 S125
G1 X11.3401 Y28.8131 S125
G1 X11.2403 Y28.7873 S125
G1 X11.1385 Y28.7715 S125
G1 X11.0209 Y28.7657 S125
G1 X10.9327 Y28.7700 S125
; Isolation Path 5
G0 X52.2383 Y34.3978 S0
G1 X52.1352 Y34.4131 S125
G1 X52.0486 Y34.4356 S125
G1 X51.9782 Y34.4608 S125
G1 X51.8970 Y34.4984 S125
G1 X51.8199 Y34.5438 S125
G1 X51.7476 Y34.5965 S125
G1 X51.6808 Y34.6560 S125
G1 X51.6201 Y34.7219 S125
G1 X51.5663 Y34.7933 S125
G1 X51.5196 Y34.8697 S125
G1 X51.4807 Y34.9503 S125
G1 X51.4499 Y35.0343 S125
G1 X51.4275 Y35.1209 S125
G1 X51.4136 Y35.2093 S125
G1 X51.4085 Y35.2986 S125
G1 X51.4122 Y35.3880 S125
G1 X51.4246 Y35.4767 S125
G1 X51.4456 Y35.5636 S125
G1 X51.4751 Y35.6481 S125
G1 X51.5127 Y35.7293 S125
G1 X51.5581 Y35.8065 S125
G1 X51.6108 Y35.8788 S125
G1 X51.6704 Y35.9455 S125
G1 X51.7362 Y36.0062 S125
G1 X51.8076 Y36.0601 S125
G1 X51.8840 Y36.1067 S125
G1 X51.9646 Y36.1456 S125
G1 X52.0486 Y36.1764 S125
G1 X52.1352 Y36.1989 S125
G1 X52.2236 Y36.2127 S125
G1 X52.3130 Y36.2178 S125
G1 X52.4024 Y36.2141 S125
G1 X52.4910 Y36.2017 S125
G1 X52.5780 Y36.1807 S125
G1 X52.6625 Y36.1512 S125
G1 X52.7437 Y36.1136 S125
G1 X52.8208 Y36.0682 S125
G1 X52.8931 Y36.0155 S125
G1 X52.9599 Y35.9560 S125
G1 X53.0205 Y35.8901 S125
G1 X53.0744 Y35.8187 S125
G1 X53.1210 Y35.7423 S125
G1 X53.1599 Y35.6617 S125
G1 X53.1907 Y35.5777 S125
G1 X53.2132 Y35.4911 S125
G1 X53.2270 Y35.4027 S125
G1 X53.2321 Y35.3134 S125
G1 X53.2285 Y35.2240 S125
G1 X53.2161 Y35.1353 S125
G1 X53.1950 Y35.0484 S125
G1 X53.1655 Y34.9639 S125
G1 X53.1279 Y34.8827 S125
G1 X53.0826 Y34.8055 S125
G1 X53.0298 Y34.7332 S125
G1 X52.9703 Y34.6664 S125
G1 X52.9045 Y34.6058 S125
G1 X52.8330 Y34.5519 S125
G1 X52.7566 Y34.5053 S125
G1 X52.6761 Y34.4664 S125
G1 X52.5921 Y34.4356 S125
G1 X52.5054 Y34.4131 S125
G1 X52.4170 Y34.3993 S125
G1 X52.3130 Y34.3942 S125
G1 X52.2383 Y34.3978 S125
; Isolation Path 6
G0 X27.1522 Y34.3978 S0
G1 X27.0492 Y34.4131 S125
G1 X26.9625 Y34.4356 S125
G1 X26.8921 Y34.4608 S125
G1 X26.8109 Y34.4984 S125
G1 X26.7338 Y34.5438 S125
G1 X26.6615 Y34.5965 S125
G1 X26.5947 Y34.6560 S125
G1 X26.5341 Y34.7219 S125
G1 X26.4802 Y34.7933 S125
G1 X26.4336 Y34.8697 S125
G1 X26.3947 Y34.9503 S125
G1 X26.3638 Y35.0343 S125
G1 X26.3414 Y35.1209 S125
G1 X26.3276 Y35.2093 S125
G1 X26.3224 Y35.2986 S125
G1 X26.3261 Y35.3880 S125
G1 X26.3385 Y35.4767 S125
G1 X26.3596 Y35.5636 S125
G1 X26.3890 Y35.6481 S125
G1 X26.4266 Y35.7293 S125
G1 X26.4720 Y35.8065 S125
G1 X26.5247 Y35.8788 S125
G1 X26.5843 Y35.9455 S125
G1 X26.6501 Y36.0062 S125
G1 X26.7216 Y36.0601 S125
G1 X26.7979 Y36.1067 S125
G1 X26.8785 Y36.1456 S125
G1 X26.9625 Y36.1764 S125
G1 X27.0492 Y36.1989 S125
G1 X27.1376 Y36.2127 S125
G1 X27.2269 Y36.2178 S125
G1 X27.3163 Y36.2141 S125
G1 X27.4049 Y36.2017 S125
G1 X27.4919 Y36.1807 S125
G1 X27.5764 Y36.1512 S125
G1 X27.6576 Y36.1136 S125
G1 X27.7347 Y36.0682 S125
G1 X27.8070 Y36.0155 S125
G1 X27.8738 Y35.9560 S125
G1 X27.9344 Y35.8901 S125
G1 X27.9883 Y35.8187 S125
G1 X28.0349 Y35.7423 S125
G1 X28.0739 Y35.6617 S125
G1 X28.1047 Y35.5777 S125
G1 X28.1271 Y35.4911 S125
G1 X28.1410 Y35.4027 S125
G1 X28.1461 Y35.3134 S125
G1 X28.1424 Y35.2240 S125
G1 X28.1300 Y35.1353 S125
G1 X28.1090 Y35.0484 S125
G1 X28.0795 Y34.9639 S125
G1 X28.0419 Y34.8827 S125
G1 X27.9965 Y34.8055 S125
G1 X27.9438 Y34.7332 S125
G1 X27.8842 Y34.6664 S125
G1 X27.8184 Y34.6058 S125
G1 X27.7470 Y34.5519 S125
G1 X27.6706 Y34.5053 S125
G1 X27.5900 Y34.4664 S125
G1 X27.5060 Y34.4356 S125
G1 X27.4194 Y34.4131 S125
G1 X27.3310 Y34.3993 S125
G1 X27.2269 Y34.3942 S125
G1 X27.1522 Y34.3978 S125
; Isolation Path 7
G0 X52.2383 Y3.9179 S0
G1 X52.1352 Y3.9331 S125
G1 X52.0486 Y3.9556 S125
G1 X51.9782 Y3.9808 S125
G1 X51.8970 Y4.0184 S125
G1 X51.8199 Y4.0638 S125
G1 X51.7476 Y4.1165 S125
G1 X51.6808 Y4.1760 S125
G1 X51.6201 Y4.2419 S125
G1 X51.5754 Y4.3010 S125
G1 X27.9792 Y4.3010 S125
G1 X27.9344 Y4.2419 S125
G1 X27.8738 Y4.1760 S125
G1 X27.8184 Y4.1258 S125
G1 X27.7470 Y4.0719 S125
G1 X27.6706 Y4.0253 S125
G1 X27.5900 Y3.9864 S125
G1 X27.5060 Y3.9556 S125
G1 X27.4194 Y3.9331 S125
G1 X27.3310 Y3.9193 S125
G1 X27.2416 Y3.9142 S125
G1 X27.1522 Y3.9179 S125
G1 X27.0636 Y3.9303 S125
G1 X26.9766 Y3.9513 S125
G1 X26.8921 Y3.9808 S125
